; generated by PrusaSlicer 2.6.0+win64 on 2023-09-25 at 22:06:58 UTC

; 

; external perimeters extrusion width = 0.42mm
; perimeters extrusion width = 0.44mm
; infill extrusion width = 0.44mm
; solid infill extrusion width = 0.44mm
; top infill extrusion width = 0.40mm
; first layer extrusion width = 0.42mm

;TYPE:Custom
M109 S0
M190 S0
start_print EXTRUDER_TEMP=215 BED_TEMP=60
G21 ; set units to millimeters
G90 ; use absolute coordinates
M83 ; use relative distances for extrusion
; Filament gcode
M107
;LAYER_CHANGE
;Z:0.2
;HEIGHT:0.2
;BEFORE_LAYER_CHANGE
G92 E0
;0.2


G1 E-5 F3600
G1 Z.2 F9000
;AFTER_LAYER_CHANGE
;0.2
G1 X80.612 Y53.112
G1 E5 F2400
M204 S500
;TYPE:Skirt/Brim
;WIDTH:0.42
G1 F1200
G1 X83.612 Y50.112 E.13303
G1 X85.01 Y49.271 E.05115
G1 X86 Y49.123 E.03139
G1 X144 Y49.123 E1.81855
G1 X145.583 Y49.517 E.05115
G1 X146.388 Y50.112 E.03139
G1 X149.388 Y53.112 E.13303
G1 X150.302 Y54.792 E.05997
G1 X153.302 Y68.792 E.44893
G1 X153.377 Y69.5 E.02232
G1 X153.377 Y130.067 E1.89904
G1 X150.354 Y156.224 E.82559
G1 X149.51 Y158.092 E.06427
G1 X134.51 Y174.759 E.70306
G1 X133.158 Y175.672 E.05115
G1 X132 Y175.877 E.03687
G1 X98 Y175.877 E1.06605
G1 X96.417 Y175.483 E.05115
G1 X95.49 Y174.759 E.03688
G1 X80.49 Y158.093 E.70303
G1 X79.646 Y156.224 E.0643
G1 X76.623 Y130.067 E.82559
G1 X76.623 Y69.5 E1.89904
G1 X76.698 Y68.792 E.02232
G1 X79.698 Y54.792 E.44893
G1 X80.583 Y53.165 E.05807
G1 E-3.5 F3600
;WIPE_START
G1 F7200
G1 X82.807 Y50.923 E-1.5
;WIPE_END
G1 X142.059 Y103.215 F9000
G1 E5 F2400
;TYPE:Perimeter
;WIDTH:0.419999
G1 F1200
G1 X142.204 Y103.209 E.00455
G1 X142.518 Y103.264 E.01
G1 X142.826 Y103.377 E.01029
G1 X143.24 Y103.616 E.01499
G1 X143.531 Y103.878 E.01228
G1 X143.811 Y104.264 E.01495
G1 X143.97 Y104.622 E.01228
G1 X144.089 Y105.284 E.02109
G1 X143.97 Y105.946 E.02109
G1 X143.847 Y106.25 E.01028
G1 X143.678 Y106.52 E.00999
G1 X143.46 Y106.763 E.01024
G1 X142.904 Y107.167 E.02155
G1 X142.268 Y107.344 E.0207
G1 X141.877 Y107.358 E.01227
G1 X141.311 Y107.253 E.01805
G1 X140.823 Y107.004 E.01718
G1 X140.573 Y106.794 E.01024
G1 X140.248 Y106.406 E.01587
G1 X140.101 Y106.144 E.00942
G1 X139.968 Y105.765 E.01259
G1 X139.935 Y105.046 E.02257
G1 X140.003 Y104.694 E.01124
G1 X140.211 Y104.226 E.01606
G1 X140.407 Y103.941 E.01085
G1 X140.796 Y103.59 E.01643
G1 X141.073 Y103.416 E.01026
G1 X141.623 Y103.233 E.01817
G1 X141.999 Y103.218 E.0118
G1 X142.056 Y103.587 F9000
G1 F1200
G1 X142.139 Y103.58 E.00261
G1 X142.637 Y103.703 E.01608
G1 X143.051 Y103.942 E.01499
G1 X143.226 Y104.1 E.00739
G1 X143.506 Y104.486 E.01495
G1 X143.601 Y104.7 E.00734
G1 X143.712 Y105.284 E.01864
G1 X143.601 Y105.867 E.01861
G1 X143.359 Y106.32 E.0161
G1 X142.851 Y106.76 E.02107
G1 X142.639 Y106.863 E.00739
G1 X142.048 Y106.995 E.01899
G1 X141.472 Y106.904 E.01828
G1 X141.288 Y106.837 E.00614
G1 X140.868 Y106.56 E.01577
G1 X140.546 Y106.176 E.01571
G1 X140.347 Y105.716 E.01571
G1 X140.332 Y105.668 E.00158
G1 X140.313 Y105.045 E.01954
G1 X140.362 Y104.815 E.00737
G1 X140.566 Y104.357 E.01572
G1 X140.694 Y104.189 E.00662
G1 X141.072 Y103.85 E.01592
G1 X141.578 Y103.624 E.01738
G1 X141.996 Y103.592 E.01314
G1 X142.074 Y103.952 F9000
;TYPE:External perimeter
G1 F1200
G1 X142.449 Y104.03 E.01201
G1 X142.921 Y104.321 E.01739
G1 X143.232 Y104.779 E.01736
G1 X143.335 Y105.284 E.01616
G1 X143.232 Y105.789 E.01616
G1 X142.995 Y106.169 E.01404
G1 X142.583 Y106.485 E.01628
G1 X142.086 Y106.613 E.01609
G1 X141.538 Y106.533 E.01736
G1 X141.15 Y106.309 E.01405
G1 X140.828 Y105.923 E.01576
G1 X140.696 Y105.571 E.01179
G1 X140.69 Y105.045 E.01649
G1 X140.9 Y104.533 E.01735
G1 X141.3 Y104.15 E.01736
G1 X141.702 Y103.983 E.01365
G1 X142.014 Y103.957 E.00982
G1 X142.282 Y103.63 F9000
G1 E-3.5 F3600
;WIPE_START
G1 F7200
G1 X142.449 Y104.03 E-.20951
G1 X142.921 Y104.321 E-.26339
G1 X143.232 Y104.779 E-.26297
G1 X143.335 Y105.284 E-.24481
G1 X143.232 Y105.789 E-.24481
G1 X142.995 Y106.169 E-.21273
G1 X142.892 Y106.248 E-.06178
;WIPE_END
G1 X146.173 Y89.839 F9000
G1 E5 F2400
;TYPE:Perimeter
;WIDTH:0.450332
G1 F1200
G1 X146.097 Y89.922 E.00381
;WIDTH:0.419999
G1 X145.977 Y90.175 E.00878
G1 X145.936 Y90.45 E.00872
G1 X145.936 Y120.129 E.93056
G1 X146.011 Y120.486 E.01144
G1 X146.212 Y120.784 E.01127
G1 X148.936 Y123.508 E.12079
G1 X148.936 Y126.567 E.09591
G1 X148.936 Y129.626 E.09591
G1 X146.174 Y132.39 E.12252
G1 X146.004 Y132.664 E.01011
G1 X145.936 Y133.017 E.01127
G1 X145.936 Y155.425 E.70259
G1 X131.526 Y171.436 E.67539
G1 X98.474 Y171.436 E1.03632
G1 X84.064 Y155.425 E.67539
G1 X84.064 Y133.004 E.70299
G1 X83.989 Y132.648 E.01141
G1 X83.788 Y132.35 E.01127
G1 X81.064 Y129.626 E.12079
G1 X81.064 Y123.508 E.19183
G1 X83.826 Y120.744 E.12252
G1 X83.996 Y120.47 E.01011
G1 X84.064 Y120.117 E.01127
G1 X84.055 Y90.318 E.93433
G1 X83.934 Y89.971 E.01152
G1 X83.788 Y89.783 E.00746
G1 X83.404 Y89.399 E.01703
;WIDTH:0.454294
G1 X83.316 Y89.286 E.0049
;WIDTH:0.488589
G1 X83.227 Y89.173 E.00533
;WIDTH:0.522884
G1 X83.138 Y89.06 E.00574
G1 X83.271 Y89.112 E.0057
;WIDTH:0.488589
G1 X83.404 Y89.165 E.00531
;WIDTH:0.454294
G1 X83.537 Y89.217 E.00488
;WIDTH:0.419999
G1 X83.999 Y89.325 E.01488
G1 X84.536 Y89.343 E.01685
G1 X84.959 Y89.219 E.01382
G1 X85.281 Y89.038 E.01158
G1 X85.693 Y88.677 E.01718
G1 X85.967 Y88.213 E.0169
G1 X86.067 Y87.858 E.01156
G1 X86.102 Y87.317 E.017
G1 X85.968 Y86.79 E.01705
G1 X85.788 Y86.469 E.01154
G1 X85.335 Y85.984 E.02081
G1 X84.886 Y85.748 E.0159
G1 X84.398 Y85.647 E.01563
G1 X84.031 Y85.661 E.01152
G1 X83.418 Y85.831 E.01995
G1 X82.891 Y86.242 E.02095
G1 X82.664 Y86.531 E.01152
G1 X82.466 Y86.958 E.01476
G1 X82.4 Y87.572 E.01936
G1 X82.443 Y87.936 E.01149
;WIDTH:0.46149
G1 X82.517 Y88.148 E.00782
;WIDTH:0.502981
G1 X82.591 Y88.36 E.00859
;WIDTH:0.544472
G1 X82.665 Y88.572 E.00936
G1 X82.555 Y88.491 E.0057
;WIDTH:0.502981
G1 X82.445 Y88.411 E.0052
;WIDTH:0.46149
G1 X82.335 Y88.33 E.00475
;WIDTH:0.419999
G1 X81.064 Y87.059 E.05636
G1 X81.064 Y69.941 E.53672
G1 X82.35 Y68.654 E.05705
;WIDTH:0.454414
G1 X82.464 Y68.566 E.00493
;WIDTH:0.488829
G1 X82.577 Y68.477 E.00533
;WIDTH:0.523244
G1 X82.69 Y68.388 E.00574
G1 X82.634 Y68.516 E.00558
;WIDTH:0.486626
G1 X82.534 Y68.829 E.01212
;WIDTH:0.453313
G1 X82.433 Y69.142 E.01122
;WIDTH:0.419999
G1 X82.4 Y69.572 E.01352
G1 X82.443 Y69.937 E.01152
G1 X82.532 Y70.21 E.009
G1 X82.712 Y70.532 E.01157
G1 X82.993 Y70.859 E.01352
G1 X83.281 Y71.087 E.01152
G1 X83.537 Y71.217 E.009
G1 X83.892 Y71.317 E.01156
G1 X84.498 Y71.348 E.01903
G1 X84.757 Y71.281 E.00839
G1 X85.221 Y71.085 E.01579
G1 X85.51 Y70.857 E.01154
G1 X85.908 Y70.353 E.02014
G1 X86.078 Y69.864 E.01623
G1 X86.104 Y69.356 E.01595
G1 X86.032 Y68.995 E.01154
G1 X85.778 Y68.431 E.01939
G1 X85.459 Y68.088 E.01469
G1 X85.152 Y67.883 E.01157
G1 X84.611 Y67.672 E.01821
G1 X84.106 Y67.647 E.01585
G1 X83.815 Y67.693 E.00924
;WIDTH:0.461613
G1 X83.603 Y67.767 E.00782
;WIDTH:0.503227
G1 X83.39 Y67.841 E.00863
;WIDTH:0.54484
G1 X83.178 Y67.915 E.00937
G1 X83.259 Y67.805 E.0057
;WIDTH:0.503227
G1 X83.339 Y67.695 E.00521
;WIDTH:0.461613
G1 X83.42 Y67.585 E.00476
;WIDTH:0.419999
G1 X83.86 Y67.137 E.01969
G1 X84.041 Y66.758 E.01317
G1 X84.064 Y66.55 E.00656
G1 X84.064 Y55.941 E.33264
G1 X86.441 Y53.564 E.1054
G1 X143.559 Y53.564 E1.79089
G1 X145.936 Y55.941 E.1054
G1 X145.939 Y66.624 E.33496
G1 X146.048 Y66.996 E.01215
G1 X146.353 Y67.358 E.01484
;WIDTH:0.465718
G1 X146.486 Y67.523 E.00745
;WIDTH:0.511437
G1 X146.618 Y67.688 E.00823
;WIDTH:0.557156
G1 X146.751 Y67.853 E.00906
G1 X146.658 Y67.824 E.00417
;WIDTH:0.523772
G1 X146.565 Y67.795 E.0039
;WIDTH:0.490388
G1 X146.471 Y67.767 E.00365
;WIDTH:0.457004
G1 X145.898 Y67.647 E.02016
;WIDTH:0.419999
G1 X145.531 Y67.661 E.01152
G1 X145.041 Y67.782 E.01583
G1 X144.719 Y67.962 E.01157
G1 X144.275 Y68.361 E.01872
G1 X144.033 Y68.787 E.01536
G1 X143.933 Y69.142 E.01156
G1 X143.9 Y69.721 E.01818
G1 X143.968 Y70.005 E.00916
G1 X144.222 Y70.568 E.01937
G1 X144.578 Y70.947 E.0163
G1 X145.037 Y71.217 E.0167
G1 X145.392 Y71.317 E.01156
G1 X145.99 Y71.348 E.01878
G1 X146.46 Y71.218 E.01529
G1 X146.781 Y71.038 E.01154
G1 X147.109 Y70.758 E.01352
G1 X147.368 Y70.401 E.01383
G1 X147.532 Y70.003 E.0135
G1 X147.6 Y69.569 E.01377
G1 X147.566 Y69.139 E.01352
;WIDTH:0.454202
G1 X147.481 Y68.889 E.00903
;WIDTH:0.488404
G1 X147.395 Y68.638 E.00983
;WIDTH:0.522606
G1 X147.31 Y68.387 E.01057
G1 X147.423 Y68.476 E.00574
;WIDTH:0.488404
G1 X147.536 Y68.565 E.00533
;WIDTH:0.454202
G1 X147.649 Y68.654 E.00492
;WIDTH:0.419999
G1 X148.936 Y69.941 E.05707
G1 X148.936 Y87.059 E.53672
G1 X147.957 Y88.038 E.04341
;WIDTH:0.46581
G1 X147.771 Y88.192 E.00849
;WIDTH:0.51162
G1 X147.584 Y88.346 E.00944
;WIDTH:0.55743
G1 X147.398 Y88.5 E.01033
G1 X147.454 Y88.286 E.00946
;WIDTH:0.51162
G1 X147.51 Y88.072 E.00862
;WIDTH:0.46581
G1 X147.567 Y87.858 E.00779
;WIDTH:0.419999
G1 X147.6 Y87.428 E.01352
G1 X147.557 Y87.064 E.01149
G1 X147.468 Y86.79 E.00903
G1 X147.288 Y86.469 E.01154
G1 X147.008 Y86.141 E.01352
G1 X146.719 Y85.914 E.01152
G1 X146.463 Y85.783 E.00902
G1 X145.898 Y85.647 E.01822
G1 X145.531 Y85.661 E.01152
G1 X145 Y85.796 E.01718
G1 X144.719 Y85.962 E.01023
G1 X144.312 Y86.318 E.01695
G1 X144.033 Y86.787 E.01711
G1 X143.933 Y87.142 E.01156
G1 X143.898 Y87.684 E.01703
G1 X143.969 Y88.007 E.01037
G1 X144.197 Y88.529 E.01786
G1 X144.541 Y88.913 E.01616
G1 X144.78 Y89.086 E.00925
G1 X145.232 Y89.29 E.01555
G1 X145.822 Y89.35 E.01859
G1 X146.186 Y89.307 E.01149
;WIDTH:0.465546
G1 X146.374 Y89.254 E.00686
;WIDTH:0.511092
G1 X146.562 Y89.202 E.00759
;WIDTH:0.556638
G1 X146.749 Y89.149 E.0083
G1 X146.689 Y89.234 E.00444
;WIDTH:0.521203
G1 X146.63 Y89.319 E.00411
;WIDTH:0.485768
G1 X146.57 Y89.404 E.00383
;WIDTH:0.450332
G1 X146.213 Y89.795 E.01794
G1 X146.434 Y90.124 F9000
;WIDTH:0.419999
G1 F1200
G1 X146.338 Y90.285 E.00588
G1 X146.313 Y90.45 E.00523
G1 X146.313 Y119.266 E.9035
G1 X146.334 Y120.269 E.03146
G1 X146.479 Y120.517 E.00901
G1 X149.313 Y123.352 E.12569
G1 X149.313 Y129.782 E.20161
G1 X147.039 Y132.056 E.10083
G1 X146.38 Y132.749 E.02998
G1 X146.313 Y133.017 E.00866
G1 X146.313 Y155.57 E.70713
G1 X131.694 Y171.813 E.68518
G1 X98.306 Y171.813 E1.04686
G1 X83.687 Y155.57 E.68518
G1 X83.687 Y133.795 E.68274
G1 X83.666 Y132.865 E.02917
G1 X83.522 Y132.617 E.00899
G1 X80.687 Y129.782 E.12571
G1 X80.687 Y123.352 E.20161
G1 X82.961 Y121.078 E.10083
G1 X83.62 Y120.385 E.02998
G1 X83.687 Y120.117 E.00866
G1 X83.687 Y91.066 E.91087
G1 X83.661 Y90.28 E.02466
G1 X83.521 Y90.05 E.00844
G1 X80.687 Y87.215 E.12569
G1 X80.687 Y69.785 E.5465
G1 X83.153 Y67.319 E.10935
G1 X83.629 Y66.799 E.0221
G1 X83.687 Y66.55 E.00802
G1 X83.687 Y55.785 E.33753
G1 X86.285 Y53.187 E.1152
G1 X143.715 Y53.187 E1.80067
G1 X146.313 Y55.785 E.1152
G1 X146.313 Y65.935 E.31825
G1 X146.342 Y66.729 E.02491
G1 X146.479 Y66.95 E.00815
G1 X149.313 Y69.785 E.12569
G1 X149.313 Y87.215 E.5465
G1 X146.465 Y90.072 E.12648
G1 X146.745 Y90.316 F9000
;TYPE:External perimeter
G1 F1200
G1 X146.69 Y90.45 E.00454
G1 X146.69 Y120.117 E.93019
G1 X146.745 Y120.251 E.00454
G1 X149.69 Y123.196 E.13059
G1 X149.69 Y129.939 E.21142
G1 X146.745 Y132.883 E.13056
G1 X146.69 Y133.014 E.00445
G1 X146.69 Y155.714 E.71174
G1 X131.862 Y172.19 E.695
G1 X98.138 Y172.19 E1.05739
G1 X83.31 Y155.715 E.69497
G1 X83.31 Y133.017 E.71168
G1 X83.255 Y132.883 E.00454
G1 X80.31 Y129.939 E.13056
G1 X80.31 Y123.196 E.21142
G1 X83.255 Y120.251 E.13059
G1 X83.31 Y120.12 E.00445
G1 X83.31 Y90.451 E.93025
G1 X83.255 Y90.316 E.00457
G1 X80.31 Y87.372 E.13056
G1 X80.31 Y69.628 E.55635
G1 X83.255 Y66.684 E.13056
G1 X83.31 Y66.55 E.00454
G1 X83.31 Y55.628 E.34245
G1 X86.128 Y52.81 E.12495
G1 X143.872 Y52.81 E1.81052
G1 X146.69 Y55.628 E.12495
G1 X146.69 Y66.55 E.34245
G1 X146.745 Y66.684 E.00454
G1 X149.69 Y69.628 E.13056
G1 X149.69 Y87.372 E.55635
G1 X146.788 Y90.274 E.12868
G1 X146.604 Y90.347 F9000
G1 E-3.5 F3600
;WIPE_START
G1 F7200
G1 X146.69 Y90.45 E-.09569
G1 X146.69 Y93.406 E-1.40431
;WIPE_END
G1 X134.698 Y158.075 F9000
G1 E5 F2400
;TYPE:Perimeter
G1 F1200
G1 X134.763 Y158.004 E.00302
G1 X135.237 Y157.686 E.0179
G1 X135.551 Y157.571 E.01048
G1 X136.077 Y157.48 E.01674
G1 X136.348 Y157.488 E.0085
G1 X136.863 Y157.603 E.01655
G1 X137.383 Y157.895 E.0187
G1 X137.675 Y158.157 E.0123
G1 X138.047 Y158.702 E.02069
G1 X138.213 Y159.367 E.02149
G1 X138.213 Y159.758 E.01226
G1 X138.114 Y160.224 E.01494
G1 X137.955 Y160.582 E.01228
G1 X137.612 Y161.046 E.01809
G1 X137.174 Y161.375 E.01718
G1 X136.874 Y161.508 E.01029
G1 X136.411 Y161.624 E.01497
G1 X136.02 Y161.637 E.01227
G1 X135.349 Y161.495 E.0215
G1 X134.792 Y161.141 E.02069
G1 X134.556 Y160.914 E.01027
G1 X134.262 Y160.466 E.0168
G1 X134.093 Y159.901 E.01849
G1 X134.06 Y159.569 E.01046
G1 X134.133 Y159.039 E.01677
G1 X134.225 Y158.745 E.00966
G1 X134.518 Y158.267 E.01758
G1 X134.657 Y158.118 E.00639
G1 X135.203 Y158.162 F9000
G1 F1200
G1 X135.428 Y158.012 E.00848
G1 X135.616 Y157.942 E.00629
G1 X136.12 Y157.855 E.01604
G1 X136.655 Y157.929 E.01693
G1 X137.195 Y158.221 E.01925
G1 X137.369 Y158.379 E.00737
G1 X137.705 Y158.86 E.0184
G1 X137.844 Y159.445 E.01885
G1 X137.844 Y159.68 E.00737
G1 X137.671 Y160.329 E.02106
G1 X137.369 Y160.747 E.01617
G1 X136.963 Y161.063 E.01613
G1 X136.32 Y161.258 E.02107
G1 X136.086 Y161.266 E.00734
G1 X135.495 Y161.148 E.0189
G1 X135.003 Y160.829 E.01839
G1 X134.861 Y160.692 E.00619
G1 X134.588 Y160.26 E.01602
G1 X134.441 Y159.731 E.01721
G1 X134.506 Y159.092 E.02014
G1 X134.586 Y158.871 E.00737
G1 X134.856 Y158.441 E.01592
G1 X135.002 Y158.298 E.00641
G1 X135.153 Y158.196 E.00571
G1 X135.619 Y158.337 F9000
;TYPE:External perimeter
G1 F1200
G1 X136.152 Y158.231 E.01704
G1 X136.592 Y158.309 E.01401
G1 X137.039 Y158.572 E.01626
G1 X137.344 Y158.986 E.01612
G1 X137.475 Y159.524 E.01736
G1 X137.376 Y160.068 E.01734
G1 X137.064 Y160.526 E.01738
G1 X136.692 Y160.777 E.01407
G1 X136.151 Y160.894 E.01735
G1 X135.641 Y160.8 E.01626
G1 X135.213 Y160.516 E.01611
G1 X134.95 Y160.153 E.01405
G1 X134.813 Y159.672 E.01568
G1 X134.879 Y159.144 E.01668
G1 X135.158 Y158.667 E.01733
G1 X135.569 Y158.371 E.01588
G1 X135.665 Y157.939 F9000
G1 E-3.5 F3600
;WIPE_START
G1 F7200
G1 X136.152 Y158.231 E-.2848
G1 X136.592 Y158.309 E-.21226
G1 X137.039 Y158.572 E-.24635
G1 X137.344 Y158.986 E-.24425
G1 X137.475 Y159.524 E-.26302
G1 X137.381 Y160.04 E-.24932
;WIPE_END
G1 X121.961 Y164.182 F9000
G1 E5 F2400
;TYPE:Perimeter
G1 F1200
G1 X121.851 Y164.11 E.00412
G1 X121.49 Y163.72 E.01666
G1 X121.25 Y163.224 E.01728
G1 X121.162 Y162.888 E.01089
G1 X121.164 Y162.357 E.01665
G1 X121.243 Y161.987 E.01186
G1 X121.471 Y161.511 E.01655
G1 X121.688 Y161.251 E.01062
G1 X122.088 Y160.922 E.01624
G1 X122.444 Y160.761 E.01225
G1 X122.897 Y160.651 E.01462
G1 X123.458 Y160.674 E.0176
G1 X123.935 Y160.835 E.01578
G1 X124.211 Y160.984 E.00983
G1 X124.606 Y161.357 E.01703
G1 X124.806 Y161.636 E.01076
G1 X125.002 Y162.118 E.01631
G1 X125.051 Y162.678 E.01763
G1 X125.019 Y163.002 E.01021
G1 X124.833 Y163.5 E.01667
G1 X124.695 Y163.744 E.00879
G1 X124.286 Y164.151 E.01809
G1 X124.068 Y164.308 E.00842
G1 X123.516 Y164.508 E.01841
G1 X123.177 Y164.558 E.01074
G1 X122.709 Y164.525 E.01471
G1 X122.137 Y164.299 E.01928
G1 X122.011 Y164.215 E.00475
G1 X122.168 Y163.875 F9000
G1 F1200
G1 X122.113 Y163.838 E.00208
G1 X121.81 Y163.522 E.01373
G1 X121.591 Y163.063 E.01595
G1 X121.537 Y162.802 E.00836
G1 X121.551 Y162.259 E.01703
G1 X121.78 Y161.733 E.01799
G1 X121.929 Y161.541 E.00762
G1 X122.322 Y161.219 E.01593
G1 X122.794 Y161.044 E.01578
G1 X123.297 Y161.025 E.01578
G1 X123.359 Y161.038 E.00199
G1 X123.835 Y161.199 E.01576
G1 X124.024 Y161.32 E.00704
G1 X124.404 Y161.696 E.01676
G1 X124.633 Y162.193 E.01716
G1 X124.675 Y162.706 E.01614
G1 X124.64 Y162.95 E.00773
G1 X124.44 Y163.451 E.01691
G1 X124.025 Y163.88 E.01871
G1 X123.815 Y164.007 E.00769
G1 X123.31 Y164.173 E.01667
G1 X122.791 Y164.157 E.01628
G1 X122.284 Y163.952 E.01715
G1 X122.218 Y163.908 E.00249
G1 X122.375 Y163.567 F9000
;TYPE:External perimeter
G1 F1200
G1 X122.121 Y163.305 E.01144
G1 X121.915 Y162.838 E.016
