; generated by PrusaSlicer 2.6.0+win64 on 2023-09-05 at 15:21:57 UTC

; 

; external perimeters extrusion width = 0.42mm
; perimeters extrusion width = 0.44mm
; infill extrusion width = 0.44mm
; solid infill extrusion width = 0.44mm
; top infill extrusion width = 0.40mm
; first layer extrusion width = 0.42mm

;TYPE:Custom
M109 S0
M190 S0
start_print EXTRUDER_TEMP=215 BED_TEMP=60
G21 ; set units to millimeters
G90 ; use absolute coordinates
M83 ; use relative distances for extrusion
; Filament gcode
M107
;LAYER_CHANGE
;Z:0.2
;HEIGHT:0.2
;BEFORE_LAYER_CHANGE
G92 E0
;0.2


G1 E-5 F3600
G1 Z.2 F9000
;AFTER_LAYER_CHANGE
;0.2
G1 X80.612 Y53.112
G1 E5 F2400
M204 S500
;TYPE:Skirt/Brim
;WIDTH:0.42
G1 F1800
G1 X83.612 Y50.112 E.13303
G1 X85.01 Y49.271 E.05115
G1 X86 Y49.123 E.03139
G1 X144 Y49.123 E1.81855
G1 X145.583 Y49.517 E.05115
G1 X146.388 Y50.112 E.03139
G1 X149.388 Y53.112 E.13303
G1 X150.302 Y54.792 E.05997
G1 X153.302 Y68.792 E.44893
G1 X153.377 Y69.5 E.02232
G1 X153.377 Y130.067 E1.89904
G1 X150.354 Y156.224 E.82559
G1 X149.51 Y158.092 E.06427
G1 X134.51 Y174.759 E.70306
G1 X133.158 Y175.672 E.05115
G1 X132 Y175.877 E.03687
G1 X98 Y175.877 E1.06605
G1 X96.417 Y175.483 E.05115
G1 X95.49 Y174.759 E.03688
G1 X80.49 Y158.093 E.70303
G1 X79.646 Y156.224 E.0643
G1 X76.623 Y130.067 E.82559
G1 X76.623 Y69.5 E1.89904
G1 X76.698 Y68.792 E.02232
G1 X79.698 Y54.792 E.44893
G1 X80.583 Y53.165 E.05807
G1 E-3.5 F3600
;WIPE_START
G1 F7200
G1 X82.807 Y50.923 E-1.5
;WIPE_END
G1 X143.305 Y106.897 F9000
G1 E5 F2400
;TYPE:Perimeter
;WIDTH:0.419999
G1 F1800
G1 X143.208 Y106.979 E.00398
G1 X142.864 Y107.178 E.01246
G1 X142.556 Y107.29 E.01028
G1 X141.986 Y107.373 E.01806
G1 X141.444 Y107.29 E.01719
G1 X141.136 Y107.178 E.01028
G1 X140.687 Y106.909 E.01641
G1 X140.285 Y106.463 E.01883
G1 X140.121 Y106.179 E.01028
G1 X139.961 Y105.73 E.01495
G1 X139.928 Y105.084 E.02028
G1 X139.985 Y104.762 E.01025
G1 X140.166 Y104.284 E.01603
G1 X140.541 Y103.799 E.01922
G1 X140.791 Y103.589 E.01024
G1 X141.265 Y103.328 E.01697
G1 X141.817 Y103.21 E.0177
G1 X142.138 Y103.208 E.01006
G1 X142.7 Y103.315 E.01794
G1 X143.209 Y103.589 E.01812
G1 X143.459 Y103.799 E.01024
G1 X143.715 Y104.104 E.01249
G1 X143.879 Y104.388 E.01028
G1 X144.015 Y104.762 E.01248
G1 X144.072 Y105.084 E.01025
G1 X144.058 Y105.646 E.01763
G1 X143.879 Y106.179 E.01763
G1 X143.715 Y106.463 E.01028
G1 X143.459 Y106.768 E.01249
G1 X143.351 Y106.859 E.00443
G1 X143.086 Y106.582 F9000
G1 F1800
G1 X143.02 Y106.652 E.00302
G1 X142.49 Y106.918 E.01859
G1 X141.991 Y106.996 E.01584
G1 X141.452 Y106.905 E.01714
G1 X140.98 Y106.652 E.01679
G1 X140.829 Y106.526 E.00617
G1 X140.511 Y106.129 E.01595
G1 X140.334 Y105.661 E.01569
G1 X140.305 Y105.084 E.01811
G1 X140.339 Y104.891 E.00614
G1 X140.521 Y104.42 E.01583
G1 X140.859 Y104.008 E.01671
G1 X141.325 Y103.716 E.01724
G1 X141.507 Y103.649 E.00608
G1 X142.077 Y103.58 E.018
G1 X142.577 Y103.671 E.01593
G1 X143.02 Y103.915 E.01586
G1 X143.426 Y104.347 E.01859
G1 X143.661 Y104.891 E.01858
G1 X143.695 Y105.483 E.01859
G1 X143.661 Y105.676 E.00614
G1 X143.426 Y106.221 E.01861
G1 X143.127 Y106.539 E.01369
G1 X142.831 Y106.325 F9000
;TYPE:External perimeter
G1 F1800
G1 X142.425 Y106.547 E.01451
G1 X141.967 Y106.616 E.01452
G1 X141.513 Y106.525 E.01452
G1 X141.118 Y106.283 E.01452
G1 X140.829 Y105.921 E.01452
G1 X140.689 Y105.532 E.01296
G1 X140.691 Y105.027 E.01583
G1 X140.862 Y104.589 E.01474
G1 X141.168 Y104.242 E.01451
G1 X141.574 Y104.02 E.01451
G1 X142.015 Y103.952 E.01399
G1 X142.486 Y104.043 E.01504
G1 X142.882 Y104.284 E.01453
G1 X143.17 Y104.646 E.0145
G1 X143.318 Y105.084 E.0145
G1 X143.307 Y105.547 E.01452
G1 X143.138 Y105.978 E.01452
G1 X142.871 Y106.28 E.01264
G1 X142.891 Y106.721 F9000
G1 E-3.5 F3600
;WIPE_START
G1 F7200
G1 X142.425 Y106.547 E-.24691
G1 X141.967 Y106.616 E-.22001
G1 X141.513 Y106.525 E-.21994
G1 X141.118 Y106.283 E-.22004
G1 X140.829 Y105.921 E-.22003
G1 X140.689 Y105.532 E-.19638
G1 X140.69 Y105.16 E-.17669
;WIPE_END
G1 X146.129 Y89.909 F9000
G1 E5 F2400
;TYPE:Perimeter
G1 F1800
G1 X146.003 Y90.1 E.00717
G1 X145.936 Y90.45 E.01117
G1 X145.936 Y120.13 E.93059
G1 X146.011 Y120.486 E.01141
G1 X146.212 Y120.784 E.01127
G1 X148.936 Y123.508 E.12079
G1 X148.936 Y126.567 E.09591
G1 X148.936 Y129.626 E.09591
G1 X146.212 Y132.35 E.12079
G1 X146.011 Y132.648 E.01127
G1 X145.936 Y133.009 E.01156
G1 X145.936 Y155.425 E.70284
G1 X131.526 Y171.436 E.67539
G1 X98.474 Y171.436 E1.03632
G1 X84.064 Y155.425 E.67539
G1 X84.064 Y133.004 E.70299
G1 X83.989 Y132.648 E.01141
G1 X83.788 Y132.35 E.01127
G1 X81.064 Y129.626 E.12079
G1 X81.064 Y123.508 E.19183
G1 X83.826 Y120.744 E.12252
G1 X83.996 Y120.47 E.01011
G1 X84.064 Y120.117 E.01127
G1 X84.064 Y90.867 E.91711
G1 X84.048 Y90.277 E.01851
G1 X83.931 Y89.967 E.01039
G1 X83.61 Y89.605 E.01517
;WIDTH:0.467414
G1 X83.349 Y89.311 E.01388
;WIDTH:0.514828
G1 X83.089 Y89.017 E.0154
G1 X83.167 Y89.055 E.0034
;WIDTH:0.493922
G1 X83.469 Y89.175 E.01219
;WIDTH:0.456961
G1 X83.771 Y89.295 E.01119
;WIDTH:0.419999
G1 X84.266 Y89.364 E.01567
G1 X84.729 Y89.295 E.01468
G1 X85.037 Y89.183 E.01028
G1 X85.472 Y88.908 E.01614
G1 X85.852 Y88.454 E.01856
G1 X86.044 Y87.983 E.01595
G1 X86.101 Y87.66 E.01028
G1 X86.076 Y87.124 E.01682
G1 X85.894 Y86.622 E.01674
G1 X85.565 Y86.188 E.01708
G1 X85.314 Y85.977 E.01028
G1 X84.848 Y85.734 E.01648
G1 X84.242 Y85.637 E.01924
G1 X83.767 Y85.706 E.01505
G1 X83.463 Y85.817 E.01015
G1 X83.186 Y85.977 E.01003
G1 X82.935 Y86.188 E.01028
G1 X82.729 Y86.433 E.01004
G1 X82.566 Y86.717 E.01027
G1 X82.46 Y87.007 E.00968
G1 X82.399 Y87.34 E.01061
G1 X82.399 Y87.66 E.01003
G1 X82.456 Y87.983 E.01028
;WIDTH:0.45719
G1 X82.533 Y88.189 E.00758
;WIDTH:0.494381
G1 X82.61 Y88.396 E.00829
;WIDTH:0.531572
G1 X82.687 Y88.603 E.00897
G1 X82.514 Y88.457 E.0092
;WIDTH:0.494381
G1 X82.342 Y88.311 E.00847
;WIDTH:0.45719
G1 X82.17 Y88.165 E.00777
;WIDTH:0.419999
G1 X81.064 Y87.059 E.04904
G1 X81.064 Y69.941 E.53672
G1 X82.17 Y68.835 E.04904
;WIDTH:0.461102
G1 X82.323 Y68.711 E.00685
;WIDTH:0.502205
G1 X82.476 Y68.587 E.00752
;WIDTH:0.543308
G1 X82.63 Y68.463 E.00823
G1 X82.588 Y68.586 E.00541
;WIDTH:0.501443
G1 X82.547 Y68.71 E.00498
;WIDTH:0.459577
G1 X82.4 Y69.34 E.02241
;WIDTH:0.419999
G1 X82.4 Y69.66 E.01003
G1 X82.456 Y69.983 E.01028
G1 X82.566 Y70.284 E.01005
G1 X82.73 Y70.567 E.01026
G1 X82.935 Y70.812 E.01002
G1 X83.186 Y71.023 E.01028
G1 X83.464 Y71.183 E.01006
G1 X83.771 Y71.295 E.01025
G1 X84.265 Y71.365 E.01564
G1 X84.729 Y71.295 E.01471
G1 X85.037 Y71.183 E.01028
G1 X85.476 Y70.905 E.01629
G1 X85.828 Y70.492 E.01701
G1 X86.044 Y69.983 E.01734
G1 X86.101 Y69.66 E.01028
G1 X86.074 Y69.118 E.01702
G1 X85.885 Y68.604 E.01717
G1 X85.565 Y68.188 E.01646
G1 X85.314 Y67.978 E.01026
G1 X84.819 Y67.726 E.01742
G1 X84.244 Y67.637 E.01824
G1 X83.767 Y67.706 E.01511
;WIDTH:0.458122
G1 X83.564 Y67.78 E.00746
;WIDTH:0.496244
G1 X83.361 Y67.854 E.00814
;WIDTH:0.534366
G1 X83.158 Y67.928 E.00883
G1 X83.255 Y67.799 E.0066
;WIDTH:0.488197
G1 X83.351 Y67.669 E.00598
;WIDTH:0.442027
G1 X83.788 Y67.217 E.02086
;WIDTH:0.419999
G1 X83.988 Y66.92 E.01123
G1 X84.064 Y66.55 E.01184
G1 X84.064 Y55.941 E.33264
G1 X86.441 Y53.564 E.1054
G1 X143.559 Y53.564 E1.79089
G1 X145.936 Y55.941 E.1054
G1 X145.936 Y66.133 E.31956
G1 X145.951 Y66.719 E.01838
G1 X146.06 Y67.019 E.01001
G1 X146.381 Y67.386 E.01529
;WIDTH:0.457998
G1 X146.535 Y67.567 E.0082
;WIDTH:0.495996
G1 X146.689 Y67.747 E.00892
;WIDTH:0.533994
G1 X146.842 Y67.928 E.00968
G1 X146.634 Y67.853 E.00903
;WIDTH:0.495996
G1 X146.426 Y67.778 E.00833
;WIDTH:0.457998
G1 X146.219 Y67.704 E.00759
;WIDTH:0.419999
G1 X145.712 Y67.637 E.01603
G1 X145.267 Y67.706 E.01412
G1 X144.963 Y67.817 E.01015
G1 X144.528 Y68.092 E.01614
G1 X144.173 Y68.507 E.01712
G1 X143.956 Y69.017 E.01738
G1 X143.899 Y69.34 E.01028
G1 X143.926 Y69.884 E.01708
G1 X144.111 Y70.389 E.01686
G1 X144.435 Y70.812 E.01671
G1 X144.686 Y71.023 E.01028
G1 X145.146 Y71.264 E.01628
G1 X145.736 Y71.365 E.01877
G1 X146.229 Y71.295 E.01561
G1 X146.546 Y71.177 E.01061
G1 X146.833 Y71.007 E.01046
G1 X147.077 Y70.799 E.01005
G1 X147.273 Y70.564 E.00959
G1 X147.434 Y70.283 E.01015
G1 X147.54 Y69.993 E.00968
G1 X147.6 Y69.65 E.01092
G1 X147.597 Y69.315 E.0105
G1 X147.539 Y69 E.01004
;WIDTH:0.460979
G1 X147.483 Y68.821 E.00652
;WIDTH:0.501959
G1 X147.426 Y68.642 E.00717
;WIDTH:0.542938
G1 X147.37 Y68.462 E.00784
G1 X147.519 Y68.582 E.00795
;WIDTH:0.501959
G1 X147.668 Y68.702 E.0073
;WIDTH:0.460979
G1 X147.817 Y68.822 E.00665
;WIDTH:0.419999
G1 X148.936 Y69.941 E.04962
G1 X148.936 Y87.059 E.53672
G1 X147.83 Y88.165 E.04904
;WIDTH:0.45721
G1 X147.658 Y88.311 E.00777
;WIDTH:0.494421
G1 X147.486 Y88.457 E.00847
;WIDTH:0.531632
G1 X147.313 Y88.603 E.0092
G1 X147.39 Y88.396 E.00897
;WIDTH:0.494421
G1 X147.467 Y88.189 E.00829
;WIDTH:0.45721
G1 X147.544 Y87.983 E.00758
;WIDTH:0.419999
G1 X147.601 Y87.66 E.01028
G1 X147.601 Y87.34 E.01003
G1 X147.544 Y87.017 E.01028
G1 X147.434 Y86.717 E.01002
G1 X147.27 Y86.433 E.01028
G1 X147.065 Y86.188 E.01002
G1 X146.814 Y85.977 E.01028
G1 X146.537 Y85.817 E.01003
G1 X146.219 Y85.704 E.01058
G1 X145.714 Y85.637 E.01597
G1 X145.144 Y85.737 E.01814
G1 X144.686 Y85.977 E.01621
G1 X144.435 Y86.188 E.01028
G1 X144.094 Y86.648 E.01795
G1 X143.924 Y87.124 E.01585
G1 X143.899 Y87.66 E.01682
G1 X143.935 Y87.918 E.00817
G1 X144.116 Y88.397 E.01606
G1 X144.435 Y88.812 E.01641
G1 X144.686 Y89.023 E.01028
G1 X145.177 Y89.273 E.01728
G1 X145.734 Y89.364 E.0177
G1 X146.229 Y89.295 E.01567
;WIDTH:0.467412
G1 X146.57 Y89.156 E.013
;WIDTH:0.514824
G1 X146.911 Y89.017 E.01445
G1 X146.784 Y89.178 E.00805
;WIDTH:0.467412
G1 X146.656 Y89.339 E.00726
;WIDTH:0.419999
G1 X146.212 Y89.783 E.01969
G1 X146.162 Y89.858 E.00283
G1 X146.47 Y90.079 F9000
G1 F1800
G1 X146.393 Y90.16 E.0035
G1 X146.313 Y90.45 E.00943
G1 X146.313 Y119.272 E.90369
G1 X146.334 Y120.269 E.03127
G1 X146.479 Y120.517 E.00901
G1 X149.313 Y123.352 E.12569
G1 X149.313 Y129.782 E.20161
G1 X147.039 Y132.056 E.10083
G1 X146.388 Y132.735 E.02949
G1 X146.313 Y133.012 E.009
G1 X146.313 Y155.57 E.70729
G1 X131.694 Y171.813 E.68518
G1 X98.306 Y171.813 E1.04686
G1 X83.687 Y155.57 E.68518
G1 X83.687 Y133.541 E.6907
G1 X83.666 Y132.865 E.02121
G1 X83.521 Y132.617 E.00901
G1 X80.687 Y129.782 E.12569
G1 X80.687 Y123.352 E.20161
G1 X82.961 Y121.078 E.10083
G1 X83.62 Y120.385 E.02998
G1 X83.687 Y120.117 E.00866
G1 X83.687 Y90.45 E.93019
G1 X83.647 Y90.24 E.0067
G1 X83.521 Y90.05 E.00715
G1 X80.687 Y87.215 E.12569
G1 X80.687 Y69.785 E.5465
G1 X83.521 Y66.95 E.12569
G1 X83.642 Y66.772 E.00675
G1 X83.687 Y66.55 E.0071
G1 X83.687 Y55.785 E.33753
G1 X86.285 Y53.187 E.1152
G1 X143.715 Y53.187 E1.80067
G1 X146.313 Y55.785 E.1152
G1 X146.313 Y66.55 E.33753
G1 X146.35 Y66.753 E.00647
G1 X146.479 Y66.95 E.00738
G1 X149.313 Y69.785 E.12569
G1 X149.313 Y87.215 E.5465
G1 X146.511 Y90.036 E.12467
G1 X146.745 Y90.316 F9000
;TYPE:External perimeter
G1 F1800
G1 X146.69 Y90.45 E.00454
G1 X146.69 Y120.117 E.93019
G1 X146.745 Y120.251 E.00454
G1 X149.69 Y123.196 E.13059
G1 X149.69 Y129.939 E.21142
G1 X146.745 Y132.883 E.13056
G1 X146.69 Y133.015 E.00448
G1 X146.69 Y155.714 E.71171
G1 X131.862 Y172.19 E.695
G1 X98.138 Y172.19 E1.05739
G1 X83.31 Y155.715 E.69497
G1 X83.31 Y133.017 E.71168
G1 X83.255 Y132.883 E.00454
G1 X80.31 Y129.939 E.13056
G1 X80.31 Y123.196 E.21142
G1 X83.255 Y120.251 E.13059
G1 X83.31 Y120.12 E.00445
G1 X83.31 Y90.45 E.93028
G1 X83.255 Y90.316 E.00454
G1 X80.31 Y87.372 E.13056
G1 X80.31 Y69.628 E.55635
G1 X83.255 Y66.684 E.13056
G1 X83.31 Y66.55 E.00454
G1 X83.31 Y55.628 E.34245
G1 X86.128 Y52.81 E.12495
G1 X143.872 Y52.81 E1.81052
G1 X146.69 Y55.628 E.12495
G1 X146.69 Y66.55 E.34245
G1 X146.745 Y66.684 E.00454
G1 X149.69 Y69.628 E.13056
G1 X149.69 Y87.372 E.55635
G1 X146.788 Y90.274 E.12868
G1 X146.604 Y90.347 F9000
G1 E-3.5 F3600
;WIPE_START
G1 F7200
G1 X146.69 Y90.45 E-.09569
G1 X146.69 Y93.406 E-1.40431
;WIPE_END
G1 X137.877 Y160.709 F9000
G1 E5 F2400
;TYPE:Perimeter
G1 F1800
G1 X137.603 Y161.047 E.01364
G1 X137.352 Y161.258 E.01028
G1 X137.007 Y161.457 E.01249
G1 X136.699 Y161.569 E.01028
G1 X136.307 Y161.638 E.01248
G1 X135.98 Y161.638 E.01025
G1 X135.42 Y161.523 E.01792
G1 X134.935 Y161.258 E.01733
G1 X134.684 Y161.047 E.01028
G1 X134.366 Y160.66 E.01571
G1 X134.128 Y160.084 E.01954
G1 X134.071 Y159.762 E.01025
G1 X134.077 Y159.259 E.01577
G1 X134.264 Y158.667 E.01947
G1 X134.373 Y158.456 E.00745
G1 X134.708 Y158.05 E.0165
G1 X134.935 Y157.868 E.00912
G1 X135.387 Y157.615 E.01624
G1 X135.96 Y157.489 E.0184
G1 X136.282 Y157.487 E.0101
G1 X136.791 Y157.577 E.01621
G1 X137.352 Y157.868 E.01982
G1 X137.603 Y158.078 E.01026
G1 X137.948 Y158.509 E.01731
G1 X138.159 Y159.041 E.01794
G1 X138.216 Y159.363 E.01025
G1 X138.216 Y159.762 E.01251
G1 X138.159 Y160.084 E.01025
G1 X137.915 Y160.662 E.01967
G1 X137.602 Y160.445 F9000
G1 F1800
G1 X137.57 Y160.5 E.002
G1 X137.164 Y160.931 E.01857
G1 X136.634 Y161.198 E.01861
G1 X136.045 Y161.267 E.01859
G1 X135.552 Y161.17 E.01575
G1 X135.036 Y160.869 E.01873
G1 X134.68 Y160.45 E.01724
G1 X134.483 Y159.955 E.0167
G1 X134.448 Y159.762 E.00615
G1 X134.461 Y159.244 E.01625
G1 X134.631 Y158.764 E.01597
G1 X134.684 Y158.669 E.00341
G1 X135.014 Y158.277 E.01607
G1 X135.468 Y157.995 E.01676
G1 X135.651 Y157.928 E.00611
G1 X136.176 Y157.854 E.01662
G1 X136.689 Y157.94 E.01631
G1 X137.164 Y158.194 E.01689
G1 X137.314 Y158.321 E.00616
G1 X137.623 Y158.701 E.01536
G1 X137.805 Y159.17 E.01577
G1 X137.839 Y159.762 E.01859
G1 X137.668 Y160.33 E.0186
G1 X137.632 Y160.393 E.00228
G1 X137.281 Y160.257 F9000
;TYPE:External perimeter
G1 F1800
G1 X136.975 Y160.605 E.01453
G1 X136.569 Y160.826 E.01449
G1 X136.111 Y160.895 E.01452
G1 X135.657 Y160.804 E.01452
G1 X135.262 Y160.563 E.01451
G1 X134.973 Y160.201 E.01452
G1 X134.825 Y159.762 E.01453
G1 X134.837 Y159.299 E.01452
G1 X134.995 Y158.883 E.01395
G1 X135.312 Y158.521 E.01509
G1 X135.718 Y158.299 E.01451
G1 X136.158 Y158.231 E.01396
G1 X136.63 Y158.322 E.01507
G1 X137.025 Y158.563 E.01451
G1 X137.314 Y158.925 E.01452
G1 X137.462 Y159.363 E.0145
G1 X137.45 Y159.826 E.01452
G1 X137.303 Y160.202 E.01266
G1 X137.473 Y160.609 F9000
G1 E-3.5 F3600
;WIPE_START
G1 F7200
G1 X136.975 Y160.605 E-.24681
G1 X136.569 Y160.826 E-.21957
G1 X136.111 Y160.895 E-.22001
G1 X135.657 Y160.804 E-.21994
G1 X135.262 Y160.563 E-.21979
G1 X134.973 Y160.201 E-.22003
G1 X134.87 Y159.894 E-.15385
;WIPE_END
G1 X125.035 Y162.337 F9000
G1 E5 F2400
;TYPE:Perimeter
G1 F1800
G1 X125.049 Y162.423 E.00273
G1 X125.024 Y162.991 E.01783
G1 X124.793 Y163.597 E.02033
G1 X124.479 Y163.989 E.01575
G1 X124.228 Y164.199 E.01026
G1 X123.774 Y164.445 E.01619
G1 X123.264 Y164.55 E.01633
G1 X122.936 Y164.55 E.01028
G1 X122.426 Y164.445 E.01633
G1 X121.972 Y164.199 E.01619
G1 X121.721 Y163.989 E.01026
G1 X121.369 Y163.528 E.01819
G1 X121.192 Y163.054 E.01586
G1 X121.151 Y162.777 E.00878
G1 X121.166 Y162.254 E.01641
G1 X121.329 Y161.767 E.0161
G1 X121.493 Y161.483 E.01028
G1 X121.832 Y161.1 E.01604
G1 X122.279 Y160.823 E.01649
G1 X122.583 Y160.712 E.01015
G1 X123.101 Y160.637 E.01641
G1 X123.604 Y160.71 E.01594
G1 X123.921 Y160.823 E.01055
G1 X124.389 Y161.118 E.01735
G1 X124.765 Y161.56 E.01819
G1 X124.819 Y161.65 E.00329
G1 X124.999 Y162.12 E.01578
G1 X125.025 Y162.278 E.00502
G1 X124.588 Y162.118 F9000
G1 F1800
G1 X124.665 Y162.337 E.00728
G1 X124.668 Y162.845 E.01593
G1 X124.47 Y163.403 E.01856
G1 X124.123 Y163.814 E.01687
G1 X123.644 Y164.091 E.01735
G1 X123.1 Y164.188 E.01733
G1 X122.556 Y164.091 E.01733
G1 X122.077 Y163.814 E.01735
G1 X121.74 Y163.418 E.0163
G1 X121.553 Y162.944 E.01598
G1 X121.528 Y162.423 E.01635
G1 X121.562 Y162.229 E.00618
G1 X121.756 Y161.758 E.01597
G1 X122.096 Y161.371 E.01615
G1 X122.529 Y161.119 E.01571
G1 X123.019 Y161.018 E.01569
G1 X123.542 Y161.082 E.01652
G1 X123.732 Y161.15 E.00633
G1 X124.16 Y161.42 E.01587
G1 X124.485 Y161.826 E.01631
G1 X124.568 Y162.061 E.00781
G1 X124.152 Y162.001 F9000
;TYPE:External perimeter
G1 F1800
G1 X124.295 Y162.423 E.01397
G1 X124.283 Y162.842 E.01314
