; generated by PrusaSlicer 2.6.0+win64 on 2023-09-05 at 15:22:50 UTC

; 

; external perimeters extrusion width = 0.42mm
; perimeters extrusion width = 0.44mm
; infill extrusion width = 0.44mm
; solid infill extrusion width = 0.44mm
; top infill extrusion width = 0.40mm
; first layer extrusion width = 0.42mm

;TYPE:Custom
M109 S0
M190 S0
start_print EXTRUDER_TEMP=215 BED_TEMP=60
G21 ; set units to millimeters
G90 ; use absolute coordinates
M83 ; use relative distances for extrusion
; Filament gcode
M107
;LAYER_CHANGE
;Z:0.2
;HEIGHT:0.2
;BEFORE_LAYER_CHANGE
G92 E0
;0.2


G1 E-5 F3600
G1 Z.2 F9000
;AFTER_LAYER_CHANGE
;0.2
G1 X79.922 Y71.075
G1 E5 F2400
M204 S500
;TYPE:Skirt/Brim
;WIDTH:0.42
G1 F1800
G1 X95.49 Y53.77 E.72984
G1 X96.842 Y52.857 E.05115
G1 X98 Y52.652 E.03687
G1 X132 Y52.652 E1.06605
G1 X133.583 Y53.046 E.05115
G1 X134.51 Y53.77 E.03688
G1 X149.524 Y70.451 E.70368
G1 X169.524 Y92.941 E.94366
G1 X170.377 Y95.185 E.07527
G1 X170.377 Y156.873 E1.93418
G1 X169.983 Y158.456 E.05115
G1 X168.893 Y159.669 E.05113
G1 X168.138 Y160.052 E.02654
G1 X148.138 Y167.209 E.66603
G1 X147 Y167.406 E.03621
G1 X83 Y167.406 E2.00668
G1 X81.862 Y167.209 E.03621
G1 X61.862 Y160.052 E.66603
G1 X60.504 Y159.148 E.05115
G1 X59.729 Y157.712 E.05116
G1 X59.623 Y156.873 E.02652
G1 X59.623 Y95.185 E1.93418
G1 X60.476 Y92.941 E.07527
G1 X79.882 Y71.119 E.91563
G1 E-3.5 F3600
;WIPE_START
G1 F7200
G1 X81.994 Y68.771 E-1.5
;WIPE_END
G1 X84.064 Y73.104 F9000
G1 E5 F2400
;TYPE:Perimeter
;WIDTH:0.419999
G1 F1800
G1 X98.474 Y57.093 E.67539
G1 X99.936 Y57.093 E.04584
G1 X99.936 Y80.768 E.74231
G1 X99.953 Y81.331 E.01766
G1 X100.106 Y81.69 E.01224
G1 X100.41 Y81.968 E.01292
G1 X100.936 Y82.093 E.01695
G1 X100.936 Y85.15 E.09585
G1 X101.004 Y85.503 E.01127
G1 X101.211 Y85.816 E.01177
G1 X101.525 Y86.024 E.01181
G1 X101.879 Y86.093 E.01131
G1 X102.788 Y86.093 E.0285
G1 X102.729 Y86.196 E.00372
G1 X102.552 Y86.803 E.01982
G1 X102.561 Y87.343 E.01693
G1 X102.741 Y87.884 E.01788
G1 X102.864 Y88.11 E.00807
G1 X103.217 Y88.517 E.01689
G1 X103.679 Y88.806 E.01709
G1 X103.987 Y88.918 E.01028
G1 X104.555 Y88.992 E.01796
G1 X105.122 Y88.892 E.01805
G1 X105.628 Y88.628 E.01789
G1 X105.863 Y88.436 E.00951
G1 X106.189 Y88.033 E.01625
G1 X106.392 Y87.529 E.01704
G1 X106.449 Y87.206 E.01028
G1 X106.449 Y86.852 E.0111
G1 X106.392 Y86.529 E.01028
G1 X106.212 Y86.093 E.01479
G1 X123.788 Y86.093 E.55108
G1 X123.608 Y86.529 E.01479
G1 X123.551 Y86.852 E.01028
G1 X123.551 Y87.206 E.0111
G1 X123.608 Y87.529 E.01028
G1 X123.729 Y87.862 E.01111
G1 X123.893 Y88.146 E.01028
G1 X124.284 Y88.57 E.01808
G1 X124.775 Y88.854 E.01778
G1 X125.336 Y88.979 E.01802
G1 X125.664 Y88.979 E.01028
G1 X126.184 Y88.871 E.01665
G1 X126.689 Y88.59 E.01812
G1 X127.029 Y88.239 E.01532
G1 X127.251 Y87.913 E.01237
G1 X127.424 Y87.424 E.01626
G1 X127.449 Y86.852 E.01795
G1 X127.392 Y86.529 E.01028
G1 X127.212 Y86.093 E.01479
G1 X128.17 Y86.092 E.03004
G1 X128.55 Y85.99 E.01234
G1 X128.789 Y85.816 E.00927
G1 X128.996 Y85.503 E.01177
G1 X129.064 Y85.15 E.01127
G1 X129.064 Y82.093 E.09585
G1 X129.59 Y81.968 E.01695
G1 X129.795 Y81.81 E.00812
G1 X130.002 Y81.488 E.012
G1 X130.064 Y81.15 E.01077
G1 X130.064 Y57.093 E.75429
G1 X131.526 Y57.093 E.04584
G1 X131.827 Y57.428 E.01412
G1 X145.936 Y73.104 E.66127
G1 X145.937 Y95.761 E.71039
G1 X146.015 Y96.084 E.01042
G1 X146.215 Y96.376 E.0111
G1 X146.529 Y96.582 E.01177
G1 X146.879 Y96.649 E.01117
G1 X165.936 Y96.649 E.59752
G1 X165.936 Y155.408 E1.84234
G1 X146.768 Y155.415 E.601
G1 X146.456 Y155.509 E.01022
G1 X146.168 Y155.731 E.0114
G1 X145.988 Y156.042 E.01127
G1 X145.936 Y156.351 E.00982
G1 X145.936 Y162.965 E.20738
G1 X130.749 Y162.965 E.47618
G1 X131.209 Y162.724 E.01628
G1 X131.459 Y162.514 E.01024
G1 X131.715 Y162.208 E.01251
G1 X131.879 Y161.925 E.01026
G1 X132.015 Y161.551 E.01248
G1 X132.072 Y161.228 E.01028
G1 X132.072 Y160.83 E.01248
G1 X132.015 Y160.507 E.01028
G1 X131.813 Y159.991 E.01737
G1 X131.459 Y159.544 E.01788
G1 X131.209 Y159.334 E.01024
G1 X130.723 Y159.069 E.01736
G1 X130.138 Y158.953 E.0187
G1 X129.817 Y158.956 E.01007
G1 X129.181 Y159.111 E.02052
G1 X128.791 Y159.334 E.01409
G1 X128.541 Y159.544 E.01024
G1 X128.285 Y159.85 E.01251
G1 X128.064 Y160.289 E.01541
G1 X128.064 Y158.26 E.06362
G1 X136.779 Y139.088 E.66032
;WIDTH:0.433077
G1 X137.118 Y138.358 E.02611
;WIDTH:0.436957
G1 X137.785 Y136.874 E.05331
;WIDTH:0.419999
G1 X138.031 Y136.305 E.01944
G1 X138.064 Y136.055 E.00791
G1 X138.055 Y122.775 E.41638
G1 X137.962 Y122.48 E.0097
G1 X137.765 Y122.219 E.01025
G1 X137.48 Y122.036 E.01062
G1 X137.121 Y121.965 E.01147
G1 X92.765 Y121.965 E1.39075
G1 X92.165 Y121.989 E.01883
G1 X91.864 Y122.118 E.01027
G1 X91.648 Y122.312 E.0091
G1 X91.468 Y122.662 E.01234
G1 X91.436 Y122.908 E.00778
G1 X91.436 Y131.038 E.25491
G1 X91.5 Y131.38 E.01091
G1 X101.936 Y158.229 E.90319
G1 X101.936 Y160.287 E.06453
G1 X101.715 Y159.85 E.01535
G1 X101.459 Y159.544 E.01251
G1 X101.209 Y159.334 E.01024
G1 X100.796 Y159.099 E.0149
G1 X100.138 Y158.953 E.02113
G1 X99.817 Y158.956 E.01007
G1 X99.441 Y159.023 E.01197
G1 X99.136 Y159.135 E.01019
G1 X98.685 Y159.405 E.01648
G1 X98.285 Y159.85 E.01876
G1 X98.121 Y160.133 E.01026
G1 X97.945 Y160.649 E.01709
G1 X97.928 Y161.228 E.01816
G1 X97.985 Y161.551 E.01028
G1 X98.121 Y161.925 E.01248
G1 X98.285 Y162.208 E.01026
G1 X98.541 Y162.514 E.01251
G1 X98.791 Y162.724 E.01024
G1 X99.251 Y162.965 E.01628
G1 X84.064 Y162.965 E.47618
G1 X84.061 Y156.275 E.20976
G1 X83.97 Y155.94 E.01088
G1 X83.763 Y155.661 E.01089
G1 X83.468 Y155.475 E.01093
G1 X83.121 Y155.408 E.01108
G1 X64.064 Y155.408 E.59752
G1 X64.064 Y96.649 E1.84234
G1 X83.195 Y96.647 E.59984
G1 X83.553 Y96.545 E.01167
G1 X83.817 Y96.343 E.01042
G1 X84.006 Y96.033 E.01138
G1 X84.064 Y95.707 E.01038
G1 X84.064 Y73.164 E.70682
G1 E-3.5 F3600
;WIPE_START
G1 F7200
G1 X86.172 Y70.813 E-1.5
;WIPE_END
G1 X134.118 Y69.425 F9000
G1 E5 F2400
G1 F1800
G1 X134.086 Y69.328 E.0032
G1 X134.071 Y68.767 E.0176
G1 X134.128 Y68.445 E.01025
G1 X134.265 Y68.07 E.01252
G1 X134.428 Y67.787 E.01024
G1 X134.806 Y67.361 E.01786
G1 X135.28 Y67.072 E.01741
G1 X135.584 Y66.961 E.01015
G1 X135.961 Y66.893 E.01201
G1 X136.282 Y66.891 E.01006
G1 X136.69 Y66.959 E.01297
G1 X137.007 Y67.072 E.01055
G1 X137.352 Y67.271 E.01249
G1 X137.603 Y67.482 E.01028
G1 X137.936 Y67.893 E.01659
G1 X138.159 Y68.445 E.01867
G1 X138.216 Y68.767 E.01025
G1 X138.216 Y69.165 E.01248
G1 X138.159 Y69.488 E.01028
G1 X137.948 Y70.02 E.01794
G1 X137.603 Y70.451 E.01731
G1 X137.352 Y70.661 E.01026
G1 X136.906 Y70.911 E.01603
G1 X136.307 Y71.042 E.01923
G1 X135.98 Y71.042 E.01025
G1 X135.438 Y70.933 E.01733
G1 X134.935 Y70.661 E.01793
G1 X134.684 Y70.451 E.01026
G1 X134.428 Y70.146 E.01249
G1 X134.264 Y69.862 E.01028
G1 X134.137 Y69.482 E.01256
G1 X134.574 Y69.571 F9000
G1 F1800
G1 X134.483 Y69.359 E.00723
G1 X134.448 Y69.165 E.00618
G1 X134.483 Y68.574 E.01856
G1 X134.717 Y68.029 E.0186
G1 X135.046 Y67.652 E.01569
G1 X135.552 Y67.359 E.01833
G1 X136.027 Y67.264 E.01519
G1 X136.629 Y67.331 E.01899
G1 X137.164 Y67.598 E.01875
G1 X137.57 Y68.029 E.01857
G1 X137.668 Y68.199 E.00615
G1 X137.839 Y68.767 E.0186
G1 X137.805 Y69.359 E.01859
G1 X137.624 Y69.828 E.01576
G1 X137.242 Y70.28 E.01856
G1 X136.789 Y70.55 E.01653
G1 X136.242 Y70.67 E.01756
G1 X135.836 Y70.633 E.01278
G1 X135.469 Y70.534 E.01192
G1 X135.046 Y70.281 E.01545
G1 X134.717 Y69.903 E.01571
G1 X134.598 Y69.626 E.00945
G1 X135.006 Y69.661 F9000
;TYPE:External perimeter
G1 F1800
G1 X134.826 Y69.165 E.01654
G1 X134.837 Y68.703 E.01449
G1 X135.006 Y68.272 E.01452
G1 X135.312 Y67.924 E.01453
G1 X135.718 Y67.703 E.01449
G1 X136.159 Y67.635 E.01399
G1 X136.63 Y67.725 E.01504
G1 X137.025 Y67.966 E.01451
G1 X137.314 Y68.328 E.01452
G1 X137.462 Y68.767 E.01453
G1 X137.45 Y69.23 E.01452
G1 X137.281 Y69.661 E.01452
G1 X136.975 Y70.008 E.01451
G1 X136.569 Y70.23 E.01451
G1 X136.111 Y70.299 E.01452
G1 X135.657 Y70.207 E.01452
G1 X135.262 Y69.966 E.01451
G1 X135.044 Y69.707 E.01061
G1 X134.606 Y69.661 F9000
G1 E-3.5 F3600
;WIPE_START
G1 F7200
G1 X134.826 Y69.165 E-.27749
G1 X134.837 Y68.703 E-.21951
G1 X135.006 Y68.272 E-.2199
G1 X135.312 Y67.924 E-.22012
G1 X135.718 Y67.703 E-.21957
G1 X136.159 Y67.635 E-.21195
G1 X136.431 Y67.687 E-.13146
;WIPE_END
G1 X138.259 Y79.369 F9000
G1 E5 F2400
;TYPE:Perimeter
G1 F1800
G1 X138.636 Y79.135 E.01391
G1 X138.941 Y79.023 E.01019
G1 X139.499 Y78.941 E.01768
G1 X140.047 Y79.021 E.01736
G1 X140.364 Y79.135 E.01056
G1 X140.838 Y79.424 E.01741
G1 X141.215 Y79.85 E.01784
G1 X141.378 Y80.13 E.01016
G1 X141.554 Y80.651 E.01724
G1 X141.572 Y81.219 E.01782
G1 X141.515 Y81.551 E.01056
G1 X141.379 Y81.925 E.01248
G1 X141.215 Y82.208 E.01026
G1 X140.838 Y82.634 E.01784
G1 X140.364 Y82.923 E.01741
G1 X140.056 Y83.035 E.01028
G1 X139.542 Y83.118 E.01632
G1 X138.944 Y83.035 E.01893
G1 X138.636 Y82.923 E.01028
G1 X138.172 Y82.642 E.01701
G1 X137.785 Y82.208 E.01823
G1 X137.621 Y81.925 E.01026
G1 X137.443 Y81.397 E.01747
G1 X137.428 Y80.83 E.01778
G1 X137.485 Y80.507 E.01028
G1 X137.692 Y79.981 E.01772
G1 X137.785 Y79.85 E.00504
G1 X138.14 Y79.443 E.01693
G1 X138.208 Y79.4 E.00252
G1 X137.92 Y80.44 F9000
G1 F1800
G1 X138.018 Y80.171 E.00898
G1 X138.405 Y79.712 E.01882
G1 X138.853 Y79.446 E.01634
G1 X139.384 Y79.327 E.01706
G1 X139.69 Y79.344 E.00961
G1 X140.06 Y79.411 E.01179
G1 X140.52 Y79.661 E.01642
G1 X140.671 Y79.787 E.00617
G1 X141.024 Y80.26 E.01851
G1 X141.191 Y80.809 E.01799
G1 X141.161 Y81.422 E.01924
G1 X140.927 Y81.966 E.01857
G1 X140.598 Y82.343 E.01569
G1 X140.08 Y82.64 E.01872
G1 X139.525 Y82.741 E.01769
G1 X139.01 Y82.664 E.01633
G1 X138.825 Y82.597 E.00617
G1 X138.369 Y82.314 E.01683
G1 X138.014 Y81.88 E.01758
G1 X137.814 Y81.33 E.01835
G1 X137.814 Y80.731 E.01878
G1 X137.899 Y80.497 E.00781
G1 X138.362 Y80.334 F9000
;TYPE:External perimeter
G1 F1800
G1 X138.669 Y79.987 E.01453
G1 X139.074 Y79.766 E.01447
G1 X139.515 Y79.697 E.014
G1 X139.987 Y79.788 E.01507
G1 X140.382 Y80.029 E.01451
G1 X140.67 Y80.39 E.01448
G1 X140.814 Y80.812 E.01398
G1 X140.807 Y81.293 E.01508
G1 X140.638 Y81.724 E.01452
G1 X140.331 Y82.071 E.01453
G1 X139.925 Y82.292 E.01449
G1 X139.467 Y82.362 E.01453
G1 X139.013 Y82.27 E.01452
G1 X138.618 Y82.029 E.01451
G1 X138.33 Y81.667 E.0145
G1 X138.182 Y81.228 E.01453
G1 X138.193 Y80.765 E.01452
G1 X138.34 Y80.39 E.01263
G1 X138.171 Y79.983 F9000
G1 E-3.5 F3600
;WIPE_START
G1 F7200
G1 X138.669 Y79.987 E-.24711
G1 X139.074 Y79.766 E-.21915
G1 X139.515 Y79.697 E-.21202
G1 X139.987 Y79.788 E-.22833
G1 X140.382 Y80.029 E-.21979
G1 X140.67 Y80.39 E-.21936
G1 X140.775 Y80.697 E-.15424
;WIPE_END
G1 X104.275 Y100.2 F9000
G1 E5 F2400
;TYPE:Perimeter
G1 F1800
G1 X104.447 Y100.069 E.00678
G1 X104.768 Y99.971 E.01052
G1 X125.121 Y99.965 E.63815
G1 X125.475 Y100.034 E.01131
G1 X125.769 Y100.223 E.01096
G1 X125.985 Y100.53 E.01177
G1 X126.063 Y100.854 E.01045
G1 X126.064 Y104.15 E.10334
G1 X125.996 Y104.502 E.01124
G1 X125.802 Y104.803 E.01123
G1 X125.506 Y105.011 E.01134
G1 X125.202 Y105.09 E.00985
G1 X125.121 Y105.093 E.00254
G1 X104.879 Y105.093 E.63467
G1 X104.563 Y105.039 E.01005
G1 X104.243 Y104.847 E.0117
G1 X104.045 Y104.591 E.01015
G1 X103.94 Y104.241 E.01146
G1 X103.936 Y100.908 E.1045
G1 X103.994 Y100.581 E.01041
G1 X104.187 Y100.267 E.01156
G1 X104.227 Y100.236 E.00159
G1 X104.505 Y100.497 F9000
G1 F1800
G1 X104.542 Y100.453 E.0018
G1 X104.812 Y100.346 E.00911
G1 X125.121 Y100.342 E.63677
G1 X125.38 Y100.405 E.00836
G1 X125.594 Y100.596 E.00899
G1 X125.683 Y100.842 E.0082
G1 X125.687 Y104.15 E.10372
G1 X125.619 Y104.419 E.0087
G1 X125.432 Y104.623 E.00868
G1 X125.352 Y104.667 E.00286
G1 X125.121 Y104.716 E.0074
G1 X104.879 Y104.716 E.63467
G1 X104.605 Y104.645 E.00887
G1 X104.396 Y104.446 E.00905
G1 X104.314 Y104.178 E.00879
G1 X104.313 Y100.908 E.10253
G1 X104.374 Y100.652 E.00825
G1 X104.466 Y100.543 E.00447
G1 X104.76 Y100.761 F9000
;TYPE:External perimeter
G1 F1800
G1 X104.879 Y100.719 E.00396
G1 X125.121 Y100.719 E.63467
G1 X125.268 Y100.788 E.00509
G1 X125.31 Y100.908 E.00399
G1 X125.31 Y104.15 E.10165
G1 X125.248 Y104.291 E.00483
G1 X125.121 Y104.339 E.00426
G1 X104.879 Y104.339 E.63467
G1 X104.733 Y104.27 E.00506
G1 X104.69 Y104.15 E.004
G1 X104.69 Y100.908 E.10165
G1 X104.734 Y100.815 E.00323
G1 X104.732 Y100.638 F9000
G1 E-3.5 F3600
;WIPE_START
G1 F7200
G1 X104.879 Y100.719 E-.0826
G1 X107.863 Y100.719 E-1.4174
;WIPE_END
G1 X141.981 Y125.321 F9000
G1 E5 F2400
;TYPE:Perimeter
G1 F1800
G1 X141.836 Y125.321 E.00455
G1 X141.444 Y125.252 E.01248
G1 X141.136 Y125.14 E.01028
G1 X140.791 Y124.94 E.0125
G1 X140.541 Y124.73 E.01024
G1 X140.285 Y124.425 E.01249
G1 X140.121 Y124.141 E.01028
G1 X139.942 Y123.607 E.01766
G1 X139.928 Y123.046 E.0176
G1 X139.985 Y122.724 E.01025
G1 X140.2 Y122.184 E.01822
G1 X140.541 Y121.761 E.01704
G1 X140.791 Y121.55 E.01026
G1 X141.228 Y121.305 E.01571
G1 X141.817 Y121.172 E.01893
G1 X142.138 Y121.17 E.01006
G1 X142.665 Y121.265 E.01679
G1 X143.209 Y121.55 E.01926
G1 X143.459 Y121.761 E.01026
G1 X143.779 Y122.151 E.01582
G1 X144.015 Y122.724 E.01943
G1 X144.072 Y123.046 E.01025
G1 X144.063 Y123.577 E.01665
G1 X143.879 Y124.141 E.0186
G1 X143.715 Y124.425 E.01028
G1 X143.371 Y124.822 E.01647
G1 X142.864 Y125.14 E.01876
G1 X142.712 Y125.21 E.00525
G1 X142.164 Y125.321 E.01753
G1 X142.041 Y125.321 E.00386
G1 X142.269 Y124.912 F9000
G1 F1800
G1 X142.009 Y124.958 E.00828
G1 X141.51 Y124.88 E.01584
G1 X140.98 Y124.614 E.01859
G1 X140.573 Y124.182 E.01861
G1 X140.339 Y123.638 E.01857
G1 X140.305 Y123.445 E.00614
G1 X140.318 Y122.926 E.01628
G1 X140.523 Y122.379 E.01832
G1 X140.88 Y121.951 E.01748
G1 X141.325 Y121.678 E.01637
G1 X141.564 Y121.601 E.00787
G1 X142.077 Y121.542 E.01619
G1 X142.579 Y121.634 E.016
G1 X143.02 Y121.877 E.01579
G1 X143.171 Y122.003 E.00617
G1 X143.498 Y122.416 E.01652
G1 X143.673 Y122.89 E.01584
G1 X143.695 Y123.445 E.01742
G1 X143.661 Y123.638 E.00614
G1 X143.465 Y124.131 E.01663
G1 X143.144 Y124.517 E.01574
G1 X142.675 Y124.813 E.01739
G1 X142.584 Y124.855 E.00314
G1 X142.328 Y124.901 E.00816
G1 X142.456 Y124.501 F9000
;TYPE:External perimeter
G1 F1800
G1 X141.967 Y124.578 E.01552
G1 X141.513 Y124.486 E.01452
G1 X141.118 Y124.245 E.01451
G1 X140.83 Y123.883 E.0145
G1 X140.682 Y123.445 E.0145
G1 X140.693 Y122.982 E.01452
G1 X140.862 Y122.551 E.01452
G1 X141.168 Y122.204 E.01451
G1 X141.574 Y121.982 E.01451
G1 X142.015 Y121.914 E.01399
G1 X142.487 Y122.004 E.01507
G1 X142.882 Y122.246 E.01452
G1 X143.17 Y122.607 E.01448
G1 X143.318 Y123.046 E.01453
G1 X143.307 Y123.509 E.01452
G1 X143.138 Y123.94 E.01452
G1 X142.802 Y124.305 E.01556
G1 X142.508 Y124.471 E.01059
G1 X142.381 Y124.893 F9000
G1 E-3.5 F3600
;WIPE_START
G1 F7200
G1 X141.967 Y124.578 E-.26195
G1 X141.513 Y124.486 E-.22003
G1 X141.118 Y124.245 E-.21979
G1 X140.83 Y123.883 E-.21973
G1 X140.682 Y123.445 E-.21961
G1 X140.693 Y122.982 E-.21999
G1 X140.8 Y122.71 E-.1389
;WIPE_END
G1 X140.324 Y137.123 F9000
G1 E5 F2400
;TYPE:Perimeter
G1 F1800
G1 X140.709 Y137.334 E.01377
G1 X140.982 Y137.571 E.01134
G1 X141.31 Y137.985 E.01656
G1 X141.51 Y138.489 E.017
G1 X141.568 Y138.805 E.01007
G1 X141.567 Y139.329 E.01643
G1 X141.379 Y139.925 E.01959
G1 X141.297 Y140.095 E.00592
G1 X140.959 Y140.514 E.01688
G1 X140.709 Y140.724 E.01024
G1 X140.213 Y140.993 E.01769
G1 X139.664 Y141.104 E.01756
G1 X139.336 Y141.104 E.01028
G1 X138.8 Y140.998 E.01713
G1 X138.291 Y140.724 E.01812
G1 X138.041 Y140.514 E.01024
G1 X137.785 Y140.209 E.01249
G1 X137.621 Y139.925 E.01028
G1 X137.485 Y139.551 E.01248
G1 X137.428 Y139.228 E.01028
;WIDTH:0.440017
G1 X137.448 Y138.591 E.02104
G1 X137.65 Y138.066 E.01857
;WIDTH:0.436957
G1 X137.778 Y137.844 E.0084
G1 X138.041 Y137.544 E.01307
;WIDTH:0.419999
G1 X138.291 Y137.334 E.01024
G1 X138.816 Y137.055 E.01864
G1 X139.317 Y136.956 E.01601
G1 X139.638 Y136.953 E.01007
G1 X140.231 Y137.071 E.01896
G1 X140.271 Y137.094 E.00145
G1 X140.115 Y137.44 F9000
G1 F1800
G1 X140.622 Y137.736 E.01841
G1 X140.959 Y138.135 E.01638
G1 X141.156 Y138.619 E.01638
G1 X141.191 Y138.809 E.00606
