; generated by PrusaSlicer 2.6.0+win64 on 2023-09-06 at 20:14:25 UTC

; 

; external perimeters extrusion width = 0.42mm
; perimeters extrusion width = 0.44mm
; infill extrusion width = 0.44mm
; solid infill extrusion width = 0.44mm
; top infill extrusion width = 0.40mm
; first layer extrusion width = 0.42mm

;TYPE:Custom
M109 S0
M190 S0
start_print EXTRUDER_TEMP=215 BED_TEMP=60
G21 ; set units to millimeters
G90 ; use absolute coordinates
M83 ; use relative distances for extrusion
; Filament gcode
M107
;LAYER_CHANGE
;Z:0.2
;HEIGHT:0.2
;BEFORE_LAYER_CHANGE
G92 E0
;0.2


G1 E-5 F3600
G1 Z.2 F9000
;AFTER_LAYER_CHANGE
;0.2
G1 X70.017 Y56.417
G1 E5 F2400
M204 S500
;TYPE:Skirt/Brim
;WIDTH:0.42
G1 F1800
G1 X70.914 Y55.345 E.04383
G1 X77.907 Y49.85 E.27885
G1 X79.993 Y49.128 E.06921
G1 X150 Y49.123 E2.19502
G1 X152.086 Y49.845 E.06921
G1 X159.086 Y55.345 E.27912
G1 X160.088 Y56.633 E.05117
G1 X160.377 Y58 E.04381
G1 X160.377 Y62.5 E.14109
G1 X150.358 Y156.193 E2.95443
G1 X149.51 Y158.092 E.06521
G1 X134.51 Y174.759 E.70306
G1 X133.158 Y175.672 E.05115
G1 X132 Y175.877 E.03687
G1 X98 Y175.877 E1.06605
G1 X96.417 Y175.483 E.05115
G1 X95.49 Y174.759 E.03688
G1 X80.49 Y158.093 E.70303
G1 X79.65 Y156.256 E.06333
G1 X69.649 Y76.929 E2.50693
G1 X69.623 Y58 E.59351
G1 X70.003 Y56.475 E.04928
G1 E-3.5 F3600
;WIPE_START
G1 F7200
G1 X70.914 Y55.345 E-.68946
G1 X72.256 Y54.291 E-.81054
;WIPE_END
G1 X75.475 Y58.286 F9000
G1 E5 F2400
;TYPE:Perimeter
;WIDTH:0.419999
G1 F1800
G1 X75.537 Y58.545 E.00835
G1 X75.748 Y58.822 E.01092
G1 X76 Y58.985 E.00941
G1 X76.379 Y59.064 E.01214
G1 X86.621 Y59.064 E.32113
G1 X86.928 Y59.013 E.00976
G1 X87.156 Y58.898 E.00801
G1 X87.299 Y58.777 E.00587
G1 X87.492 Y58.483 E.01103
G1 X87.564 Y58.121 E.01157
G1 X87.564 Y53.564 E.14288
G1 X142.436 Y53.564 E1.72047
G1 X142.445 Y58.252 E.14699
G1 X142.531 Y58.534 E.00924
G1 X142.72 Y58.796 E.01013
G1 X143.027 Y58.996 E.01149
G1 X143.379 Y59.064 E.01124
G1 X153.621 Y59.064 E.32113
G1 X153.938 Y59.009 E.01009
G1 X154.221 Y58.849 E.01019
G1 X154.463 Y58.545 E.01218
G1 X154.564 Y58.125 E.01354
G1 X154.566 Y57.441 E.02145
G1 X155.936 Y58.517 E.05462
G1 X155.936 Y62.059 E.11106
G1 X146.212 Y71.776 E.43102
G1 X146.006 Y72.087 E.0117
G1 X145.936 Y72.443 E.01138
G1 X145.936 Y155.425 E2.60184
G1 X131.526 Y171.436 E.67539
G1 X98.474 Y171.436 E1.03632
G1 X84.064 Y155.425 E.67539
G1 X84.064 Y148.962 E.20264
G1 X87.468 Y145.564 E.15081
G1 X89.75 Y145.564 E.07155
G1 X89.291 Y145.805 E.01625
G1 X89.041 Y146.015 E.01024
G1 X88.785 Y146.321 E.01251
G1 X88.621 Y146.604 E.01026
G1 X88.485 Y146.978 E.01248
G1 X88.428 Y147.301 E.01028
G1 X88.428 Y147.699 E.01248
G1 X88.485 Y148.022 E.01028
G1 X88.621 Y148.396 E.01248
G1 X88.785 Y148.679 E.01026
G1 X89.162 Y149.105 E.01784
G1 X89.636 Y149.394 E.01741
G1 X89.944 Y149.506 E.01028
G1 X90.561 Y149.588 E.01952
G1 X91.056 Y149.506 E.01573
G1 X91.364 Y149.394 E.01028
G1 X91.878 Y149.07 E.01905
G1 X92.215 Y148.679 E.01618
G1 X92.379 Y148.396 E.01026
G1 X92.566 Y147.805 E.01944
G1 X92.572 Y147.301 E.0158
G1 X92.515 Y146.978 E.01028
G1 X92.326 Y146.485 E.01655
G1 X91.959 Y146.015 E.0187
G1 X91.709 Y145.805 E.01024
G1 X91.247 Y145.564 E.01634
G1 X92.783 Y145.55 E.04816
G1 X93.083 Y145.443 E.00999
G1 X93.303 Y145.271 E.00876
G1 X93.486 Y144.994 E.01041
G1 X93.563 Y144.631 E.01163
G1 X94.065 Y92.389 E1.63808
G1 X94 Y92.034 E.01132
G1 X93.799 Y91.723 E.01161
G1 X93.505 Y91.518 E.01124
G1 X93.132 Y91.437 E.01197
G1 X91.294 Y91.419 E.05763
G1 X91.709 Y91.195 E.01479
G1 X91.959 Y90.985 E.01024
G1 X92.215 Y90.679 E.01251
G1 X92.379 Y90.396 E.01026
G1 X92.515 Y90.022 E.01248
G1 X92.572 Y89.699 E.01028
G1 X92.547 Y89.085 E.01927
G1 X92.379 Y88.604 E.01597
G1 X92.215 Y88.321 E.01026
G1 X91.823 Y87.883 E.01843
G1 X91.364 Y87.606 E.01681
G1 X91.046 Y87.492 E.01059
G1 X90.489 Y87.412 E.01764
G1 X89.94 Y87.495 E.01741
G1 X89.636 Y87.606 E.01015
G1 X89.291 Y87.805 E.01249
G1 X89.041 Y88.015 E.01024
G1 X88.785 Y88.321 E.01251
G1 X88.621 Y88.604 E.01026
G1 X88.485 Y88.978 E.01248
G1 X88.428 Y89.301 E.01028
G1 X88.428 Y89.699 E.01248
G1 X88.485 Y90.022 E.01028
G1 X88.696 Y90.555 E.01797
G1 X89.041 Y90.985 E.01729
G1 X89.291 Y91.195 E.01024
G1 X89.634 Y91.398 E.0125
G1 X87.975 Y91.387 E.05202
G1 X87.229 Y90.567 E.03476
G1 X87.486 Y90.321 E.01115
G1 X87.564 Y89.945 E.01204
G1 X87.564 Y67.879 E.69186
G1 X87.48 Y67.5 E.01217
G1 X87.535 Y67.354 E.00489
G1 X87.564 Y67.121 E.00736
G1 X87.564 Y62.379 E.14868
G1 X87.527 Y62.116 E.00833
G1 X87.384 Y61.825 E.01017
G1 X87.156 Y61.602 E.01
G1 X86.928 Y61.487 E.00801
G1 X86.621 Y61.436 E.00976
G1 X76.379 Y61.436 E.32113
G1 X76 Y61.515 E.01214
G1 X75.737 Y61.688 E.00987
G1 X75.521 Y61.986 E.01154
G1 X75.436 Y62.379 E.01261
G1 X75.436 Y67.121 E.14868
G1 X75.45 Y67.284 E.00513
G1 X75.586 Y67.632 E.01171
G1 X75.553 Y67.879 E.00781
G1 X75.553 Y77.732 E.30893
G1 X74.064 Y76.095 E.06938
G1 X74.064 Y58.517 E.55114
G1 X75.434 Y57.441 E.05462
G1 X75.436 Y58.125 E.02145
G1 X75.461 Y58.228 E.00332
G1 X75.832 Y58.204 F9000
G1 F1800
G1 X75.873 Y58.376 E.00554
G1 X76 Y58.542 E.00655
G1 X76.152 Y58.639 E.00565
G1 X76.379 Y58.687 E.00727
G1 X86.621 Y58.687 E.32113
G1 X86.806 Y58.656 E.00588
G1 X86.942 Y58.587 E.00478
G1 X87.111 Y58.406 E.00776
G1 X87.187 Y58.121 E.00925
G1 X87.187 Y53.379 E.14868
G1 X86.996 Y53.187 E.00849
G1 X142.974 Y53.187 E1.75515
G1 X142.813 Y53.379 E.00786
G1 X142.813 Y58.121 E.14868
G1 X142.818 Y58.2 E.00248
G1 X142.912 Y58.441 E.00811
G1 X143.1 Y58.614 E.00801
G1 X143.379 Y58.687 E.00904
G1 X153.621 Y58.687 E.32113
G1 X153.811 Y58.654 E.00605
G1 X153.981 Y58.558 E.00612
G1 X154.127 Y58.376 E.00732
G1 X154.187 Y58.123 E.00815
G1 X154.192 Y56.667 E.04565
G1 X156.313 Y58.334 E.08458
G1 X156.313 Y58.895 E.01759
G1 X156.313 Y62.215 E.1041
G1 X147.052 Y71.471 E.41054
G1 X146.375 Y72.186 E.03087
G1 X146.313 Y72.443 E.00829
G1 X146.313 Y155.57 E2.60638
G1 X131.694 Y171.813 E.68518
G1 X98.306 Y171.813 E1.04686
G1 X83.687 Y155.57 E.68518
G1 X83.687 Y148.806 E.21208
G1 X87.312 Y145.187 E.16061
G1 X89.227 Y145.187 E.06004
;WIDTH:0.42404
G1 X89.946 Y145.189 E.02279
;WIDTH:0.460169
G1 X90.125 Y145.207 E.00624
;WIDTH:0.496298
G1 X90.304 Y145.225 E.00678
;WIDTH:0.532427
G1 X90.482 Y145.243 E.00728
;WIDTH:0.572271
G1 X91.04 Y145.263 E.02458
G1 X91.124 Y145.244 E.00379
;WIDTH:0.534203
G1 X91.207 Y145.225 E.00348
;WIDTH:0.496135
G1 X91.291 Y145.206 E.00325
;WIDTH:0.458067
G1 X91.375 Y145.187 E.00297
;WIDTH:0.419999
G1 X92.718 Y145.179 E.04211
G1 X92.961 Y145.073 E.00831
G1 X93.114 Y144.898 E.00729
G1 X93.186 Y144.627 E.00879
G1 X93.688 Y92.385 E1.63808
G1 X93.619 Y92.108 E.00895
G1 X93.42 Y91.899 E.00905
G1 X93.128 Y91.814 E.00954
G1 X91.045 Y91.794 E.06531
;WIDTH:0.469794
G1 X90.767 Y91.767 E.00991
;WIDTH:0.519588
G1 X90.49 Y91.739 E.01103
;WIDTH:0.558339
G1 X89.95 Y91.714 E.02317
G1 X89.844 Y91.736 E.00464
;WIDTH:0.512226
G1 X89.737 Y91.758 E.00426
;WIDTH:0.466113
G1 X89.63 Y91.78 E.00384
;WIDTH:0.419999
G1 X87.807 Y91.763 E.05716
G1 X86.683 Y90.527 E.05238
G1 X86.826 Y90.472 E.0048
G1 X87.14 Y90.17 E.01366
G1 X87.187 Y89.945 E.00721
G1 X87.187 Y67.879 E.69186
G1 X87.126 Y67.622 E.00828
G1 X86.927 Y67.5 E.00732
G1 X87.126 Y67.378 E.00732
G1 X87.187 Y67.121 E.00828
G1 X87.187 Y62.379 E.14868
G1 X87.165 Y62.221 E.005
G1 X87.028 Y61.985 E.00856
G1 X86.806 Y61.844 E.00825
G1 X86.621 Y61.813 E.00588
G1 X76.379 Y61.813 E.32113
G1 X76.257 Y61.826 E.00385
G1 X75.993 Y61.964 E.00934
G1 X75.864 Y62.143 E.00692
G1 X75.813 Y62.379 E.00757
G1 X75.813 Y67.121 E.14868
G1 X75.821 Y67.219 E.00308
G1 X75.904 Y67.43 E.00711
G1 X76.124 Y67.549 E.00784
G1 X75.951 Y67.729 E.00783
G1 X75.93 Y67.879 E.00475
G1 X75.93 Y78.707 E.3395
G1 X73.687 Y76.241 E.10452
G1 X73.687 Y58.334 E.56146
G1 X75.808 Y56.667 E.08458
G1 X75.818 Y58.146 E.04637
G1 X76.19 Y58.122 F9000
;TYPE:External perimeter
G1 F1800
G1 X76.253 Y58.262 E.00481
G1 X76.379 Y58.31 E.00423
G1 X86.621 Y58.31 E.32113
G1 X86.757 Y58.253 E.00462
G1 X86.81 Y58.121 E.00446
G1 X86.81 Y53.379 E.14868
;WIDTH:0.421469
G1 X86.622 Y53.189 E.00841
G1 X80.206 Y53.185 E.20195
;WIDTH:0.418619
G1 X80.041 Y53.122 E.00552
G1 X80.008 Y52.959 E.0052
G1 X80.117 Y52.809 E.00579
G1 X80.189 Y52.809 E.00225
;WIDTH:0.421469
G1 X87.379 Y52.81 E.22632
;WIDTH:0.419999
G1 X142.621 Y52.81 E1.73207
;WIDTH:0.421469
G1 X149.794 Y52.809 E.22578
;WIDTH:0.418618
G1 X149.877 Y52.809 E.00259
G1 X149.932 Y52.868 E.00252
G1 X149.997 Y52.989 E.00429
G1 X149.966 Y53.118 E.00414
G1 X149.794 Y53.185 E.00577
;WIDTH:0.421469
G1 X143.378 Y53.189 E.20195
G1 X143.19 Y53.379 E.00841
;WIDTH:0.419999
G1 X143.19 Y58.121 E.14868
G1 X143.236 Y58.245 E.00415
G1 X143.379 Y58.31 E.00493
G1 X153.621 Y58.31 E.32113
G1 X153.741 Y58.267 E.004
G1 X153.81 Y58.122 E.00503
G1 X153.816 Y56.315 E.05666
G1 X153.835 Y56.196 E.00378
G1 X153.955 Y56.099 E.00484
G1 X154.135 Y56.143 E.00581
G1 X156.69 Y58.151 E.10189
G1 X156.69 Y58.895 E.02333
G1 X156.69 Y62.372 E.10902
G1 X146.745 Y72.31 E.44082
G1 X146.69 Y72.443 E.00451
G1 X146.69 Y155.714 E2.6109
G1 X131.862 Y172.19 E.695
G1 X98.138 Y172.19 E1.05739
G1 X83.31 Y155.715 E.69497
G1 X83.31 Y148.65 E.22152
G1 X87.156 Y144.81 E.1704
G1 X92.62 Y144.81 E.17132
G1 X92.748 Y144.761 E.0043
G1 X92.809 Y144.623 E.00473
G1 X93.311 Y92.382 E1.63805
G1 X93.27 Y92.262 E.00398
G1 X93.124 Y92.191 E.00509
G1 X87.639 Y92.138 E.17199
G1 X86.395 Y90.771 E.05795
;WIDTH:0.421458
G1 X75.879 Y79.21 E.49191
;WIDTH:0.42037
G1 X73.7 Y76.815 E.10162
;WIDTH:0.419999
G1 X73.31 Y76.387 E.01816
G1 X73.31 Y58.151 E.57178
G1 X75.822 Y56.177 E.10017
G1 X76.004 Y56.101 E.00618
G1 X76.116 Y56.144 E.00376
G1 X76.184 Y56.264 E.00432
G1 X76.19 Y58.062 E.05638
G1 X76.085 Y58.234 F9000
G1 E-3.5 F3600
;WIPE_START
G1 F7200
G1 X76.253 Y58.262 E-.0996
G1 X76.379 Y58.31 E-.06405
G1 X79.192 Y58.31 E-1.33635
;WIPE_END
G1 X141.55 Y89.176 F9000
G1 E5 F2400
;TYPE:Perimeter
G1 F1800
G1 X141.572 Y89.301 E.00398
G1 X141.558 Y89.862 E.0176
G1 X141.379 Y90.396 E.01766
G1 X141.215 Y90.679 E.01026
G1 X140.838 Y91.105 E.01784
G1 X140.364 Y91.394 E.01741
G1 X140.056 Y91.506 E.01028
G1 X139.542 Y91.589 E.01632
G1 X138.944 Y91.506 E.01893
G1 X138.636 Y91.394 E.01028
G1 X138.195 Y91.131 E.0161
G1 X137.785 Y90.679 E.01913
G1 X137.621 Y90.396 E.01026
G1 X137.455 Y89.923 E.01572
G1 X137.428 Y89.301 E.01952
G1 X137.485 Y88.978 E.01028
G1 X137.674 Y88.486 E.01653
G1 X138.041 Y88.015 E.01872
G1 X138.291 Y87.805 E.01024
G1 X138.736 Y87.556 E.01599
G1 X139.315 Y87.427 E.0186
G1 X139.636 Y87.424 E.01007
G1 X140.2 Y87.531 E.018
G1 X140.364 Y87.606 E.00565
G1 X140.838 Y87.895 E.01741
G1 X141.215 Y88.321 E.01784
G1 X141.379 Y88.604 E.01026
G1 X141.515 Y88.978 E.01248
G1 X141.54 Y89.117 E.00443
G1 X141.171 Y89.272 F9000
G1 F1800
G1 X141.195 Y89.699 E.01341
G1 X141.161 Y89.893 E.00618
G1 X140.927 Y90.437 E.01857
G1 X140.598 Y90.814 E.01569
G1 X140.08 Y91.111 E.01872
G1 X139.525 Y91.212 E.01769
G1 X139.01 Y91.135 E.01633
G1 X138.825 Y91.068 E.00617
G1 X138.392 Y90.806 E.01587
G1 X138.063 Y90.424 E.01581
G1 X137.839 Y89.893 E.01807
G1 X137.805 Y89.699 E.00618
G1 X137.814 Y89.198 E.01571
G1 X137.978 Y88.725 E.0157
G1 X138.329 Y88.258 E.01832
G1 X138.48 Y88.132 E.00617
G1 X138.92 Y87.889 E.01576
G1 X139.438 Y87.791 E.01653
G1 X139.984 Y87.864 E.01727
G1 X140.175 Y87.932 E.00636
G1 X140.598 Y88.186 E.01547
G1 X140.927 Y88.563 E.01569
G1 X141.161 Y89.107 E.01857
G1 X141.167 Y89.212 E.0033
G1 X140.818 Y89.301 F9000
;TYPE:External perimeter
G1 F1800
G1 X140.807 Y89.764 E.01452
G1 X140.638 Y90.195 E.01452
G1 X140.332 Y90.542 E.01451
G1 X139.925 Y90.763 E.01452
G1 X139.467 Y90.833 E.01453
G1 X139.013 Y90.741 E.01452
G1 X138.618 Y90.5 E.01451
G1 X138.33 Y90.138 E.0145
G1 X138.182 Y89.699 E.01453
G1 X138.193 Y89.236 E.01452
G1 X138.362 Y88.805 E.01452
G1 X138.669 Y88.458 E.01453
G1 X139.074 Y88.237 E.01447
G1 X139.513 Y88.169 E.01393
G1 X139.987 Y88.259 E.01513
G1 X140.382 Y88.5 E.01451
G1 X140.67 Y88.862 E.0145
G1 X140.799 Y89.244 E.01264
G1 X141.19 Y89.447 F9000
G1 E-3.5 F3600
;WIPE_START
G1 F7200
G1 X140.807 Y89.764 E-.24703
G1 X140.638 Y90.195 E-.2199
G1 X140.332 Y90.542 E-.21976
G1 X139.925 Y90.763 E-.21999
G1 X139.467 Y90.833 E-.22008
G1 X139.013 Y90.741 E-.22003
G1 X138.738 Y90.573 E-.15321
;WIPE_END
G1 X92.079 Y90.083 F9000
G1 E5 F2400
;TYPE:Perimeter
G1 F1800
G1 X91.927 Y90.437 E.01208
G1 X91.52 Y90.868 E.01859
G1 X90.99 Y91.135 E.01861
;WIDTH:0.469794
G1 X90.742 Y91.199 E.00909
;WIDTH:0.519588
G1 X90.494 Y91.262 E.01014
;WIDTH:0.558339
G1 X89.997 Y91.203 E.02145
G1 X89.825 Y91.091 E.0088
;WIDTH:0.512226
G1 X89.652 Y90.98 E.00802
;WIDTH:0.466113
G1 X89.48 Y90.868 E.00722
;WIDTH:0.419999
G1 X89.073 Y90.437 E.01859
G1 X88.96 Y90.226 E.0075
G1 X88.813 Y89.797 E.01422
G1 X88.805 Y89.301 E.01555
G1 X88.975 Y88.733 E.01859
G1 X89.329 Y88.258 E.01857
G1 X89.825 Y87.932 E.01861
G1 X90.382 Y87.798 E.01796
G1 X90.574 Y87.797 E.00602
G1 X91.125 Y87.907 E.01762
G1 X91.589 Y88.178 E.01685
G1 X91.927 Y88.563 E.01606
G1 X92.025 Y88.733 E.00615
G1 X92.19 Y89.227 E.01633
G1 X92.195 Y89.699 E.0148
G1 X92.161 Y89.893 E.00618
G1 X92.103 Y90.028 E.00461
G1 X91.818 Y89.699 F9000
;TYPE:External perimeter
G1 F1800
G1 X91.638 Y90.195 E.01654
G1 X91.332 Y90.542 E.01451
G1 X90.925 Y90.763 E.01452
G1 X90.467 Y90.833 E.01453
G1 X90.013 Y90.741 E.01452
G1 X89.618 Y90.5 E.01451
G1 X89.315 Y90.097 E.01581
G1 X89.182 Y89.699 E.01316
G1 X89.193 Y89.236 E.01452
G1 X89.362 Y88.805 E.01452
G1 X89.669 Y88.458 E.01453
G1 X90.074 Y88.237 E.01447
G1 X90.513 Y88.169 E.01393
G1 X90.987 Y88.259 E.01513
G1 X91.382 Y88.5 E.01451
G1 X91.67 Y88.862 E.0145
G1 X91.818 Y89.301 E.01453
G1 X91.818 Y89.639 E.0106
G1 X92.124 Y89.956 F9000
G1 E-3.5 F3600
;WIPE_START
G1 F7200
G1 X91.638 Y90.195 E-.2776
G1 X91.332 Y90.542 E-.21976
G1 X90.925 Y90.763 E-.21999
G1 X90.467 Y90.833 E-.22008
G1 X90.013 Y90.741 E-.22003
G1 X89.618 Y90.5 E-.21979
G1 X89.463 Y90.293 E-.12275
;WIPE_END
G1 X86.534 Y90.181 F9000
G1 E5 F2400
;WIDTH:0.424327
G1 F1800
G1 X86.349 Y90.155 E.00592
G1 X86.326 Y90.132 E.00103
;WIDTH:0.421458
G1 X76.356 Y79.172 E.46635
G1 X76.307 Y79.044 E.00431
;WIDTH:0.42037
G1 X76.308 Y75.807 E.10159
;WIDTH:0.419999
G1 X76.308 Y67.879 E.24858
;WIDTH:0.423765
G1 X76.438 Y67.697 E.00708
G1 X76.496 Y67.689 E.00185
;WIDTH:0.42146
G1 X86.621 Y67.689 E.31869
G1 X86.804 Y67.832 E.00731
;WIDTH:0.419999
G1 X86.81 Y89.945 E.69334
G1 X86.794 Y90.02 E.0024
G1 X86.689 Y90.12 E.00455
G1 X86.59 Y90.159 E.00334
G1 X86.457 Y90.35 F9000
G1 E-3.5 F3600
;WIPE_START
G1 F7200
G1 X86.349 Y90.155 E-.11449
G1 X86.326 Y90.132 E-.01545
G1 X84.385 Y87.998 E-1.37006
;WIPE_END
G1 X76.379 Y67.312 F9000
G1 E5 F2400
;WIDTH:0.423765
G1 F1800
G1 X76.204 Y67.192 E.00672
;WIDTH:0.419999
G1 X76.19 Y67.121 E.00227
G1 X76.19 Y62.379 E.14868
G1 X76.25 Y62.24 E.00475
G1 X76.379 Y62.19 E.00434
G1 X86.621 Y62.19 E.32113
G1 X86.757 Y62.247 E.00462
G1 X86.81 Y62.379 E.00446
G1 X86.807 Y67.153 E.14969
G1 X86.789 Y67.207 E.00178
;WIDTH:0.42146
G1 X86.621 Y67.311 E.00622
G1 X76.496 Y67.311 E.31869
;WIDTH:0.423765
G1 X76.439 Y67.311 E.00181
G1 E-3.5 F3600
;WIPE_START
G1 F7200
G1 X76.204 Y67.192 E-.12512
G1 X76.19 Y67.121 E-.03437
G1 X76.19 Y64.299 E-1.34051
;WIPE_END
G1 X91.797 Y148.585 F9000
G1 E5 F2400
;TYPE:Perimeter
;WIDTH:0.419999
G1 F1800
G1 X91.592 Y148.819 E.00975
G1 X91.121 Y149.095 E.01712
G1 X90.598 Y149.204 E.01675
G1 X90.402 Y149.204 E.00615
G1 X89.94 Y149.118 E.01473
G1 X89.48 Y148.868 E.01642
G1 X89.329 Y148.742 E.00617
G1 X89.037 Y148.389 E.01436
G1 X88.839 Y147.893 E.01675
G1 X88.805 Y147.301 E.01859
G1 X88.948 Y146.809 E.01606
G1 X89.073 Y146.563 E.00865
G1 X89.48 Y146.132 E.01859
;WIDTH:0.42404
G1 X90.007 Y145.864 E.01874
;WIDTH:0.460169
G1 X90.165 Y145.82 E.00569
;WIDTH:0.496298
G1 X90.324 Y145.776 E.00622
;WIDTH:0.532427
G1 X90.482 Y145.733 E.00666
;WIDTH:0.572271
G1 X90.997 Y145.789 E.0228
G1 X91.128 Y145.875 E.0069
;WIDTH:0.534203
G1 X91.258 Y145.96 E.00634
;WIDTH:0.496135
G1 X91.389 Y146.046 E.00591
;WIDTH:0.458067
G1 X91.52 Y146.132 E.00541
;WIDTH:0.419999
G1 X91.927 Y146.563 E.01859
G1 X92.025 Y146.733 E.00615
G1 X92.191 Y147.232 E.01649
