; generated by PrusaSlicer 2.6.0+win64 on 2023-09-05 at 15:22:25 UTC

; 

; external perimeters extrusion width = 0.42mm
; perimeters extrusion width = 0.44mm
; infill extrusion width = 0.44mm
; solid infill extrusion width = 0.44mm
; top infill extrusion width = 0.40mm
; first layer extrusion width = 0.42mm

;TYPE:Custom
M109 S0
M190 S0
start_print EXTRUDER_TEMP=215 BED_TEMP=60
G21 ; set units to millimeters
G90 ; use absolute coordinates
M83 ; use relative distances for extrusion
; Filament gcode
M107
;LAYER_CHANGE
;Z:0.2
;HEIGHT:0.2
;BEFORE_LAYER_CHANGE
G92 E0
;0.2


G1 E-5 F3600
G1 Z.2 F9000
;AFTER_LAYER_CHANGE
;0.2
G1 X100.242 Y97.001
G1 E5 F2400
M204 S500
;TYPE:Skirt/Brim
;WIDTH:0.42
G1 F1800
G1 X102.5 Y96.246 E.07465
G1 X127.5 Y96.246 E.78386
G1 X129.176 Y96.641 E.05399
G1 X130.499 Y97.742 E.05397
G1 X131.254 Y100 E.07465
G1 X131.254 Y125 E.78386
G1 X130.859 Y126.676 E.05399
G1 X129.758 Y127.999 E.05397
G1 X127.5 Y128.754 E.07465
G1 X102.5 Y128.754 E.78386
G1 X100.824 Y128.359 E.05399
G1 X99.501 Y127.258 E.05397
G1 X98.746 Y125 E.07465
G1 X98.746 Y100 E.78386
G1 X99.141 Y98.324 E.05399
G1 X100.203 Y97.047 E.05208
G1 X100.504 Y97.318 F9000
G1 F1800
G1 X100.607 Y97.203 E.00484
G1 X102.5 Y96.623 E.06208
G1 X127.5 Y96.623 E.78386
G1 X129.083 Y97.017 E.05115
G1 X130.297 Y98.107 E.05116
G1 X130.877 Y100 E.06208
G1 X130.877 Y125 E.78386
G1 X130.483 Y126.583 E.05115
G1 X129.393 Y127.797 E.05116
G1 X127.5 Y128.377 E.06208
G1 X102.5 Y128.377 E.78386
G1 X100.917 Y127.983 E.05115
G1 X99.703 Y126.893 E.05116
G1 X99.123 Y125 E.06208
G1 X99.123 Y100 E.78386
G1 X99.517 Y98.417 E.05115
G1 X100.464 Y97.362 E.04445
G1 E-3.5 F3600
;WIPE_START
G1 F7200
G1 X100.607 Y97.203 E-.10158
G1 X102.5 Y96.623 E-.94043
G1 X103.464 Y96.623 E-.45799
;WIPE_END
G1 X124.757 Y123.527 F9000
G1 E5 F2400
;TYPE:Perimeter
;WIDTH:0.59183
G1 F1800
G1 X125.149 Y123.699 E.01954
G1 X125.408 Y123.735 E.01193
;WIDTH:0.560147
G1 X125.902 Y123.73 E.02125
G1 X125.958 Y123.697 E.0028
;WIDTH:0.527532
G1 X126.014 Y123.664 E.00262
;WIDTH:0.494917
G1 X126.261 Y123.531 E.01054
;WIDTH:0.457458
G1 X126.509 Y123.398 E.0097
;WIDTH:0.419999
G1 X126.813 Y123.113 E.01307
G1 X126.813 Y124.313 E.03763
G1 X126.406 Y124.313 E.01276
;WIDTH:0.466715
G1 X126.253 Y124.29 E.00545
;WIDTH:0.513431
G1 X126.1 Y124.266 E.00606
;WIDTH:0.560147
G1 X125.947 Y124.243 E.00665
G1 X125.407 Y124.246 E.02322
;WIDTH:0.59183
G1 X124.671 Y124.227 E.0336
G1 X124.772 Y124.104 E.00726
G1 X124.759 Y123.587 E.0236
G1 X126.433 Y123.859 F9000
;WIDTH:0.479518
G1 F1800
G1 X126.379 Y123.859 E.00196
G1 X126.352 Y123.906 E.00197
G1 X126.379 Y123.953 E.00197
G1 X126.433 Y123.953 E.00196
G1 X126.461 Y123.906 E.00199
G1 E-3.5 F3600
;WIPE_START
G1 F7200
G1 X126.433 Y123.953 E-.02599
G1 X126.379 Y123.953 E-.02565
G1 X126.352 Y123.906 E-.02575
G1 X126.379 Y123.859 E-.02575
G1 X126.433 Y123.859 E-.02565
;WIPE_END
G1 E-1.37121 F3600
G1 X125.028 Y109.862 F9000
G1 E5 F2400
;WIDTH:0.419999
G1 F1800
G1 X125.166 Y109.907 E.00455
G1 X125.545 Y109.955 E.01198
G1 X125.897 Y109.933 E.01106
G1 X126.436 Y109.759 E.01776
G1 X126.436 Y120.331 E.33148
G1 X126.092 Y120.202 E.01152
G1 X125.547 Y120.145 E.01718
G1 X125.167 Y120.193 E.01201
G1 X124.883 Y120.275 E.00927
G1 X124.524 Y120.456 E.01261
G1 X124.127 Y120.814 E.01676
G1 X123.937 Y121.064 E.00985
G1 X123.757 Y121.448 E.0133
G1 X123.654 Y121.958 E.01631
G1 X122.5 Y121.936 E.03619
G1 X106.974 Y121.938 E.48681
G1 X106.33 Y121.955 E.0202
G1 X106.256 Y121.477 E.01517
G1 X106.08 Y121.099 E.01307
G1 X105.914 Y120.855 E.00925
G1 X105.655 Y120.589 E.01164
G1 X105.17 Y120.302 E.01767
G1 X104.834 Y120.193 E.01108
G1 X104.454 Y120.145 E.01201
G1 X104.101 Y120.167 E.01109
G1 X103.564 Y120.341 E.0177
G1 X103.564 Y109.769 E.33148
G1 X103.966 Y109.907 E.01333
G1 X104.346 Y109.955 E.01201
G1 X104.698 Y109.933 E.01106
G1 X105.068 Y109.838 E.01198
G1 X105.388 Y109.688 E.01108
G1 X105.853 Y109.322 E.01855
G1 X106.146 Y108.881 E.0166
G1 X106.265 Y108.603 E.00948
G1 X106.36 Y108.09 E.01636
G1 X106.325 Y107.628 E.01453
G1 X106.242 Y107.344 E.00928
G1 X105.994 Y106.851 E.0173
G1 X105.592 Y106.449 E.01783
G1 X105.348 Y106.284 E.00924
G1 X104.892 Y106.102 E.01539
G1 X104.347 Y106.045 E.01718
G1 X103.967 Y106.093 E.01201
G1 X103.564 Y106.231 E.01336
G1 X103.564 Y101.064 E.16201
G1 X126.436 Y101.064 E.71713
G1 X126.436 Y106.238 E.16223
G1 X126.035 Y106.093 E.01337
G1 X125.655 Y106.045 E.01201
G1 X125.303 Y106.067 E.01106
G1 X124.932 Y106.162 E.01201
G1 X124.612 Y106.312 E.01108
G1 X124.163 Y106.661 E.01783
G1 X123.854 Y107.12 E.01735
G1 X123.722 Y107.455 E.01129
G1 X123.638 Y107.95 E.01574
G1 X123.675 Y108.375 E.01338
G1 X123.761 Y108.662 E.00939
G1 X124.001 Y109.14 E.01677
G1 X124.369 Y109.531 E.01684
G1 X124.83 Y109.798 E.0167
G1 X124.971 Y109.844 E.00465
G1 X124.862 Y109.377 F9000
G1 F1800
G1 X125.012 Y109.467 E.00548
G1 X125.213 Y109.533 E.00663
G1 X125.592 Y109.581 E.01198
G1 X125.804 Y109.568 E.00666
G1 X126.175 Y109.473 E.01201
G1 X126.368 Y109.382 E.00669
G1 X126.813 Y109.013 E.01813
G1 X126.811 Y121.082 E.37841
G1 X126.376 Y120.719 E.01776
G1 X126.022 Y120.573 E.01201
G1 X125.594 Y120.519 E.01353
G1 X125.044 Y120.616 E.01751
G1 X124.664 Y120.826 E.01361
G1 X124.272 Y121.239 E.01785
G1 X124.099 Y121.608 E.01278
G1 X124.024 Y122.046 E.01393
G1 X124.045 Y122.343 E.00934
G1 X122.5 Y122.313 E.04845
G1 X106.984 Y122.315 E.48649
G1 X105.95 Y122.343 E.03243
G1 X105.954 Y121.85 E.01546
G1 X105.909 Y121.624 E.00723
G1 X105.738 Y121.259 E.01264
G1 X105.464 Y120.926 E.01352
G1 X104.988 Y120.633 E.01753
G1 X104.787 Y120.567 E.00663
G1 X104.407 Y120.519 E.01201
G1 X104.195 Y120.532 E.00666
G1 X103.824 Y120.628 E.01202
G1 X103.633 Y120.718 E.00662
G1 X103.187 Y121.087 E.01815
G1 X103.187 Y109.014 E.37854
G1 X103.466 Y109.276 E.012
G1 X103.843 Y109.484 E.0135
G1 X104.393 Y109.581 E.01751
G1 X104.605 Y109.568 E.00666
G1 X105.089 Y109.43 E.01578
G1 X105.477 Y109.157 E.01488
G1 X105.623 Y109.002 E.00668
G1 X105.882 Y108.568 E.01585
G1 X105.985 Y108.054 E.01644
G1 X105.934 Y107.593 E.01454
G1 X105.687 Y107.07 E.01814
G1 X105.266 Y106.67 E.01821
G1 X104.822 Y106.473 E.01523
G1 X104.394 Y106.419 E.01353
G1 X103.844 Y106.516 E.01751
G1 X103.491 Y106.702 E.01251
G1 X103.187 Y106.987 E.01307
G1 X103.187 Y100.687 E.19753
G1 X126.813 Y100.687 E.74078
G1 X126.813 Y107.004 E.19806
G1 X126.524 Y106.717 E.01277
G1 X126.189 Y106.533 E.01198
G1 X125.988 Y106.467 E.00663
G1 X125.608 Y106.419 E.01201
G1 X125.396 Y106.432 E.00666
G1 X124.946 Y106.554 E.01462
G1 X124.44 Y106.917 E.01953
G1 X124.135 Y107.391 E.01767
G1 X124.023 Y107.911 E.01668
G1 X124.063 Y108.397 E.01529
G1 X124.272 Y108.855 E.01578
G1 X124.55 Y109.188 E.0136
G1 X124.811 Y109.346 E.00957
G1 X124.833 Y108.936 F9000
;TYPE:External perimeter
G1 F1800
G1 X124.612 Y108.692 E.01032
G1 X124.423 Y108.278 E.01427
G1 X124.394 Y107.979 E.00942
G1 X124.491 Y107.524 E.01459
G1 X124.744 Y107.148 E.01421
G1 X125.119 Y106.893 E.01422
G1 X125.56 Y106.793 E.01418
G1 X126.007 Y106.863 E.01419
G1 X126.396 Y107.093 E.01417
;WIDTH:0.420608
G1 X126.671 Y107.438 E.01386
;WIDTH:0.43785
G1 X126.787 Y107.733 E.01041
G1 X126.8 Y108.176 E.01455
;WIDTH:0.427581
G1 X126.709 Y108.477 E.01006
;WIDTH:0.419999
G1 X126.456 Y108.852 E.01418
G1 X126.082 Y109.107 E.01419
G1 X125.64 Y109.207 E.01421
G1 X125.194 Y109.137 E.01416
G1 X124.885 Y108.965 E.01109
G1 X124.527 Y109.059 F9000
G1 E-3.5 F3600
;WIPE_START
G1 F7200
G1 X124.612 Y108.692 E-.18339
G1 X124.423 Y108.278 E-.21617
G1 X124.394 Y107.979 E-.14269
G1 X124.491 Y107.524 E-.22098
G1 X124.744 Y107.148 E-.21527
G1 X125.119 Y106.893 E-.21541
G1 X125.56 Y106.793 E-.21479
G1 X125.75 Y106.823 E-.0913
;WIPE_END
G1 X124.399 Y122.082 F9000
G1 E5 F2400
G1 F1800
G1 X124.441 Y121.767 E.00996
G1 X124.644 Y121.363 E.01418
G1 X124.972 Y121.067 E.01385
G1 X125.261 Y120.941 E.00989
G1 X125.7 Y120.895 E.01384
G1 X125.995 Y120.957 E.00945
G1 X126.264 Y121.093 E.00945
G1 X126.597 Y121.419 E.01461
;WIDTH:0.438883
G1 X126.786 Y121.821 E.01463
G1 X126.809 Y122.136 E.0104
;WIDTH:0.424077
G1 X126.709 Y122.577 E.01433
;WIDTH:0.419999
G1 X126.465 Y122.945 E.01384
G1 X126.218 Y123.138 E.00983
G1 X125.792 Y123.292 E.0142
G1 X125.327 Y123.272 E.01459
G1 X124.939 Y123.101 E.01329
G1 X124.696 Y122.884 E.01021
;WIDTH:0.415279
G1 X124.453 Y122.444 E.01556
;WIDTH:0.419999
G1 X124.408 Y122.142 E.00957
G1 E-3.5 F3600
;WIPE_START
G1 F7200
G1 X124.441 Y121.767 E-.17881
G1 X124.644 Y121.363 E-.21476
G1 X124.972 Y121.067 E-.20986
G1 X125.261 Y120.941 E-.14975
G1 X125.7 Y120.895 E-.20967
G1 X125.995 Y120.957 E-.14319
G1 X126.264 Y121.093 E-.14318
G1 X126.597 Y121.419 E-.22135
G1 X126.623 Y121.475 E-.02943
;WIPE_END
G1 X105.239 Y123.531 F9000
G1 E5 F2400
;TYPE:Perimeter
;WIDTH:0.595212
G1 F1800
G1 X105.227 Y124.104 E.02632
G1 X105.345 Y124.225 E.00776
G1 X104.413 Y124.25 E.04282
;WIDTH:0.546571
G1 X104.142 Y124.272 E.01139
;WIDTH:0.502171
G1 X103.872 Y124.294 E.01034
;WIDTH:0.45777
G1 X103.187 Y124.313 E.02364
;WIDTH:0.419999
G1 X103.187 Y123.114 E.03759
G1 X103.466 Y123.376 E.012
G1 X103.645 Y123.489 E.00664
;WIDTH:0.464686
G1 X103.821 Y123.571 E.00681
;WIDTH:0.509372
G1 X103.997 Y123.653 E.00753
;WIDTH:0.554058
G1 X104.172 Y123.735 E.00821
G1 X104.427 Y123.746 E.01085
;WIDTH:0.595212
G1 X104.882 Y123.683 E.02109
G1 X105.184 Y123.555 E.01506
G1 X103.621 Y123.859 F9000
;WIDTH:0.479426
G1 F1800
G1 X103.567 Y123.859 E.00196
G1 X103.539 Y123.906 E.00199
G1 X103.567 Y123.953 E.00199
G1 X103.621 Y123.953 E.00196
G1 X103.648 Y123.906 E.00197
G1 E-3.5 F3600
;WIPE_START
G1 F7200
G1 X103.621 Y123.953 E-.02575
G1 X103.567 Y123.953 E-.02565
G1 X103.539 Y123.906 E-.02599
G1 X103.567 Y123.859 E-.02599
G1 X103.621 Y123.859 E-.02565
;WIPE_END
G1 E-1.37097 F3600
G1 X105.402 Y122.702 F9000
G1 E5 F2400
;TYPE:External perimeter
;WIDTH:0.419999
G1 F1800
G1 X105.253 Y122.946 E.00896
G1 X104.883 Y123.201 E.01409
G1 X104.453 Y123.307 E.01389
G1 X104.14 Y123.279 E.00985
G1 X103.724 Y123.101 E.01419
G1 X103.403 Y122.781 E.01421
;WIDTH:0.438977
G1 X103.214 Y122.38 E.0146
G1 X103.191 Y122.078 E.00997
;WIDTH:0.4248
G1 X103.291 Y121.623 E.01479
;WIDTH:0.419999
G1 X103.545 Y121.248 E.0142
G1 X103.918 Y120.993 E.01417
G1 X104.359 Y120.893 E.01418
G1 X104.806 Y120.963 E.01419
G1 X105.189 Y121.184 E.01386
G1 X105.397 Y121.419 E.00984
G1 X105.577 Y121.847 E.01456
G1 X105.573 Y122.355 E.01593
G1 X105.428 Y122.648 E.01025
G1 X105.566 Y122.935 F9000
G1 X105.691 Y124.115
G1 F1800
G1 X105.736 Y122.85 E.03969
;WIDTH:0.414787
G1 X105.829 Y122.742 E.00441
;WIDTH:0.419999
G1 X106.995 Y122.692 E.03659
G1 X122.5 Y122.69 E.48615
G1 X124.094 Y122.721 E.04999
G1 X124.25 Y122.822 E.00583
G1 X124.292 Y123.42 E.0188
G1 X124.309 Y124.115 E.0218
;WIDTH:0.422287
G1 X124.12 Y124.309 E.00854
G1 X105.88 Y124.309 E.57537
G1 X105.733 Y124.158 E.00665
G1 X105.291 Y124.104 F9000
G1 E-3.5 F3600
;WIPE_START
G1 F7200
G1 X105.736 Y122.85 E-.6213
G1 X105.829 Y122.742 E-.0677
G1 X106.995 Y122.692 E-.55436
G1 X107.535 Y122.692 E-.25664
;WIPE_END
G1 X103.772 Y106.967 F9000
G1 E5 F2400
;WIDTH:0.419999
G1 F1800
G1 X104.061 Y106.841 E.00989
G1 X104.5 Y106.795 E.01384
G1 X104.796 Y106.858 E.00949
G1 X105.076 Y106.999 E.00983
G1 X105.397 Y107.319 E.01421
G1 X105.577 Y107.722 E.01384
G1 X105.599 Y108.079 E.01121
G1 X105.509 Y108.477 E.01279
G1 X105.256 Y108.852 E.01418
G1 X104.881 Y109.107 E.01422
G1 X104.441 Y109.207 E.01415
G1 X104.004 Y109.142 E.01385
G1 X103.724 Y109.001 E.00983
G1 X103.403 Y108.681 E.01421
;WIDTH:0.438974
G1 X103.214 Y108.28 E.0146
G1 X103.19 Y108.037 E.00804
;WIDTH:0.423273
G1 X103.291 Y107.524 E.01654
;WIDTH:0.419999
G1 X103.535 Y107.155 E.01387
G1 X103.725 Y107.004 E.00761
G1 X103.76 Y106.651 F9000
G1 E-3.5 F3600
;WIPE_START
G1 F7200
G1 X104.061 Y106.841 E-.17739
G1 X104.5 Y106.795 E-.20967
G1 X104.796 Y106.858 E-.14375
G1 X105.076 Y106.999 E-.14891
G1 X105.397 Y107.319 E-.2153
G1 X105.577 Y107.722 E-.20965
G1 X105.599 Y108.079 E-.1699
G1 X105.509 Y108.477 E-.19382
G1 X105.472 Y108.532 E-.03161
;WIPE_END
G1 X102.81 Y100.31 F9000
G1 E5 F2400
G1 F1800
G1 X127.19 Y100.31 E.76442
G1 X127.19 Y103.74 E.10755
G1 X127.19 Y106.807 E.09616
;WIDTH:0.432214
G1 X127.187 Y108.104 E.04198
;WIDTH:0.425688
G1 X127.19 Y108.617 E.01633
;WIDTH:0.419999
G1 X127.19 Y121.082 E.39083
;WIDTH:0.432829
G1 X127.188 Y122.172 E.03534
;WIDTH:0.424077
G1 X127.19 Y122.717 E.01727
;WIDTH:0.419999
G1 X127.19 Y124.69 E.06186
G1 X124.898 Y124.69 E.07186
;WIDTH:0.422287
G1 X105.102 Y124.69 E.62445
;WIDTH:0.419999
G1 X102.81 Y124.69 E.07186
G1 X102.81 Y122.914 E.05569
;WIDTH:0.4248
G1 X102.81 Y121.483 E.04544
;WIDTH:0.419999
G1 X102.81 Y108.814 E.39723
;WIDTH:0.424792
G1 X102.81 Y107.384 E.04541
;WIDTH:0.419999
G1 X102.81 Y100.37 E.21992
G1 E-3.5 F3600
;WIPE_START
G1 F7200
G1 X105.968 Y100.362 E-1.5
;WIPE_END
G1 X126.315 Y101.949 F9000
G1 E5 F2400
;TYPE:Solid infill
;WIDTH:0.420732
G1 F1800
G1 X125.721 Y101.355 E.02639
G1 X125.187 Y101.355 E.01678
G1 X126.145 Y102.313 E.04256
G1 X126.145 Y102.848 E.01681
G1 X124.652 Y101.355 E.06633
G1 X124.118 Y101.355 E.01678
G1 X126.145 Y103.382 E.09006
G1 X126.145 Y103.916 E.01678
G1 X123.584 Y101.355 E.11378
G1 X123.05 Y101.355 E.01678
G1 X126.145 Y104.45 E.1375
G1 X126.145 Y104.985 E.01681
G1 X122.515 Y101.355 E.16127
G1 X121.981 Y101.355 E.01678
G1 X126.145 Y105.519 E.185
G1 X126.145 Y105.827 E.00968
G1 X125.872 Y105.78 E.0087
G1 X121.447 Y101.355 E.19659
G1 X120.912 Y101.355 E.01681
G1 X125.335 Y105.777 E.19648
G1 X125.239 Y105.783 E.00302
G1 X124.901 Y105.878 E.01103
G1 X120.378 Y101.355 E.20095
G1 X119.844 Y101.355 E.01678
G1 X124.521 Y106.032 E.20779
G1 X124.204 Y106.249 E.01207
G1 X119.309 Y101.355 E.21745
G1 X118.775 Y101.355 E.01678
G1 X123.921 Y106.5 E.2286
G1 X123.705 Y106.819 E.0121
G1 X118.241 Y101.355 E.24275
G1 X117.706 Y101.355 E.01681
G1 X123.512 Y107.16 E.25793
G1 X123.438 Y107.397 E.0078
G1 X123.403 Y107.586 E.00604
G1 X117.172 Y101.355 E.27683
G1 X116.638 Y101.355 E.01678
G1 X123.541 Y108.258 E.30669
G1 E-3.5 F3600
;WIPE_START
G1 F7200
G1 X121.308 Y106.025 E-1.5
;WIPE_END
G1 X125.87 Y110.052 F9000
G1 E5 F2400
G1 F1800
G1 X126.145 Y110.328 E.01224
G1 X126.145 Y110.862 E.01678
G1 X125.333 Y110.05 E.03608
G1 X126.315 Y111.566 F9000
G1 F1800
G1 X124.858 Y110.109 E.06473
G1 X124.698 Y110.057 E.00529
G1 X124.19 Y109.76 E.01849
G1 X123.818 Y109.381 E.01668
G1 X123.672 Y109.149 E.00861
G1 X123.483 Y108.734 E.01433
G1 X116.104 Y101.355 E.32783
G1 X115.569 Y101.355 E.01681
G1 X126.145 Y111.931 E.46987
G1 X126.145 Y112.465 E.01678
G1 X115.035 Y101.355 E.49359
G1 X114.501 Y101.355 E.01678
G1 X126.145 Y112.999 E.51732
G1 X126.145 Y113.534 E.01681
G1 X113.966 Y101.355 E.54109
G1 X113.432 Y101.355 E.01678
G1 X126.145 Y114.068 E.56481
G1 X126.145 Y114.602 E.01678
G1 X112.898 Y101.355 E.58854
G1 X112.363 Y101.355 E.01681
G1 X126.145 Y115.137 E.6123
G1 X126.145 Y115.671 E.01678
G1 X111.829 Y101.355 E.63603
G1 X111.295 Y101.355 E.01678
G1 X126.145 Y116.205 E.65975
G1 X126.145 Y116.74 E.01681
G1 X110.76 Y101.355 E.68352
G1 X110.226 Y101.355 E.01678
G1 X126.145 Y117.274 E.70725
G1 X126.145 Y117.808 E.01678
G1 X109.692 Y101.355 E.73097
G1 X109.158 Y101.355 E.01678
G1 X126.145 Y118.342 E.75469
G1 X126.145 Y118.877 E.01681
G1 X108.623 Y101.355 E.77846
G1 X108.089 Y101.355 E.01678
G1 X126.145 Y119.411 E.80219
G1 X126.145 Y119.927 E.01621
G1 X126.122 Y119.922 E.00074
G1 X107.555 Y101.355 E.82489
G1 X107.02 Y101.355 E.01681
G1 X125.522 Y119.856 E.82198
G1 X125.056 Y119.925 E.0148
G1 X106.486 Y101.355 E.82502
G1 X105.952 Y101.355 E.01678
G1 X124.66 Y120.063 E.83116
G1 X124.361 Y120.215 E.01054
G1 X124.317 Y120.254 E.00185
G1 X105.417 Y101.355 E.83966
G1 X104.883 Y101.355 E.01678
G1 X124.035 Y120.507 E.85088
G1 X123.922 Y120.608 E.00476
G1 X123.784 Y120.79 E.00718
G1 X104.349 Y101.355 E.86345
G1 X103.855 Y101.355 E.01552
G1 X103.855 Y101.395 E.00126
G1 X123.587 Y121.127 E.87665
G1 X123.49 Y121.334 E.00718
G1 X123.443 Y121.517 E.00594
G1 X103.855 Y101.929 E.87025
G1 X103.855 Y102.463 E.01678
G1 X123.047 Y121.656 E.85268
G1 X122.503 Y121.646 E.01709
G1 X103.855 Y102.997 E.82851
G1 X103.855 Y103.532 E.01681
