; generated by PrusaSlicer 2.6.0+win64 on 2023-09-23 at 20:22:47 UTC

; 

; external perimeters extrusion width = 0.42mm
; perimeters extrusion width = 0.44mm
; infill extrusion width = 0.44mm
; solid infill extrusion width = 0.44mm
; top infill extrusion width = 0.40mm
; first layer extrusion width = 0.42mm

;TYPE:Custom
M109 S0
M190 S0
start_print EXTRUDER_TEMP=215 BED_TEMP=60
G21 ; set units to millimeters
G90 ; use absolute coordinates
M83 ; use relative distances for extrusion
; Filament gcode
M107
;LAYER_CHANGE
;Z:0.2
;HEIGHT:0.2
;BEFORE_LAYER_CHANGE
G92 E0
;0.2


G1 E-5 F3600
G1 Z.2 F9000
;AFTER_LAYER_CHANGE
;0.2
G1 X102.66 Y102.66
G1 E5 F2400
M204 S500
;TYPE:Skirt/Brim
;WIDTH:0.42
G1 F1800
G1 X106.874 Y98.445 E.18688
G1 X108.338 Y97.54 E.05397
G1 X109.529 Y97.346 E.03784
G1 X120.471 Y97.346 E.34308
G1 X122.147 Y97.741 E.05399
G1 X123.126 Y98.445 E.03781
G1 X129.055 Y104.374 E.2629
G1 X129.96 Y105.838 E.05397
G1 X130.154 Y107.029 E.03784
G1 X130.154 Y117.971 E.34308
G1 X129.759 Y119.647 E.05399
G1 X129.055 Y120.626 E.03781
G1 X123.126 Y126.555 E.2629
G1 X121.662 Y127.46 E.05397
G1 X120.471 Y127.654 E.03784
G1 X109.529 Y127.654 E.34308
G1 X107.853 Y127.259 E.05399
G1 X106.874 Y126.555 E.03781
G1 X100.945 Y120.626 E.2629
G1 X100.04 Y119.162 E.05397
G1 X99.846 Y117.971 E.03784
G1 X99.846 Y107.029 E.34308
G1 X100.241 Y105.353 E.05399
G1 X100.945 Y104.374 E.03781
G1 X102.617 Y102.702 E.07414
G1 X102.884 Y102.969 F9000
G1 F1800
G1 X107.141 Y98.712 E.18876
G1 X108.539 Y97.871 E.05115
G1 X109.529 Y97.723 E.03139
G1 X120.471 Y97.723 E.34308
G1 X122.054 Y98.117 E.05115
G1 X122.859 Y98.712 E.03139
G1 X128.788 Y104.641 E.2629
G1 X129.629 Y106.039 E.05115
G1 X129.777 Y107.029 E.03139
G1 X129.777 Y117.971 E.34308
G1 X129.383 Y119.554 E.05115
G1 X128.788 Y120.359 E.03139
G1 X122.859 Y126.288 E.2629
G1 X121.461 Y127.129 E.05115
G1 X120.471 Y127.277 E.03139
G1 X109.529 Y127.277 E.34308
G1 X107.946 Y126.883 E.05115
G1 X107.141 Y126.288 E.03139
G1 X101.212 Y120.359 E.2629
G1 X100.371 Y118.961 E.05115
G1 X100.223 Y117.971 E.03139
G1 X100.223 Y107.029 E.34308
G1 X100.617 Y105.446 E.05115
G1 X101.212 Y104.641 E.03139
G1 X102.842 Y103.011 E.07228
G1 E-3.5 F3600
;WIPE_START
G1 F7200
G1 X105.075 Y100.778 E-1.5
;WIPE_END
G1 X105.414 Y105.639 F9000
G1 E5 F2400
G1 F1800
G1 X105.746 Y105.314 E.01457
G1 X106.912 Y104.663 E.04187
G1 X107.077 Y104.61 E.00543
G1 X107.704 Y103.397 E.04281
G1 X108.527 Y102.507 E.03801
G1 X109.341 Y101.923 E.03141
G1 X110.847 Y101.419 E.04979
G1 X114.102 Y101.414 E.10206
G1 X115.068 Y101.647 E.03116
G1 X115.93 Y101.409 E.02804
G1 X119.098 Y101.412 E.09933
G1 X120.327 Y101.761 E.04006
G1 X121.403 Y102.442 E.03993
G1 X122.312 Y103.42 E.04186
G1 X122.834 Y104.402 E.03487
G1 X122.897 Y104.604 E.00663
G1 X123.122 Y104.676 E.00741
G1 X124.163 Y105.247 E.03723
G1 X125.201 Y106.267 E.04563
G1 X125.884 Y107.542 E.04535
G1 X126.115 Y108.695 E.03687
G1 X126.089 Y111.586 E.09065
G1 X125.835 Y112.506 E.02993
G1 X126.101 Y113.496 E.03214
G1 X126.114 Y116.411 E.0914
G1 X125.741 Y117.818 E.04564
G1 X125.115 Y118.833 E.03739
G1 X124.268 Y119.674 E.03742
G1 X123.125 Y120.323 E.04121
G1 X122.896 Y120.395 E.00753
G1 X122.823 Y120.624 E.00754
G1 X122.276 Y121.63 E.0359
G1 X121.247 Y122.691 E.04634
G1 X119.769 Y123.447 E.05205
G1 X118.781 Y123.614 E.03142
G1 X115.914 Y123.589 E.0899
G1 X114.994 Y123.335 E.02993
G1 X114.004 Y123.601 E.03214
G1 X111.089 Y123.614 E.0914
G1 X109.682 Y123.241 E.04564
G1 X108.667 Y122.615 E.03739
G1 X107.826 Y121.768 E.03742
G1 X107.177 Y120.625 E.04121
G1 X107.105 Y120.396 E.00753
G1 X106.876 Y120.323 E.00754
G1 X105.87 Y119.776 E.0359
G1 X104.809 Y118.747 E.04634
G1 X104.053 Y117.269 E.05205
G1 X103.886 Y116.281 E.03142
G1 X103.911 Y113.414 E.0899
G1 X104.167 Y112.489 E.03009
G1 X103.887 Y111.417 E.03474
G1 X103.887 Y108.569 E.0893
G1 X104.323 Y107.041 E.04982
G1 X104.929 Y106.114 E.03473
G1 X105.371 Y105.681 E.0194
G1 X105.632 Y105.95 F9000
G1 F1800
G1 X105.99 Y105.603 E.01563
G1 X107.07 Y105.007 E.03868
G1 X107.403 Y104.918 E.01081
G1 X107.473 Y104.66 E.00838
G1 X107.998 Y103.634 E.03614
G1 X108.792 Y102.776 E.03665
G1 X109.49 Y102.271 E.02701
G1 X110.879 Y101.796 E.04603
G1 X114.08 Y101.791 E.10037
G1 X114.884 Y101.989 E.02596
G1 X115.03 Y102.051 E.00497
G1 X115.957 Y101.786 E.03023
G1 X119.071 Y101.789 E.09764
G1 X120.196 Y102.116 E.03673
G1 X121.145 Y102.717 E.03522
G1 X121.991 Y103.619 E.03877
G1 X122.49 Y104.558 E.03334
G1 X122.586 Y104.911 E.01147
G1 X122.962 Y105.018 E.01226
G1 X123.958 Y105.565 E.03563
G1 X124.915 Y106.514 E.04226
G1 X125.538 Y107.693 E.04181
G1 X125.737 Y108.71 E.03249
G1 X125.712 Y111.557 E.08927
G1 X125.443 Y112.504 E.03087
G1 X125.724 Y113.523 E.03314
G1 X125.737 Y116.387 E.0898
G1 X125.385 Y117.692 E.04238
G1 X124.808 Y118.614 E.0341
G1 X124.022 Y119.387 E.03457
G1 X122.964 Y119.981 E.03804
G1 X122.589 Y120.085 E.0122
G1 X122.48 Y120.466 E.01243
G1 X121.987 Y121.387 E.03275
G1 X120.998 Y122.406 E.04452
G1 X119.626 Y123.097 E.04817
G1 X118.769 Y123.237 E.02723
G1 X115.943 Y123.212 E.08861
G1 X114.996 Y122.943 E.03087
G1 X113.977 Y123.224 E.03314
G1 X111.113 Y123.237 E.0898
G1 X109.808 Y122.885 E.04238
G1 X108.886 Y122.308 E.0341
G1 X108.113 Y121.522 E.03457
G1 X107.519 Y120.464 E.03804
G1 X107.415 Y120.089 E.0122
G1 X107.034 Y119.98 E.01243
G1 X106.113 Y119.487 E.03275
G1 X105.094 Y118.498 E.04452
G1 X104.403 Y117.126 E.04817
G1 X104.263 Y116.269 E.02723
G1 X104.288 Y113.443 E.08861
G1 X104.558 Y112.493 E.03097
G1 X104.264 Y111.392 E.03573
G1 X104.264 Y108.596 E.08767
G1 X104.677 Y107.175 E.0464
G1 X105.231 Y106.34 E.03142
G1 X105.589 Y105.992 E.01565
G1 X105.849 Y106.262 F9000
G1 F1800
G1 X106.233 Y105.892 E.01672
G1 X107.225 Y105.351 E.03543
G1 X107.718 Y105.234 E.01589
G1 X107.821 Y104.808 E.01374
G1 X108.294 Y103.87 E.03294
G1 X109.056 Y103.045 E.03521
G1 X109.642 Y102.617 E.02275
G1 X110.912 Y102.173 E.04218
G1 X114.056 Y102.168 E.09858
G1 X114.771 Y102.349 E.02313
G1 X114.999 Y102.453 E.00786
G1 X115.984 Y102.163 E.03219
G1 X119.043 Y102.166 E.09591
G1 X120.063 Y102.469 E.03336
G1 X120.887 Y102.994 E.03063
G1 X121.67 Y103.819 E.03566
G1 X122.145 Y104.713 E.03174
G1 X122.272 Y105.219 E.01636
G1 X122.804 Y105.361 E.01726
G1 X123.714 Y105.854 E.03245
G1 X124.595 Y106.717 E.03867
G1 X125.191 Y107.844 E.03997
G1 X125.36 Y108.725 E.02813
G1 X125.336 Y111.527 E.08786
G1 X125.05 Y112.503 E.03189
G1 X125.347 Y113.551 E.03415
G1 X125.36 Y116.362 E.08814
G1 X125.029 Y117.564 E.03909
G1 X124.502 Y118.392 E.03077
G1 X123.778 Y119.099 E.03173
G1 X122.804 Y119.638 E.0349
G1 X122.281 Y119.772 E.01693
G1 X122.137 Y120.309 E.01743
G1 X121.667 Y121.185 E.03117
G1 X120.752 Y122.118 E.04097
G1 X119.486 Y122.746 E.04431
G1 X118.757 Y122.86 E.02314
G1 X115.973 Y122.836 E.08729
G1 X114.997 Y122.55 E.03189
G1 X113.949 Y122.847 E.03415
G1 X111.138 Y122.86 E.08814
G1 X109.936 Y122.529 E.03909
G1 X109.108 Y122.002 E.03077
G1 X108.401 Y121.278 E.03173
G1 X107.862 Y120.304 E.0349
G1 X107.728 Y119.781 E.01693
G1 X107.191 Y119.637 E.01743
G1 X106.315 Y119.167 E.03117
G1 X105.382 Y118.252 E.04097
G1 X104.754 Y116.986 E.04431
G1 X104.64 Y116.257 E.02314
G1 X104.664 Y113.473 E.08729
G1 X104.951 Y112.496 E.03193
G1 X104.641 Y111.366 E.03674
G1 X104.641 Y108.624 E.08597
G1 X105.03 Y107.311 E.04294
G1 X105.532 Y106.568 E.02812
G1 X105.806 Y106.304 E.01193
G1 X106.068 Y106.575 F9000
G1 F1800
G1 X106.475 Y106.182 E.01774
G1 X107.379 Y105.696 E.03218
G1 X108.035 Y105.552 E.02106
G1 X108.17 Y104.953 E.01925
G1 X108.589 Y104.106 E.02963
G1 X109.322 Y103.313 E.03386
G1 X109.796 Y102.962 E.01849
G1 X110.946 Y102.55 E.0383
G1 X114.032 Y102.545 E.09676
G1 X114.656 Y102.709 E.02023
G1 X114.967 Y102.858 E.01081
G1 X116.012 Y102.541 E.03424
G1 X119.014 Y102.544 E.09413
G1 X119.928 Y102.822 E.02995
G1 X120.631 Y103.271 E.02615
G1 X121.35 Y104.019 E.03253
G1 X121.8 Y104.867 E.0301
G1 X121.956 Y105.529 E.02133
G1 X122.648 Y105.706 E.0224
G1 X123.47 Y106.142 E.02917
G1 X124.309 Y106.965 E.03685
G1 X124.843 Y107.992 E.03629
G1 X124.983 Y108.74 E.02386
G1 X124.959 Y111.496 E.08642
G1 X124.656 Y112.501 E.03291
G1 X124.97 Y113.58 E.03523
G1 X124.983 Y116.337 E.08644
G1 X124.674 Y117.433 E.0357
G1 X124.198 Y118.168 E.02746
G1 X123.535 Y118.81 E.02894
G1 X122.647 Y119.295 E.03172
G1 X121.971 Y119.457 E.0218
G1 X121.793 Y120.152 E.02249
G1 X121.348 Y120.982 E.02953
G1 X120.508 Y121.83 E.03742
G1 X119.348 Y122.394 E.04044
G1 X118.747 Y122.483 E.01905
G1 X116.004 Y122.459 E.08601
G1 X114.999 Y122.156 E.03291
G1 X113.92 Y122.47 E.03523
G1 X111.163 Y122.483 E.08644
G1 X110.067 Y122.174 E.0357
G1 X109.332 Y121.698 E.02746
G1 X108.69 Y121.035 E.02894
G1 X108.205 Y120.147 E.03172
G1 X108.043 Y119.471 E.0218
G1 X107.348 Y119.293 E.02249
G1 X106.518 Y118.848 E.02953
G1 X105.67 Y118.008 E.03742
G1 X105.106 Y116.848 E.04044
G1 X105.017 Y116.247 E.01905
G1 X105.041 Y113.504 E.08601
G1 X105.344 Y112.5 E.03288
G1 X105.018 Y111.34 E.03778
G1 X105.018 Y108.652 E.08428
G1 X105.382 Y107.449 E.03941
G1 X105.807 Y106.827 E.02362
G1 X106.025 Y106.617 E.00949
G1 X106.287 Y106.888 F9000
G1 F1800
G1 X106.718 Y106.472 E.01878
G1 X107.53 Y106.043 E.02879
G1 X108.394 Y105.865 E.02766
G1 X108.405 Y105.635 E.00722
G1 X108.519 Y105.095 E.0173
G1 X108.886 Y104.341 E.02629
G1 X109.586 Y103.583 E.03235
G1 X109.997 Y103.282 E.01597
G1 X110.98 Y102.927 E.03277
G1 X113.96 Y102.916 E.09344
G1 X114.541 Y103.068 E.01883
G1 X114.997 Y103.294 E.01596
G1 X115.24 Y103.16 E.0087
G1 X116.04 Y102.918 E.02621
G1 X118.985 Y102.921 E.09234
G1 X119.748 Y103.155 E.02502
G1 X120.376 Y103.549 E.02324
G1 X121.059 Y104.261 E.03093
G1 X121.454 Y105.018 E.02677
G1 X121.598 Y105.659 E.0206
G1 X121.611 Y105.9 E.00757
G1 X121.944 Y105.915 E.01045
G1 X122.495 Y106.051 E.01779
G1 X123.229 Y106.434 E.02596
G1 X123.991 Y107.168 E.03317
G1 X124.479 Y108.092 E.03276
G1 X124.606 Y108.756 E.0212
G1 X124.582 Y111.465 E.08494
G1 X124.34 Y112.26 E.02606
G1 X124.207 Y112.5 E.0086
G1 X124.346 Y112.753 E.00905
G1 X124.593 Y113.608 E.0279
G1 X124.606 Y116.311 E.08475
G1 X124.32 Y117.301 E.03231
G1 X123.921 Y117.911 E.02285
G1 X123.292 Y118.521 E.02747
G1 X122.493 Y118.95 E.02843
G1 X121.848 Y119.097 E.02074
G1 X121.6 Y119.111 E.00779
G1 X121.585 Y119.444 E.01045
G1 X121.449 Y119.995 E.01779
G1 X121.029 Y120.779 E.02789
G1 X120.265 Y121.54 E.03381
G1 X119.263 Y122.025 E.0349
G1 X118.735 Y122.106 E.01675
G1 X116.035 Y122.082 E.08466
G1 X115.24 Y121.84 E.02606
G1 X115 Y121.707 E.0086
G1 X114.747 Y121.846 E.00905
G1 X113.892 Y122.093 E.0279
G1 X111.189 Y122.106 E.08475
G1 X110.199 Y121.82 E.03231
G1 X109.589 Y121.421 E.02285
G1 X108.979 Y120.792 E.02747
G1 X108.55 Y119.993 E.02843
G1 X108.403 Y119.348 E.02074
G1 X108.389 Y119.1 E.00779
G1 X108.056 Y119.085 E.01045
G1 X107.505 Y118.949 E.01779
G1 X106.721 Y118.529 E.02789
G1 X105.96 Y117.765 E.03381
G1 X105.475 Y116.763 E.0349
G1 X105.394 Y116.235 E.01675
G1 X105.418 Y113.535 E.08466
G1 X105.66 Y112.74 E.02606
G1 X105.796 Y112.494 E.00881
G1 X105.651 Y112.239 E.0092
G1 X105.395 Y111.315 E.03006
G1 X105.395 Y108.68 E.08262
G1 X105.71 Y107.636 E.03419
G1 X106.083 Y107.084 E.02089
G1 X106.243 Y106.93 E.00696
G1 X106.506 Y107.197 F9000
G1 F1800
G1 X106.919 Y106.793 E.01811
G1 X107.683 Y106.389 E.0271
G1 X108.223 Y106.276 E.0173
G1 X108.772 Y106.27 E.01721
G1 X108.778 Y105.688 E.01825
G1 X108.869 Y105.238 E.0144
G1 X109.212 Y104.531 E.02464
G1 X109.827 Y103.873 E.02824
G1 X110.153 Y103.627 E.01281
G1 X111.077 Y103.293 E.03081
G1 X113.933 Y103.293 E.08955
G1 X114.421 Y103.426 E.01586
G1 X115.012 Y103.725 E.02077
G1 X115.376 Y103.512 E.01322
G1 X116.07 Y103.295 E.0228
G1 X118.902 Y103.289 E.0888
G1 X119.614 Y103.508 E.02336
G1 X120.122 Y103.829 E.01884
G1 X120.737 Y104.46 E.02763
G1 X121.107 Y105.169 E.02508
G1 X121.224 Y105.714 E.01748
G1 X121.23 Y106.273 E.01753
G1 X121.876 Y106.287 E.02026
G1 X122.383 Y106.412 E.01637
G1 X122.99 Y106.726 E.02143
G1 X123.672 Y107.373 E.02948
G1 X124.131 Y108.242 E.03081
G1 X124.228 Y108.77 E.01683
G1 X124.205 Y111.433 E.0835
G1 X123.988 Y112.124 E.02271
G1 X123.768 Y112.5 E.01366
G1 X123.992 Y112.886 E.01399
G1 X124.217 Y113.637 E.02458
G1 X124.228 Y116.284 E.083
G1 X123.967 Y117.166 E.02884
G1 X123.643 Y117.657 E.01844
G1 X123.087 Y118.203 E.02443
G1 X122.383 Y118.588 E.02516
G1 X121.788 Y118.724 E.01914
G1 X121.227 Y118.73 E.01759
G1 X121.213 Y119.376 E.02026
G1 X121.088 Y119.882 E.01634
G1 X120.743 Y120.532 E.02307
G1 X120.022 Y121.249 E.03188
G1 X119.13 Y121.671 E.03094
G1 X118.725 Y121.728 E.01282
G1 X116.067 Y121.705 E.08334
G1 X115.376 Y121.488 E.02271
G1 X115 Y121.268 E.01366
G1 X114.614 Y121.492 E.01399
G1 X113.863 Y121.717 E.02458
G1 X111.216 Y121.728 E.083
G1 X110.334 Y121.467 E.02884
G1 X109.843 Y121.143 E.01844
G1 X109.297 Y120.587 E.02443
G1 X108.912 Y119.883 E.02516
G1 X108.776 Y119.288 E.01914
G1 X108.77 Y118.727 E.01759
G1 X108.124 Y118.713 E.02026
G1 X107.618 Y118.588 E.01634
G1 X106.968 Y118.243 E.02307
G1 X106.251 Y117.522 E.03188
G1 X105.829 Y116.63 E.03094
G1 X105.772 Y116.225 E.01282
G1 X105.795 Y113.567 E.08334
G1 X106.012 Y112.876 E.02271
G1 X106.239 Y112.489 E.01407
G1 X106.005 Y112.108 E.01402
G1 X105.772 Y111.288 E.02673
G1 X105.772 Y108.709 E.08086
G1 X106.061 Y107.776 E.03062
G1 X106.36 Y107.34 E.01658
G1 X106.463 Y107.239 E.00452
G1 X106.729 Y107.505 F9000
G1 F1800
G1 X107.123 Y107.11 E.01749
G1 X107.788 Y106.752 E.02368
G1 X108.28 Y106.649 E.01576
G1 X109.15 Y106.649 E.02728
G1 X109.152 Y105.744 E.02838
G1 X109.234 Y105.337 E.01302
G1 X109.537 Y104.725 E.02141
G1 X110.088 Y104.146 E.02506
G1 X110.356 Y103.945 E.0105
G1 X111.111 Y103.67 E.02519
G1 X113.861 Y103.664 E.08622
G1 X114.269 Y103.772 E.01323
G1 X114.736 Y104.008 E.01641
G1 X114.997 Y104.239 E.01093
G1 X115.195 Y104.057 E.00843
G1 X115.516 Y103.863 E.01176
G1 X116.102 Y103.672 E.01932
G1 X118.874 Y103.667 E.08691
G1 X119.436 Y103.841 E.01845
G1 X119.871 Y104.111 E.01605
G1 X120.418 Y104.663 E.02437
G1 X120.744 Y105.275 E.02174
G1 X120.851 Y105.773 E.01597
G1 X120.851 Y106.649 E.02747
G1 X121.808 Y106.658 E.03001
G1 X122.27 Y106.772 E.01492
G1 X122.789 Y107.046 E.0184
G1 X123.389 Y107.623 E.0261
G1 X123.766 Y108.34 E.0254
G1 X123.851 Y108.785 E.0142
G1 X123.828 Y111.4 E.08199
G1 X123.637 Y111.984 E.01927
G1 X123.442 Y112.307 E.01183
G1 X123.265 Y112.5 E.00821
G1 X123.443 Y112.694 E.00826
G1 X123.639 Y113.021 E.01195
G1 X123.84 Y113.668 E.02124
G1 X123.851 Y116.257 E.08118
G1 X123.615 Y117.027 E.02525
G1 X123.363 Y117.403 E.01419
G1 X122.879 Y117.888 E.02148
G1 X122.272 Y118.227 E.0218
G1 X121.726 Y118.351 E.01756
G1 X120.851 Y118.351 E.02744
G1 X120.842 Y119.308 E.03001
G1 X120.728 Y119.77 E.01492
G1 X120.454 Y120.288 E.01837
G1 X119.827 Y120.925 E.02802
G1 X119.046 Y121.303 E.02721
G1 X118.713 Y121.351 E.01055
G1 X116.1 Y121.328 E.08193
G1 X115.516 Y121.137 E.01927
G1 X115.193 Y120.942 E.01183
G1 X115 Y120.765 E.00821
G1 X114.806 Y120.943 E.00826
G1 X114.479 Y121.139 E.01195
G1 X113.832 Y121.34 E.02124
G1 X111.243 Y121.351 E.08118
G1 X110.473 Y121.115 E.02525
G1 X110.097 Y120.863 E.01419
G1 X109.612 Y120.379 E.02148
G1 X109.273 Y119.772 E.0218
G1 X109.149 Y119.226 E.01756
G1 X109.149 Y118.351 E.02744
G1 X108.192 Y118.342 E.03001
G1 X107.73 Y118.228 E.01492
G1 X107.212 Y117.954 E.01837
G1 X106.575 Y117.327 E.02802
G1 X106.197 Y116.546 E.02721
G1 X106.149 Y116.213 E.01055
G1 X106.172 Y113.6 E.08193
G1 X106.363 Y113.016 E.01927
G1 X106.558 Y112.693 E.01183
G1 X106.713 Y112.524 E.00719
G1 X106.359 Y111.973 E.02053
G1 X106.149 Y111.26 E.02331
G1 X106.149 Y108.737 E.07911
G1 X106.389 Y107.964 E.02538
G1 X106.686 Y107.547 E.01605
G1 X106.953 Y107.814 F9000
G1 F1800
G1 X107.369 Y107.398 E.01845
G1 X107.938 Y107.099 E.02015
G1 X108.298 Y107.026 E.01152
G1 X109.526 Y107.026 E.0385
G1 X109.529 Y105.765 E.03954
G1 X109.597 Y105.441 E.01038
G1 X109.859 Y104.922 E.01823
G1 X110.346 Y104.421 E.02191
G1 X110.556 Y104.266 E.00818
G1 X111.205 Y104.036 E.02159
G1 X113.835 Y104.041 E.08246
G1 X114.116 Y104.117 E.00913
G1 X114.538 Y104.33 E.01482
G1 X115.003 Y104.777 E.02022
G1 X115.416 Y104.363 E.01834
G1 X115.661 Y104.212 E.00902
