; generated by PrusaSlicer 2.6.0+win64 on 2023-09-27 at 12:19:03 UTC

; 

; external perimeters extrusion width = 0.42mm
; perimeters extrusion width = 0.44mm
; infill extrusion width = 0.44mm
; solid infill extrusion width = 0.44mm
; top infill extrusion width = 0.40mm
; first layer extrusion width = 0.42mm

;TYPE:Custom
M109 S0
M190 S0
start_print EXTRUDER_TEMP=215 BED_TEMP=60
G21 ; set units to millimeters
G90 ; use absolute coordinates
M83 ; use relative distances for extrusion
; Filament gcode
M107
;LAYER_CHANGE
;Z:0.2
;HEIGHT:0.2
;BEFORE_LAYER_CHANGE
G92 E0
;0.2


G1 E-5 F3600
G1 Z.2 F9000
;AFTER_LAYER_CHANGE
;0.2
G1 X83.107 Y82.203
G1 E5 F2400
M204 S500
;TYPE:Skirt/Brim
;WIDTH:0.42
G1 F1200
G1 X85 Y81.623 E.06208
G1 X145 Y81.623 E1.88126
G1 X146.583 Y82.017 E.05115
G1 X147.797 Y83.107 E.05116
G1 X148.377 Y85 E.06208
G1 X148.377 Y140 E1.72449
G1 X147.983 Y141.583 E.05115
G1 X146.893 Y142.797 E.05116
G1 X145 Y143.377 E.06208
G1 X85 Y143.377 E1.88126
G1 X83.417 Y142.983 E.05115
G1 X82.203 Y141.893 E.05116
G1 X81.623 Y140 E.06208
G1 X81.623 Y85 E1.72449
G1 X82.017 Y83.417 E.05115
G1 X83.067 Y82.248 E.04927
G1 E-3.5 F3600
;WIPE_START
G1 F7200
G1 X85 Y81.623 E-.96498
G1 X86.126 Y81.623 E-.53502
;WIPE_END
G1 X139.011 Y98.932 F9000
G1 E5 F2400
;TYPE:Perimeter
;WIDTH:0.419999
G1 F1200
G1 X138.942 Y99.393 E.01462
G1 X138.949 Y99.661 E.00841
G1 X139.07 Y100.317 E.02092
G1 X139.29 Y100.793 E.01644
G1 X139.441 Y101.014 E.00839
G1 X139.816 Y101.422 E.01738
G1 X140.023 Y101.592 E.0084
G1 X140.535 Y101.872 E.0183
G1 X141.097 Y102.029 E.0183
G1 X141.68 Y102.054 E.0183
G1 X142.304 Y101.926 E.01997
G1 X142.808 Y101.696 E.01737
G1 X143.312 Y101.309 E.01992
G1 X143.675 Y100.852 E.0183
G1 X143.936 Y100.233 E.02106
G1 X143.936 Y135.758 E1.11386
G1 X143.814 Y135.405 E.01171
G1 X143.507 Y134.909 E.01829
G1 X143.049 Y134.467 E.01996
G1 X142.574 Y134.181 E.01738
G1 X142.327 Y134.077 E.0084
G1 X141.759 Y133.952 E.01824
G1 X141.136 Y133.971 E.01954
G1 X140.591 Y134.112 E.01765
G1 X140.295 Y134.246 E.01019
G1 X139.702 Y134.671 E.02288
G1 X139.368 Y135.076 E.01646
G1 X139.127 Y135.539 E.01637
G1 X139.044 Y135.794 E.00841
G1 X138.949 Y136.34 E.01738
G1 X138.949 Y136.662 E.0101
G1 X139.044 Y137.207 E.01735
G1 X139.127 Y137.461 E.00838
G1 X139.406 Y137.974 E.01831
G1 X139.838 Y138.441 E.01995
G1 X140.295 Y138.754 E.01737
G1 X140.732 Y138.936 E.01484
G1 X89.283 Y138.936 E1.61314
G1 X89.833 Y138.681 E.01901
G1 X90.271 Y138.342 E.01737
G1 X90.488 Y138.105 E.01008
G1 X90.787 Y137.64 E.01733
G1 X90.899 Y137.396 E.00842
G1 X91.039 Y136.83 E.01828
G1 X91.037 Y136.194 E.01994
G1 X90.867 Y135.513 E.02201
G1 X90.589 Y135.013 E.01794
G1 X90.257 Y134.637 E.01573
G1 X90.049 Y134.467 E.00842
G1 X89.574 Y134.181 E.01738
G1 X89.327 Y134.077 E.0084
G1 X88.759 Y133.952 E.01824
G1 X88.136 Y133.971 E.01954
G1 X87.591 Y134.112 E.01765
G1 X87.295 Y134.246 E.01019
G1 X86.838 Y134.559 E.01737
G1 X86.64 Y134.74 E.00841
G1 X86.29 Y135.207 E.0183
;WIDTH:0.424114
G1 X86.07 Y135.692 E.01688
G1 X86.064 Y135.155 E.01702
;WIDTH:0.419999
G1 X86.064 Y100.845 E1.07576
;WIDTH:0.424164
G1 X86.07 Y100.308 E.01702
G1 X86.121 Y100.464 E.0052
G1 X86.441 Y101.014 E.02017
;WIDTH:0.419999
G1 X86.816 Y101.422 E.01738
G1 X87.339 Y101.782 E.01991
G1 X87.887 Y101.986 E.01833
G1 X88.466 Y102.06 E.0183
G1 X89.046 Y102.002 E.01828
G1 X89.304 Y101.926 E.00843
G1 X89.901 Y101.646 E.02068
G1 X90.312 Y101.309 E.01666
G1 X90.639 Y100.901 E.01639
G1 X90.8 Y100.614 E.01032
G1 X91.015 Y99.993 E.0206
G1 X91.06 Y99.461 E.01674
G1 X91.036 Y99.19 E.00853
G1 X90.89 Y98.582 E.01961
G1 X90.632 Y98.082 E.01764
G1 X90.469 Y97.87 E.00838
G1 X90.007 Y97.427 E.02007
G1 X89.528 Y97.155 E.01727
G1 X89.272 Y97.064 E.00852
G1 X88.719 Y96.955 E.01767
G1 X88.453 Y96.94 E.00835
G1 X87.832 Y97.034 E.01969
G1 X87.308 Y97.24 E.01765
G1 X87.077 Y97.372 E.00834
G1 X86.64 Y97.74 E.01791
G1 X86.267 Y98.256 E.01996
G1 X86.064 Y98.737 E.01637
G1 X86.064 Y86.064 E.39735
G1 X143.936 Y86.064 E1.81453
G1 X143.936 Y91.863 E.18182
G1 X143.936 Y98.766 E.21644
G1 X143.809 Y98.394 E.01232
G1 X143.469 Y97.87 E.01959
G1 X143.072 Y97.485 E.01734
G1 X142.855 Y97.327 E.00842
G1 X142.272 Y97.064 E.02005
G1 X141.719 Y96.955 E.01767
G1 X141.096 Y96.971 E.01954
G1 X140.832 Y97.034 E.00851
G1 X140.302 Y97.243 E.01786
G1 X139.793 Y97.591 E.01933
G1 X139.406 Y98.026 E.01826
G1 X139.267 Y98.256 E.00843
G1 X139.02 Y98.873 E.02084
G1 X139.409 Y98.938 F9000
G1 F1200
G1 X139.615 Y98.403 E.01798
G1 X139.932 Y97.979 E.0166
G1 X140.371 Y97.627 E.01764
G1 X140.97 Y97.384 E.02027
G1 X141.486 Y97.316 E.01632
G1 X142.198 Y97.434 E.02263
G1 X142.679 Y97.661 E.01668
G1 X143.206 Y98.141 E.02235
G1 X143.481 Y98.58 E.01624
;WIDTH:0.46586
G1 X143.566 Y98.807 E.00852
;WIDTH:0.511721
G1 X143.651 Y99.034 E.00945
;WIDTH:0.557582
G1 X143.736 Y99.261 E.01037
G1 X143.731 Y99.812 E.02358
;WIDTH:0.556812
G1 X143.636 Y100.037 E.01044
;WIDTH:0.511208
G1 X143.54 Y100.262 E.00953
;WIDTH:0.465604
G1 X143.445 Y100.487 E.00858
;WIDTH:0.419999
G1 X143.152 Y100.929 E.01663
G1 X142.786 Y101.266 E.0156
G1 X142.147 Y101.583 E.02237
G1 X141.627 Y101.681 E.01659
G1 X141.003 Y101.627 E.01964
G1 X140.534 Y101.46 E.01561
G1 X140.094 Y101.167 E.01657
G1 X139.719 Y100.759 E.01738
G1 X139.465 Y100.295 E.01659
G1 X139.321 Y99.597 E.02235
G1 X139.358 Y99.069 E.0166
G1 X139.387 Y98.994 E.00252
G1 X139.747 Y99.06 F9000
;TYPE:External perimeter
G1 F1200
G1 X139.962 Y98.55 E.01735
G1 X140.254 Y98.188 E.01458
G1 X140.585 Y97.942 E.01293
G1 X141.109 Y97.735 E.01767
G1 X141.519 Y97.691 E.01293
G1 X142.125 Y97.804 E.01933
G1 X142.546 Y98.026 E.01492
G1 X142.943 Y98.411 E.01734
G1 X143.173 Y98.816 E.0146
G1 X143.303 Y99.364 E.01766
G1 X143.276 Y99.839 E.01492
G1 X143.09 Y100.361 E.01737
G1 X142.818 Y100.739 E.0146
G1 X142.494 Y101.01 E.01324
G1 X141.991 Y101.24 E.01734
G1 X141.53 Y101.309 E.01462
G1 X141.12 Y101.269 E.01292
G1 X140.729 Y101.137 E.01294
G1 X140.371 Y100.912 E.01326
G1 X139.997 Y100.504 E.01735
G1 X139.787 Y100.078 E.01489
G1 X139.692 Y99.532 E.01738
G1 X139.74 Y99.119 E.01304
G1 X139.461 Y98.779 F9000
G1 E-3.5 F3600
;WIPE_START
G1 F7200
G1 X139.962 Y98.55 E-.29012
G1 X140.254 Y98.188 E-.22092
G1 X140.585 Y97.942 E-.19589
G1 X141.109 Y97.735 E-.26762
G1 X141.519 Y97.691 E-.19587
G1 X142.125 Y97.804 E-.29281
G1 X142.193 Y97.84 E-.03677
;WIPE_END
G1 X143.467 Y138.258 F9000
G1 E5 F2400
;TYPE:Perimeter
;WIDTH:0.597542
G1 F1200
G1 X143.563 Y138.153 E.00656
G1 X143.847 Y137.711 E.02423
G1 X143.847 Y138.847 E.05239
G1 X142.717 Y138.847 E.05211
G1 X142.887 Y138.751 E.009
G1 X143.325 Y138.413 E.02551
G1 X143.427 Y138.302 E.00695
G1 X143.128 Y137.949 F9000
;WIDTH:0.419999
G1 F1200
G1 X143.041 Y138.044 E.00404
G1 X142.602 Y138.382 E.01737
;WIDTH:0.462567
G1 X142.368 Y138.509 E.00929
;WIDTH:0.505135
G1 X142.133 Y138.635 E.01025
;WIDTH:0.540316
G1 X142.068 Y138.67 E.00305
;WIDTH:0.575497
G1 X142.004 Y138.705 E.00323
G1 X141.492 Y138.748 E.02275
;WIDTH:0.562024
G1 X141.123 Y138.724 E.01596
G1 X140.966 Y138.654 E.00742
;WIDTH:0.514683
G1 X140.809 Y138.583 E.00676
;WIDTH:0.467341
G1 X140.652 Y138.513 E.00607
;WIDTH:0.419999
G1 X140.051 Y138.13 E.02235
G1 X139.698 Y137.735 E.01661
G1 X139.465 Y137.295 E.01561
G1 X139.321 Y136.597 E.02235
G1 X139.415 Y135.859 E.02333
G1 X139.465 Y135.705 E.00508
G1 X139.698 Y135.265 E.01561
G1 X140.051 Y134.87 E.01661
G1 X140.508 Y134.558 E.01735
G1 X140.686 Y134.477 E.00613
G1 X141.231 Y134.336 E.01765
G1 X141.748 Y134.329 E.01621
G1 X142.232 Y134.442 E.01558
G1 X142.854 Y134.79 E.02235
G1 X143.229 Y135.164 E.01661
G1 X143.486 Y135.59 E.0156
;WIDTH:0.465721
G1 X143.57 Y135.815 E.00844
;WIDTH:0.511443
G1 X143.653 Y136.039 E.00931
;WIDTH:0.557165
G1 X143.737 Y136.264 E.01027
G1 X143.731 Y136.813 E.02348
;WIDTH:0.556832
G1 X143.666 Y136.972 E.00734
;WIDTH:0.511221
G1 X143.601 Y137.131 E.00669
;WIDTH:0.46561
G1 X143.537 Y137.29 E.00602
;WIDTH:0.419999
G1 X143.169 Y137.904 E.02244
G1 X142.854 Y137.698 F9000
;TYPE:External perimeter
G1 F1200
G1 X142.372 Y138.084 E.01936
G1 X141.939 Y138.255 E.0146
G1 X141.53 Y138.309 E.01294
G1 X141.12 Y138.269 E.01292
G1 X140.72 Y138.131 E.01327
G1 X140.263 Y137.819 E.01735
G1 X139.966 Y137.46 E.01461
G1 X139.787 Y137.078 E.01323
G1 X139.693 Y136.533 E.01734
G1 X139.787 Y135.923 E.01935
G1 X139.99 Y135.504 E.0146
G1 X140.263 Y135.181 E.01326
G1 X140.721 Y134.869 E.01738
G1 X141.325 Y134.701 E.01966
G1 X141.779 Y134.712 E.01424
G1 X142.185 Y134.827 E.01323
G1 X142.659 Y135.113 E.01736
G1 X142.976 Y135.454 E.0146
G1 X143.177 Y135.825 E.01323
G1 X143.303 Y136.365 E.01739
G1 X143.279 Y136.83 E.0146
G1 X143.153 Y137.233 E.01324
G1 X142.886 Y137.647 E.01545
G1 X142.971 Y138.08 F9000
G1 E-3.5 F3600
;WIPE_START
G1 F7200
G1 X142.372 Y138.084 E-.32046
G1 X141.939 Y138.255 E-.22113
G1 X141.53 Y138.309 E-.19596
G1 X141.12 Y138.269 E-.19567
G1 X140.72 Y138.131 E-.20099
G1 X140.263 Y137.819 E-.26284
G1 X140.125 Y137.652 E-.10295
;WIPE_END
G1 X86.152 Y137.713 F9000
G1 E5 F2400
;TYPE:Perimeter
;WIDTH:0.596261
G1 F1200
G1 X86.211 Y137.832 E.00611
G1 X86.572 Y138.316 E.02778
G1 X86.788 Y138.514 E.01348
G1 X87.288 Y138.848 E.02767
G1 X86.152 Y138.848 E.05227
G1 X86.152 Y137.773 E.04946
G1 X86.266 Y136.503 F9000
;WIDTH:0.598196
G1 F1200
G1 X86.327 Y135.844 E.03056
G1 X86.361 Y135.809 E.00225
;WIDTH:0.554676
G1 X86.395 Y135.774 E.00208
;WIDTH:0.511155
G1 X86.429 Y135.739 E.0019
;WIDTH:0.467635
G1 X86.463 Y135.705 E.0017
;WIDTH:0.424114
G1 X86.698 Y135.265 E.01581
;WIDTH:0.419999
G1 X87.051 Y134.87 E.01661
G1 X87.508 Y134.558 E.01735
G1 X87.686 Y134.477 E.00613
G1 X88.231 Y134.336 E.01765
G1 X88.748 Y134.329 E.01621
G1 X89.316 Y134.471 E.01836
G1 X89.854 Y134.79 E.01961
G1 X90.229 Y135.164 E.01661
G1 X90.517 Y135.655 E.01785
G1 X90.67 Y136.279 E.02014
G1 X90.663 Y136.809 E.01662
G1 X90.537 Y137.29 E.01559
G1 X90.171 Y137.902 E.02236
G1 X89.602 Y138.382 E.02334
;WIDTH:0.462567
G1 X89.368 Y138.509 E.00929
;WIDTH:0.505135
G1 X89.133 Y138.635 E.01025
;WIDTH:0.540316
G1 X89.068 Y138.67 E.00305
;WIDTH:0.575497
G1 X89.004 Y138.705 E.00323
G1 X88.492 Y138.748 E.02275
;WIDTH:0.562024
G1 X88.123 Y138.724 E.01596
G1 X87.966 Y138.654 E.00742
;WIDTH:0.514683
G1 X87.809 Y138.583 E.00676
;WIDTH:0.467341
G1 X87.652 Y138.513 E.00607
;WIDTH:0.419999
G1 X87.051 Y138.13 E.02235
G1 X86.698 Y137.735 E.01661
;WIDTH:0.46463
G1 X86.605 Y137.591 E.00601
;WIDTH:0.509261
G1 X86.513 Y137.447 E.00663
;WIDTH:0.553892
G1 X86.42 Y137.303 E.00728
;WIDTH:0.598523
G1 X86.328 Y137.159 E.00789
G1 X86.257 Y136.608 E.02567
;WIDTH:0.598196
G1 X86.261 Y136.563 E.00209
G1 X86.693 Y136.533 F9000
;TYPE:External perimeter
;WIDTH:0.419999
G1 F1200
G1 X86.787 Y135.923 E.01935
G1 X86.99 Y135.504 E.0146
G1 X87.263 Y135.181 E.01326
G1 X87.721 Y134.869 E.01738
G1 X88.325 Y134.701 E.01966
G1 X88.779 Y134.712 E.01424
G1 X89.185 Y134.827 E.01323
G1 X89.659 Y135.113 E.01736
G1 X89.976 Y135.454 E.0146
G1 X90.177 Y135.825 E.01323
G1 X90.303 Y136.365 E.01739
G1 X90.279 Y136.83 E.0146
G1 X90.153 Y137.233 E.01324
G1 X89.854 Y137.698 E.01733
G1 X89.372 Y138.084 E.01936
G1 X88.939 Y138.255 E.0146
G1 X88.53 Y138.309 E.01294
G1 X88.12 Y138.269 E.01292
G1 X87.72 Y138.131 E.01327
G1 X87.263 Y137.819 E.01735
G1 X86.966 Y137.46 E.01461
G1 X86.787 Y137.078 E.01323
G1 X86.703 Y136.592 E.01546
G1 X86.347 Y136.331 F9000
G1 E-3.5 F3600
;WIPE_START
G1 F7200
G1 X86.787 Y135.923 E-.32027
G1 X86.99 Y135.504 E-.22115
G1 X87.263 Y135.181 E-.20089
G1 X87.721 Y134.869 E-.26323
G1 X88.325 Y134.701 E-.29779
G1 X88.739 Y134.711 E-.19667
;WIPE_END
G1 X89.782 Y97.755 F9000
G1 E5 F2400
;TYPE:Perimeter
G1 F1200
G1 X90.206 Y98.141 E.01798
G1 X90.481 Y98.58 E.01624
G1 X90.669 Y99.277 E.02263
G1 X90.663 Y99.808 E.01665
G1 X90.445 Y100.487 E.02236
G1 X90.152 Y100.929 E.01663
G1 X89.751 Y101.294 E.017
G1 X89.147 Y101.583 E.02099
G1 X88.627 Y101.681 E.01659
G1 X88.003 Y101.627 E.01964
G1 X87.534 Y101.46 E.01561
G1 X87.094 Y101.167 E.01657
G1 X86.719 Y100.759 E.01738
;WIDTH:0.424164
G1 X86.463 Y100.296 E.01677
;WIDTH:0.467713
G1 X86.429 Y100.261 E.00172
;WIDTH:0.511262
G1 X86.395 Y100.227 E.00187
;WIDTH:0.554811
G1 X86.362 Y100.192 E.00205
;WIDTH:0.598359
G1 X86.328 Y100.157 E.00225
G1 X86.257 Y99.608 E.02557
;WIDTH:0.56821
G1 X86.285 Y99.06 E.02397
G1 X86.395 Y98.841 E.0107
;WIDTH:0.518807
G1 X86.505 Y98.622 E.0097
;WIDTH:0.469403
G1 X86.615 Y98.403 E.00869
;WIDTH:0.419999
G1 X86.932 Y97.979 E.0166
G1 X87.308 Y97.67 E.01526
G1 X87.97 Y97.384 E.02261
G1 X88.486 Y97.316 E.01632
G1 X89.198 Y97.434 E.02263
G1 X89.679 Y97.661 E.01668
G1 X89.738 Y97.714 E.00249
G1 X89.546 Y98.026 F9000
;TYPE:External perimeter
G1 F1200
G1 X89.943 Y98.411 E.01734
G1 X90.173 Y98.816 E.0146
G1 X90.303 Y99.364 E.01766
G1 X90.276 Y99.839 E.01492
G1 X90.09 Y100.361 E.01737
G1 X89.818 Y100.739 E.0146
G1 X89.494 Y101.01 E.01324
G1 X88.991 Y101.24 E.01734
G1 X88.53 Y101.309 E.01462
G1 X88.12 Y101.269 E.01292
G1 X87.729 Y101.137 E.01294
G1 X87.371 Y100.912 E.01326
G1 X86.997 Y100.504 E.01735
G1 X86.787 Y100.078 E.01489
G1 X86.692 Y99.532 E.01738
G1 X86.747 Y99.06 E.0149
G1 X86.962 Y98.55 E.01735
G1 X87.254 Y98.188 E.01458
G1 X87.585 Y97.942 E.01293
G1 X88.109 Y97.735 E.01767
G1 X88.572 Y97.694 E.01457
G1 X89.125 Y97.804 E.01768
G1 X89.493 Y97.998 E.01304
G1 X89.911 Y97.861 F9000
G1 E-3.5 F3600
;WIPE_START
G1 F7200
G1 X89.943 Y98.411 E-.29013
G1 X90.173 Y98.816 E-.22123
G1 X90.303 Y99.364 E-.26752
G1 X90.276 Y99.839 E-.22599
G1 X90.09 Y100.361 E-.26322
G1 X89.818 Y100.739 E-.2212
G1 X89.801 Y100.753 E-.01071
;WIPE_END
G1 X144.266 Y99.243 F9000
G1 E5 F2400
;TYPE:Perimeter
;WIDTH:0.546269
G1 F1200
G1 X144.25 Y99.458 E.00902
G1 X144.269 Y100.084 E.02621
;WIDTH:0.50779
G1 X144.291 Y100.361 E.01074
;WIDTH:0.463895
G1 X144.313 Y100.637 E.00969
;WIDTH:0.419999
G1 X144.313 Y135.652 E1.09787
;WIDTH:0.465721
G1 X144.29 Y135.836 E.00652
;WIDTH:0.511443
G1 X144.267 Y136.021 E.00726
;WIDTH:0.557165
G1 X144.244 Y136.205 E.00793
G1 X144.245 Y136.827 E.0266
;WIDTH:0.556832
G1 X144.267 Y137.019 E.00826
;WIDTH:0.511221
G1 X144.29 Y137.21 E.00749
;WIDTH:0.46561
G1 X144.313 Y137.402 E.0068
;WIDTH:0.419999
G1 X144.313 Y139.313 E.05992
G1 X142.622 Y139.313 E.05302
;WIDTH:0.459431
G1 X142.484 Y139.293 E.00483
;WIDTH:0.498862
G1 X142.346 Y139.273 E.00529
;WIDTH:0.538294
G1 X142.208 Y139.254 E.00574
;WIDTH:0.577725
G1 X142.07 Y139.234 E.0062
G1 X141.672 Y139.248 E.01771
;WIDTH:0.562024
G1 X141.101 Y139.242 E.02465
G1 X140.909 Y139.266 E.00835
;WIDTH:0.514683
G1 X140.717 Y139.289 E.00759
;WIDTH:0.467341
G1 X140.525 Y139.313 E.00683
;WIDTH:0.419999
G1 X89.622 Y139.313 E1.59603
;WIDTH:0.459431
G1 X89.484 Y139.293 E.00483
;WIDTH:0.498862
G1 X89.346 Y139.273 E.00529
;WIDTH:0.538294
G1 X89.208 Y139.254 E.00574
;WIDTH:0.577725
G1 X89.07 Y139.234 E.0062
G1 X88.672 Y139.248 E.01771
;WIDTH:0.562024
G1 X88.101 Y139.242 E.02465
G1 X87.909 Y139.266 E.00835
;WIDTH:0.514683
G1 X87.717 Y139.289 E.00759
;WIDTH:0.467341
G1 X87.525 Y139.313 E.00683
;WIDTH:0.419999
G1 X85.687 Y139.313 E.05763
G1 X85.687 Y137.845 E.04603
;WIDTH:0.46459
G1 X85.709 Y137.685 E.00566
;WIDTH:0.509181
G1 X85.732 Y137.525 E.00627
;WIDTH:0.553772
G1 X85.754 Y137.365 E.00686
;WIDTH:0.598363
G1 X85.776 Y137.205 E.00746
G1 X85.752 Y136.35 E.0395
;WIDTH:0.598196
G1 X85.776 Y135.796 E.0256
G1 X85.754 Y135.728 E.0033
;WIDTH:0.554676
G1 X85.733 Y135.66 E.00303
;WIDTH:0.511155
G1 X85.711 Y135.592 E.00278
;WIDTH:0.467635
G1 X85.689 Y135.525 E.00249
;WIDTH:0.424114
G1 X85.687 Y135.155 E.01173
;WIDTH:0.419999
G1 X85.687 Y101.161 E1.06586
;WIDTH:0.424164
G1 X85.689 Y100.476 E.02171
;WIDTH:0.467754
G1 X85.711 Y100.409 E.00249
;WIDTH:0.511344
G1 X85.733 Y100.341 E.00278
;WIDTH:0.554934
G1 X85.755 Y100.274 E.003
;WIDTH:0.598523
G1 X85.776 Y100.207 E.00324
G1 X85.752 Y99.651 E.02571
;WIDTH:0.56821
G1 X85.761 Y99.03 E.02713
G1 X85.737 Y98.9 E.00577
;WIDTH:0.519379
G1 X85.712 Y98.769 E.00528
;WIDTH:0.470547
G1 X85.7 Y98.492 E.00986
;WIDTH:0.445273
G1 X85.687 Y98.215 E.00928
;WIDTH:0.419999
G1 X85.687 Y85.687 E.39281
G1 X144.313 Y85.687 E1.83817
G1 X144.313 Y91.863 E.19364
G1 X144.313 Y98.638 E.21243
;WIDTH:0.462089
G1 X144.292 Y98.911 E.00954
