; generated by PrusaSlicer 2.6.0+win64 on 2023-09-06 at 20:13:21 UTC

; 

; external perimeters extrusion width = 0.42mm
; perimeters extrusion width = 0.44mm
; infill extrusion width = 0.44mm
; solid infill extrusion width = 0.44mm
; top infill extrusion width = 0.40mm
; first layer extrusion width = 0.42mm

;TYPE:Custom
M109 S0
M190 S0
start_print EXTRUDER_TEMP=215 BED_TEMP=60
G21 ; set units to millimeters
G90 ; use absolute coordinates
M83 ; use relative distances for extrusion
; Filament gcode
M107
;LAYER_CHANGE
;Z:0.2
;HEIGHT:0.2
;BEFORE_LAYER_CHANGE
G92 E0
;0.2


G1 E-5 F3600
G1 Z.2 F9000
;AFTER_LAYER_CHANGE
;0.2
G1 X83.107 Y84.703
G1 E5 F2400
M204 S500
;TYPE:Skirt/Brim
;WIDTH:0.42
G1 F1800
G1 X85 Y84.123 E.06208
G1 X145 Y84.123 E1.88126
G1 X146.583 Y84.517 E.05115
G1 X147.797 Y85.607 E.05116
G1 X148.377 Y87.5 E.06208
G1 X148.377 Y137.5 E1.56771
G1 X147.983 Y139.083 E.05115
G1 X146.893 Y140.297 E.05116
G1 X145 Y140.877 E.06208
G1 X85 Y140.877 E1.88126
G1 X83.417 Y140.483 E.05115
G1 X82.203 Y139.393 E.05116
G1 X81.623 Y137.5 E.06208
G1 X81.623 Y87.5 E1.56771
G1 X82.017 Y85.917 E.05115
G1 X83.067 Y84.748 E.04927
G1 E-3.5 F3600
;WIPE_START
G1 F7200
G1 X85 Y84.123 E-.96498
G1 X86.126 Y84.123 E-.53502
;WIPE_END
G1 X140.88 Y99.476 F9000
G1 E5 F2400
;TYPE:Perimeter
;WIDTH:0.419999
G1 F1800
G1 X141.366 Y99.555 E.01544
G1 X142.091 Y99.489 E.02283
G1 X142.768 Y99.222 E.02282
G1 X143.343 Y98.774 E.02285
G1 X143.768 Y98.183 E.02282
G1 X143.936 Y97.748 E.01462
G1 X143.936 Y133.252 E1.1132
G1 X143.768 Y132.817 E.01462
G1 X143.343 Y132.226 E.02282
G1 X142.768 Y131.778 E.02285
G1 X142.086 Y131.51 E.02298
G1 X141.616 Y131.445 E.01488
G1 X140.907 Y131.511 E.02233
G1 X140.651 Y131.586 E.00836
G1 X140.064 Y131.877 E.02054
G1 X139.657 Y132.226 E.01681
G1 X139.481 Y132.428 E.0084
G1 X139.155 Y132.963 E.01964
G1 X138.99 Y133.504 E.01773
G1 X138.952 Y133.775 E.00858
G1 X138.993 Y134.51 E.02308
G1 X139.235 Y135.188 E.02257
G1 X139.667 Y135.785 E.02311
G1 X140.232 Y136.222 E.0224
G1 X140.727 Y136.436 E.01691
G1 X89.274 Y136.436 E1.61327
G1 X89.77 Y136.221 E.01695
G1 X90.343 Y135.774 E.02279
G1 X90.768 Y135.183 E.02282
G1 X91.01 Y134.496 E.02284
G1 X91.048 Y133.769 E.02283
G1 X91.01 Y133.504 E.00839
G1 X90.807 Y132.883 E.02048
G1 X90.519 Y132.428 E.01688
G1 X90.343 Y132.226 E.0084
G1 X89.862 Y131.828 E.01957
G1 X89.349 Y131.586 E.01778
G1 X89.086 Y131.51 E.00858
G1 X88.351 Y131.446 E.02313
G1 X87.651 Y131.586 E.02238
G1 X87.006 Y131.923 E.02282
G1 X86.478 Y132.433 E.02302
G1 X86.224 Y132.833 E.01486
G1 X86.064 Y133.25 E.014
G1 X86.064 Y97.743 E1.1133
G1 X86.239 Y98.196 E.01523
G1 X86.657 Y98.774 E.02237
G1 X87.232 Y99.222 E.02285
G1 X87.909 Y99.489 E.02282
G1 X88.639 Y99.554 E.02298
G1 X89.108 Y99.484 E.01487
G1 X89.362 Y99.408 E.00831
G1 X89.936 Y99.123 E.02009
G1 X90.343 Y98.774 E.01681
G1 X90.519 Y98.572 E.0084
G1 X90.863 Y97.99 E.0212
G1 X91.01 Y97.496 E.01616
G1 X91.048 Y97.231 E.00839
G1 X91.032 Y96.598 E.01985
G1 X90.88 Y96.061 E.0175
G1 X90.768 Y95.817 E.00842
G1 X90.441 Y95.324 E.01855
G1 X89.994 Y94.923 E.01883
G1 X89.768 Y94.778 E.00842
G1 X89.086 Y94.51 E.02298
G1 X88.616 Y94.445 E.01488
G1 X87.907 Y94.511 E.02233
G1 X87.232 Y94.778 E.02276
G1 X86.657 Y95.226 E.02285
G1 X86.232 Y95.817 E.02282
G1 X86.064 Y96.252 E.01462
G1 X86.064 Y88.564 E.24105
G1 X143.936 Y88.564 E1.81453
G1 X143.936 Y96.252 E.24105
G1 X143.768 Y95.817 E.01462
G1 X143.343 Y95.226 E.02282
G1 X142.768 Y94.778 E.02285
G1 X142.086 Y94.51 E.02298
G1 X141.351 Y94.446 E.02313
G1 X140.651 Y94.586 E.02238
G1 X140.111 Y94.844 E.01876
G1 X139.657 Y95.226 E.0186
G1 X139.481 Y95.428 E.0084
G1 X139.165 Y95.94 E.01886
G1 X138.99 Y96.504 E.01852
G1 X138.952 Y96.769 E.00839
G1 X138.975 Y97.439 E.02102
G1 X139.12 Y97.939 E.01632
G1 X139.232 Y98.183 E.00842
G1 X139.615 Y98.736 E.02109
G1 X140.006 Y99.077 E.01627
G1 X140.232 Y99.222 E.00842
G1 X140.765 Y99.457 E.01826
G1 X140.821 Y99.466 E.00178
G1 X140.95 Y99.108 F9000
G1 F1800
G1 X140.876 Y99.097 E.00235
G1 X140.388 Y98.879 E.01676
G1 X139.904 Y98.49 E.01947
G1 X139.549 Y97.98 E.01948
G1 X139.352 Y97.39 E.0195
G1 X139.329 Y96.769 E.01948
G1 X139.482 Y96.167 E.01948
G1 X139.798 Y95.632 E.01948
G1 X140.253 Y95.208 E.0195
G1 X140.808 Y94.929 E.01948
G1 X141.406 Y94.819 E.01906
G1 X142.034 Y94.884 E.0198
G1 X142.612 Y95.121 E.01959
G1 X143.096 Y95.511 E.01949
G1 X143.451 Y96.02 E.01946
;WIDTH:0.457702
G1 X143.518 Y96.163 E.00545
;WIDTH:0.495404
G1 X143.586 Y96.305 E.00592
;WIDTH:0.533106
G1 X143.653 Y96.447 E.0064
;WIDTH:0.570808
G1 X143.72 Y96.589 E.00689
G1 X143.737 Y97.231 E.02819
;WIDTH:0.552481
G1 X143.698 Y97.405 E.00756
;WIDTH:0.523958
G1 X143.616 Y97.596 E.00831
;WIDTH:0.489305
G1 X143.533 Y97.788 E.00776
;WIDTH:0.454652
G1 X143.451 Y97.98 E.00715
;WIDTH:0.419999
G1 X143.096 Y98.49 E.01948
G1 X142.612 Y98.879 E.01947
G1 X142.037 Y99.116 E.0195
G1 X141.42 Y99.182 E.01946
G1 X141.01 Y99.117 E.01302
G1 X141.016 Y98.743 F9000
;TYPE:External perimeter
G1 F1800
G1 X140.545 Y98.536 E.01613
G1 X140.151 Y98.205 E.01613
G1 X139.866 Y97.776 E.01615
G1 X139.714 Y97.284 E.01615
G1 X139.706 Y96.769 E.01615
G1 X139.844 Y96.273 E.01614
G1 X140.116 Y95.836 E.01614
G1 X140.5 Y95.493 E.01614
G1 X140.965 Y95.272 E.01614
G1 X141.46 Y95.193 E.01572
G1 X141.983 Y95.257 E.01652
G1 X142.455 Y95.464 E.01616
G1 X142.849 Y95.795 E.01613
G1 X143.134 Y96.224 E.01615
G1 X143.286 Y96.716 E.01615
G1 X143.294 Y97.231 E.01615
G1 X143.156 Y97.727 E.01614
G1 X142.884 Y98.164 E.01614
G1 X142.5 Y98.507 E.01614
G1 X142.035 Y98.728 E.01614
G1 X141.527 Y98.808 E.01612
G1 X141.076 Y98.75 E.01426
G1 X140.731 Y99.023 F9000
G1 E-3.5 F3600
;WIPE_START
G1 F7200
G1 X140.545 Y98.536 E-.27194
G1 X140.151 Y98.205 E-.24443
G1 X139.866 Y97.776 E-.24464
G1 X139.714 Y97.284 E-.2446
G1 X139.706 Y96.769 E-.24465
G1 X139.844 Y96.273 E-.24455
G1 X139.85 Y96.264 E-.00519
;WIPE_END
G1 X143.845 Y135.233 F9000
G1 E5 F2400
;TYPE:Perimeter
;WIDTH:0.599857
G1 F1800
G1 X143.846 Y136.346 E.05154
G1 X142.713 Y136.346 E.05247
G1 X143.053 Y136.145 E.01829
G1 X143.385 Y135.857 E.02035
G1 X143.594 Y135.62 E.01463
G1 X143.812 Y135.283 E.01859
G1 X142.721 Y135.791 F9000
;WIDTH:0.419999
G1 F1800
G1 X142.612 Y135.879 E.00439
;WIDTH:0.460994
G1 X142.476 Y135.958 E.00547
;WIDTH:0.501988
G1 X142.34 Y136.036 E.00598
;WIDTH:0.542983
G1 X142.205 Y136.115 E.0065
;WIDTH:0.583977
G1 X142.069 Y136.194 E.00708
G1 X141.5 Y136.25 E.02572
;WIDTH:0.581734
G1 X140.951 Y136.196 E.02472
G1 X140.915 Y136.165 E.00213
;WIDTH:0.541301
G1 X140.88 Y136.133 E.00197
;WIDTH:0.500867
G1 X140.844 Y136.102 E.00181
;WIDTH:0.460433
G1 X140.808 Y136.071 E.00165
;WIDTH:0.419999
G1 X140.254 Y135.793 E.01943
G1 X139.809 Y135.379 E.01906
G1 X139.482 Y134.834 E.01993
G1 X139.332 Y134.246 E.01903
G1 X139.336 Y133.683 E.01765
G1 X139.482 Y133.167 E.01681
G1 X139.799 Y132.632 E.0195
G1 X140.253 Y132.208 E.01948
G1 X140.808 Y131.929 E.01948
G1 X141.406 Y131.819 E.01906
G1 X142.034 Y131.884 E.0198
G1 X142.612 Y132.121 E.01959
G1 X143.096 Y132.51 E.01947
G1 X143.451 Y133.02 E.01948
;WIDTH:0.457702
G1 X143.518 Y133.163 E.00545
;WIDTH:0.495404
G1 X143.586 Y133.305 E.00592
;WIDTH:0.533106
G1 X143.653 Y133.447 E.0064
;WIDTH:0.570808
G1 X143.72 Y133.589 E.00689
G1 X143.737 Y134.231 E.02819
;WIDTH:0.552481
G1 X143.698 Y134.405 E.00756
;WIDTH:0.523958
G1 X143.616 Y134.596 E.00831
;WIDTH:0.489305
G1 X143.533 Y134.788 E.00776
;WIDTH:0.454652
G1 X143.451 Y134.98 E.00715
;WIDTH:0.419999
G1 X143.096 Y135.49 E.01948
G1 X142.767 Y135.754 E.01323
G1 X142.5 Y135.507 F9000
;TYPE:External perimeter
G1 F1800
G1 X142.035 Y135.728 E.01614
G1 X141.527 Y135.808 E.01612
G1 X141.016 Y135.743 E.01615
G1 X140.545 Y135.536 E.01613
G1 X140.16 Y135.214 E.01574
G1 X139.867 Y134.777 E.0165
G1 X139.717 Y134.297 E.01577
G1 X139.708 Y133.741 E.01744
G1 X139.851 Y133.254 E.01591
G1 X140.125 Y132.823 E.01601
G1 X140.511 Y132.484 E.01611
G1 X140.965 Y132.272 E.01571
G1 X141.46 Y132.193 E.01572
G1 X141.983 Y132.257 E.01652
G1 X142.455 Y132.464 E.01616
G1 X142.849 Y132.795 E.01613
G1 X143.134 Y133.224 E.01615
G1 X143.286 Y133.716 E.01615
G1 X143.294 Y134.231 E.01615
G1 X143.156 Y134.727 E.01614
G1 X142.884 Y135.164 E.01614
G1 X142.545 Y135.467 E.01426
G1 X142.525 Y135.906 F9000
G1 E-3.5 F3600
;WIPE_START
G1 F7200
G1 X142.035 Y135.728 E-.27213
G1 X141.527 Y135.808 E-.24427
G1 X141.016 Y135.743 E-.24468
G1 X140.545 Y135.536 E-.24438
G1 X140.16 Y135.214 E-.23841
G1 X139.867 Y134.777 E-.24991
G1 X139.863 Y134.765 E-.00622
;WIPE_END
G1 X87.287 Y136.346 F9000
G1 E5 F2400
;TYPE:Perimeter
;WIDTH:0.599856
G1 F1800
G1 X86.154 Y136.346 E.05247
G1 X86.159 Y135.247 E.05089
G1 X86.598 Y135.842 E.03424
G1 X86.947 Y136.145 E.0214
G1 X87.235 Y136.315 E.01549
G1 X88.534 Y136.246 F9000
;WIDTH:0.584318
G1 F1800
G1 X88.5 Y136.25 E.00154
;WIDTH:0.581735
G1 X87.951 Y136.196 E.02472
G1 X87.81 Y136.117 E.00724
;WIDTH:0.541301
G1 X87.67 Y136.037 E.00668
;WIDTH:0.500867
G1 X87.529 Y135.958 E.00615
;WIDTH:0.460433
G1 X87.388 Y135.879 E.00561
;WIDTH:0.419999
G1 X86.921 Y135.504 E.01878
G1 X86.556 Y134.991 E.01974
;WIDTH:0.454053
G1 X86.472 Y134.797 E.00723
;WIDTH:0.488107
G1 X86.388 Y134.602 E.00786
;WIDTH:0.522161
G1 X86.304 Y134.408 E.00842
;WIDTH:0.552478
G1 X86.263 Y134.231 E.0077
;WIDTH:0.570548
G1 X86.279 Y133.59 E.02813
G1 X86.345 Y133.451 E.00675
;WIDTH:0.532911
G1 X86.411 Y133.312 E.00627
;WIDTH:0.495274
G1 X86.477 Y133.174 E.00575
;WIDTH:0.457637
G1 X86.543 Y133.035 E.00531
;WIDTH:0.419999
G1 X86.904 Y132.511 E.01995
G1 X87.388 Y132.121 E.01949
G1 X87.961 Y131.884 E.01944
G1 X88.565 Y131.819 E.01905
G1 X89.122 Y131.903 E.01766
G1 X89.612 Y132.121 E.01682
G1 X89.747 Y132.208 E.00504
G1 X90.147 Y132.561 E.01673
G1 X90.451 Y133.02 E.01726
G1 X90.648 Y133.61 E.0195
G1 X90.671 Y134.231 E.01948
G1 X90.518 Y134.833 E.01948
G1 X90.201 Y135.368 E.0195
G1 X89.747 Y135.792 E.01948
G1 X89.205 Y136.066 E.01904
;WIDTH:0.461079
G1 X89.17 Y136.097 E.00163
;WIDTH:0.502159
G1 X89.135 Y136.129 E.00181
;WIDTH:0.543239
G1 X89.1 Y136.161 E.00197
;WIDTH:0.584318
G1 X89.064 Y136.192 E.00214
G1 X88.594 Y136.24 E.02127
G1 X88.5 Y135.81 F9000
;TYPE:External perimeter
;WIDTH:0.419999
G1 F1800
G1 X87.965 Y135.728 E.01697
G1 X87.5 Y135.507 E.01614
G1 X87.116 Y135.164 E.01614
G1 X86.85 Y134.739 E.01572
G1 X86.706 Y134.231 E.01656
G1 X86.714 Y133.716 E.01615
G1 X86.861 Y133.237 E.01571
G1 X87.151 Y132.795 E.01658
G1 X87.545 Y132.464 E.01613
G1 X88.016 Y132.257 E.01613
G1 X88.513 Y132.192 E.01572
G1 X89.012 Y132.264 E.01581
G1 X89.5 Y132.493 E.0169
G1 X89.884 Y132.836 E.01614
G1 X90.156 Y133.273 E.01614
G1 X90.294 Y133.769 E.01614
G1 X90.286 Y134.284 E.01615
G1 X90.134 Y134.776 E.01615
G1 X89.849 Y135.205 E.01615
G1 X89.455 Y135.536 E.01613
G1 X88.997 Y135.738 E.01569
G1 X88.559 Y135.802 E.01388
G1 X88.297 Y136.155 F9000
G1 E-3.5 F3600
;WIPE_START
G1 F7200
G1 X87.965 Y135.728 E-.28433
G1 X87.5 Y135.507 E-.24455
G1 X87.116 Y135.164 E-.24457
G1 X86.85 Y134.739 E-.23816
G1 X86.706 Y134.231 E-.25081
G1 X86.714 Y133.731 E-.23758
;WIPE_END
G1 X86.504 Y96.115 F9000
G1 E5 F2400
;TYPE:Perimeter
;WIDTH:0.457702
G1 F1800
G1 X86.549 Y96.02 E.00363
;WIDTH:0.419999
G1 X86.904 Y95.51 E.01948
G1 X87.388 Y95.121 E.01947
G1 X87.961 Y94.884 E.01944
G1 X88.565 Y94.819 E.01905
G1 X89.192 Y94.929 E.01996
G1 X89.684 Y95.161 E.01706
G1 X90.096 Y95.511 E.01695
G1 X90.451 Y96.02 E.01946
G1 X90.648 Y96.61 E.0195
G1 X90.671 Y97.231 E.01948
G1 X90.518 Y97.833 E.01948
G1 X90.201 Y98.368 E.0195
G1 X89.747 Y98.792 E.01948
G1 X89.205 Y99.066 E.01904
G1 X88.584 Y99.181 E.0198
G1 X87.963 Y99.116 E.01958
G1 X87.388 Y98.879 E.0195
G1 X86.904 Y98.49 E.01947
G1 X86.556 Y97.991 E.01907
;WIDTH:0.454053
G1 X86.472 Y97.797 E.00723
;WIDTH:0.488106
G1 X86.388 Y97.602 E.00786
;WIDTH:0.522159
G1 X86.304 Y97.408 E.00842
;WIDTH:0.552478
G1 X86.263 Y97.231 E.0077
;WIDTH:0.570808
G1 X86.28 Y96.589 E.02819
G1 X86.347 Y96.447 E.00689
;WIDTH:0.533106
G1 X86.414 Y96.305 E.0064
;WIDTH:0.495404
G1 X86.479 Y96.169 E.00567
G1 X86.844 Y96.273 F9000
;TYPE:External perimeter
;WIDTH:0.419999
G1 F1800
G1 X87.116 Y95.836 E.01614
G1 X87.5 Y95.493 E.01614
G1 X87.965 Y95.272 E.01614
G1 X88.46 Y95.193 E.01572
G1 X88.983 Y95.257 E.01652
G1 X89.455 Y95.464 E.01616
G1 X89.849 Y95.795 E.01613
G1 X90.134 Y96.224 E.01615
G1 X90.286 Y96.716 E.01615
G1 X90.294 Y97.231 E.01615
G1 X90.156 Y97.727 E.01614
G1 X89.884 Y98.164 E.01614
G1 X89.5 Y98.507 E.01614
G1 X89.047 Y98.723 E.01574
G1 X88.528 Y98.808 E.01649
G1 X88.016 Y98.743 E.01618
G1 X87.545 Y98.536 E.01613
G1 X87.151 Y98.205 E.01613
G1 X86.872 Y97.787 E.01576
G1 X86.714 Y97.285 E.0165
G1 X86.706 Y96.769 E.01618
G1 X86.828 Y96.331 E.01426
G1 X86.607 Y95.951 F9000
G1 E-3.5 F3600
;WIPE_START
G1 F7200
G1 X87.116 Y95.836 E-.27203
G1 X87.5 Y95.493 E-.24457
G1 X87.965 Y95.272 E-.24455
G1 X88.46 Y95.193 E-.2381
G1 X88.983 Y95.257 E-.25028
G1 X89.455 Y95.464 E-.24481
G1 X89.464 Y95.472 E-.00566
;WIPE_END
G1 X144.313 Y99.389 F9000
G1 E5 F2400
;TYPE:Perimeter
G1 F1800
G1 X144.313 Y133.053 E1.05551
;WIDTH:0.457702
G1 X144.294 Y133.168 E.00402
;WIDTH:0.495404
G1 X144.275 Y133.283 E.00439
;WIDTH:0.533106
G1 X144.256 Y133.399 E.00479
;WIDTH:0.570808
G1 X144.238 Y133.514 E.00511
G1 X144.247 Y133.769 E.0112
;WIDTH:0.559198
G1 X144.243 Y134.385 E.02644
G1 X144.267 Y134.573 E.00814
;WIDTH:0.512799
G1 X144.29 Y134.76 E.00736
;WIDTH:0.466399
G1 X144.313 Y134.947 E.00663
;WIDTH:0.419999
G1 X144.313 Y136.813 E.05851
G1 X142.815 Y136.813 E.04697
;WIDTH:0.460434
G1 X142.633 Y136.793 E.00636
;WIDTH:0.500868
G1 X142.451 Y136.772 E.00698
;WIDTH:0.541302
G1 X142.269 Y136.752 E.00759
;WIDTH:0.581734
G1 X142.087 Y136.732 E.0082
G1 X141.5 Y136.751 E.02631
G1 X140.913 Y136.732 E.02631
G1 X140.846 Y136.752 E.00313
;WIDTH:0.541301
G1 X140.78 Y136.772 E.00286
;WIDTH:0.500867
G1 X140.713 Y136.793 E.00267
;WIDTH:0.460433
G1 X140.647 Y136.813 E.00239
;WIDTH:0.419999
G1 X89.368 Y136.813 E1.60781
;WIDTH:0.461079
G1 X89.302 Y136.792 E.00241
;WIDTH:0.502159
G1 X89.236 Y136.772 E.00263
;WIDTH:0.543239
G1 X89.17 Y136.751 E.00288
;WIDTH:0.584318
G1 X89.105 Y136.731 E.00306
G1 X88.5 Y136.751 E.02725
;WIDTH:0.581735
G1 X87.913 Y136.732 E.02631
G1 X87.731 Y136.752 E.0082
;WIDTH:0.541301
G1 X87.549 Y136.772 E.00759
;WIDTH:0.500867
G1 X87.367 Y136.793 E.00698
;WIDTH:0.460433
G1 X87.185 Y136.813 E.00636
;WIDTH:0.419999
G1 X85.687 Y136.813 E.04697
G1 X85.687 Y134.965 E.05794
;WIDTH:0.464159
G1 X85.709 Y134.72 E.00862
;WIDTH:0.508319
G1 X85.731 Y134.475 E.00952
;WIDTH:0.552478
G1 X85.753 Y134.231 E.01038
;WIDTH:0.570548
G1 X85.762 Y133.516 E.03137
G1 X85.744 Y133.404 E.00498
;WIDTH:0.532911
G1 X85.725 Y133.292 E.00463
;WIDTH:0.495274
G1 X85.706 Y133.179 E.00431
;WIDTH:0.457637
G1 X85.687 Y133.067 E.00392
;WIDTH:0.419999
G1 X85.687 Y97.965 E1.1006
;WIDTH:0.464159
G1 X85.709 Y97.72 E.00862
;WIDTH:0.508319
G1 X85.731 Y97.475 E.00952
;WIDTH:0.552478
G1 X85.753 Y97.231 E.01038
;WIDTH:0.570808
G1 X85.762 Y96.514 E.03147
G1 X85.744 Y96.399 E.00511
;WIDTH:0.533106
G1 X85.725 Y96.283 E.00479
;WIDTH:0.495404
G1 X85.706 Y96.168 E.00439
;WIDTH:0.457702
G1 X85.687 Y96.053 E.00402
;WIDTH:0.419999
G1 X85.687 Y88.187 E.24663
G1 X144.313 Y88.187 E1.83817
G1 X144.313 Y91.517 E.10441
G1 X144.313 Y96.053 E.14222
;WIDTH:0.457702
G1 X144.294 Y96.168 E.00402
;WIDTH:0.495404
G1 X144.275 Y96.283 E.00439
;WIDTH:0.533106
G1 X144.256 Y96.399 E.00479
;WIDTH:0.570808
G1 X144.238 Y96.514 E.00511
G1 X144.247 Y96.769 E.0112
;WIDTH:0.559198
G1 X144.243 Y97.385 E.02644
G1 X144.267 Y97.573 E.00814
;WIDTH:0.512799
G1 X144.29 Y97.76 E.00736
;WIDTH:0.466399
G1 X144.313 Y97.947 E.00663
;WIDTH:0.419999
G1 X144.313 Y99.329 E.04333
G1 E-3.5 F3600
;WIPE_START
G1 F7200
G1 X144.313 Y102.487 E-1.5
;WIPE_END
G1 X144.69 Y87.81 F9000
G1 E5 F2400
;TYPE:External perimeter
G1 F1800
G1 X144.69 Y137.19 E1.54827
G1 X85.31 Y137.19 E1.86182
G1 X85.31 Y87.81 E1.54827
G1 X144.63 Y87.81 E1.85993
G1 X144.575 Y88.193 F9000
G1 E-3.5 F3600
;WIPE_START
G1 F7200
G1 X144.634 Y90.968 E-1.5
;WIPE_END
G1 X143.815 Y99.081 F9000
G1 E5 F2400
;TYPE:Solid infill
;WIDTH:0.42128
G1 F1800
G1 X143.624 Y98.89 E.0085
G1 X143.351 Y99.152 E.0119
