; generated by PrusaSlicer 2.6.0+win64 on 2023-09-27 at 22:46:17 UTC

; 

; external perimeters extrusion width = 0.42mm
; perimeters extrusion width = 0.44mm
; infill extrusion width = 0.44mm
; solid infill extrusion width = 0.44mm
; top infill extrusion width = 0.40mm
; first layer extrusion width = 0.42mm

;TYPE:Custom
M109 S0
M190 S0
start_print EXTRUDER_TEMP=215 BED_TEMP=60
G21 ; set units to millimeters
G90 ; use absolute coordinates
M83 ; use relative distances for extrusion
; Filament gcode
M107
;LAYER_CHANGE
;Z:0.2
;HEIGHT:0.2
;BEFORE_LAYER_CHANGE
G92 E0
;0.2


G1 E-5 F3600
G1 Z.2 F9000
;AFTER_LAYER_CHANGE
;0.2
G1 X70.017 Y56.417
G1 E5 F2400
M204 S500
;TYPE:Skirt/Brim
;WIDTH:0.42
G1 F1200
G1 X70.914 Y55.345 E.04383
G1 X77.907 Y49.85 E.27885
G1 X79.993 Y49.128 E.06921
G1 X150 Y49.123 E2.19502
G1 X152.086 Y49.845 E.06921
G1 X159.086 Y55.345 E.27912
G1 X160.088 Y56.633 E.05117
G1 X160.377 Y58 E.04381
G1 X160.377 Y62.5 E.14109
G1 X150.358 Y156.193 E2.95443
G1 X149.51 Y158.092 E.06521
G1 X134.51 Y174.759 E.70306
G1 X133.158 Y175.672 E.05115
G1 X132 Y175.877 E.03687
G1 X98 Y175.877 E1.06605
G1 X96.417 Y175.483 E.05115
G1 X95.49 Y174.759 E.03688
G1 X80.49 Y158.093 E.70303
G1 X79.65 Y156.256 E.06333
G1 X69.649 Y76.929 E2.50693
G1 X69.623 Y58 E.59351
G1 X70.003 Y56.475 E.04928
G1 E-3.5 F3600
;WIPE_START
G1 F7200
G1 X70.914 Y55.345 E-.68946
G1 X72.256 Y54.291 E-.81054
;WIPE_END
G1 X75.475 Y58.287 F9000
G1 E5 F2400
;TYPE:Perimeter
;WIDTH:0.419999
G1 F1200
G1 X75.537 Y58.545 E.00832
G1 X75.753 Y58.827 E.01114
G1 X76.01 Y58.989 E.00953
G1 X76.379 Y59.064 E.01181
G1 X86.621 Y59.064 E.32113
G1 X86.928 Y59.013 E.00976
G1 X87.156 Y58.898 E.00801
G1 X87.299 Y58.777 E.00587
G1 X87.492 Y58.483 E.01103
G1 X87.564 Y58.121 E.01157
G1 X87.564 Y53.564 E.14288
G1 X142.436 Y53.564 E1.72047
G1 X142.445 Y58.252 E.14699
G1 X142.531 Y58.534 E.00924
G1 X142.72 Y58.796 E.01013
G1 X143.027 Y58.996 E.01149
G1 X143.379 Y59.064 E.01124
G1 X153.621 Y59.064 E.32113
G1 X153.938 Y59.009 E.01009
G1 X154.221 Y58.849 E.01019
G1 X154.463 Y58.545 E.01218
G1 X154.564 Y58.125 E.01354
G1 X154.567 Y57.441 E.02145
G1 X155.936 Y58.517 E.0546
G1 X155.936 Y58.895 E.01185
G1 X155.936 Y62.059 E.0992
G1 X146.212 Y71.776 E.43102
G1 X146.006 Y72.087 E.0117
G1 X145.936 Y72.443 E.01138
G1 X145.936 Y155.425 E2.60184
G1 X131.526 Y171.436 E.67539
G1 X98.474 Y171.436 E1.03632
G1 X84.064 Y155.425 E.67539
G1 X84.064 Y148.962 E.20264
G1 X87.468 Y145.564 E.15081
G1 X89.75 Y145.564 E.07155
G1 X89.543 Y145.655 E.00709
G1 X89.147 Y145.922 E.01497
G1 X88.875 Y146.204 E.01228
G1 X88.561 Y146.724 E.01905
G1 X88.422 Y147.448 E.02312
G1 X88.45 Y147.84 E.01232
G1 X88.582 Y148.299 E.01497
G1 X88.711 Y148.574 E.00952
G1 X89.073 Y149.011 E.01779
G1 X89.323 Y149.221 E.01024
G1 X89.797 Y149.466 E.01673
G1 X90.378 Y149.575 E.01853
G1 X90.769 Y149.561 E.01227
G1 X91.318 Y149.419 E.01778
G1 X91.795 Y149.134 E.01742
G1 X92.03 Y148.906 E.01027
G1 X92.351 Y148.46 E.01723
G1 X92.468 Y148.171 E.00978
G1 X92.572 Y147.682 E.01568
G1 X92.569 Y147.304 E.01185
G1 X92.424 Y146.687 E.01987
G1 X92.03 Y146.094 E.02232
G1 X91.739 Y145.831 E.0123
;WIDTH:0.425049
G1 X91.285 Y145.572 E.01661
G1 X91.81 Y145.564 E.01668
;WIDTH:0.419999
G1 X92.721 Y145.559 E.02856
G1 X93.093 Y145.437 E.01228
G1 X93.305 Y145.269 E.00848
G1 X93.486 Y144.995 E.0103
G1 X93.563 Y144.631 E.01167
G1 X94.065 Y92.389 E1.63808
G1 X94 Y92.035 E.01128
G1 X93.8 Y91.724 E.01159
G1 X93.502 Y91.517 E.01138
G1 X93.132 Y91.437 E.01187
G1 X91.284 Y91.419 E.05795
G1 X91.582 Y91.274 E.01039
G1 X91.959 Y90.98 E.01499
G1 X92.178 Y90.737 E.01026
G1 X92.449 Y90.244 E.01764
G1 X92.569 Y89.696 E.01759
G1 X92.575 Y89.333 E.01138
G1 X92.47 Y88.839 E.01584
G1 X92.33 Y88.508 E.01127
G1 X92.03 Y88.094 E.01603
G1 X91.802 Y87.871 E.01
G1 X91.325 Y87.593 E.01731
G1 X90.957 Y87.472 E.01215
G1 X90.348 Y87.417 E.01917
G1 X89.851 Y87.52 E.01591
G1 X89.543 Y87.655 E.01054
G1 X89.147 Y87.922 E.01497
G1 X88.875 Y88.204 E.01228
G1 X88.522 Y88.83 E.02253
G1 X88.422 Y89.448 E.01963
G1 X88.45 Y89.84 E.01232
G1 X88.69 Y90.541 E.02323
G1 X88.912 Y90.851 E.01196
G1 X89.148 Y91.079 E.01029
;WIDTH:0.421431
G1 X89.678 Y91.402 E.01953
G1 X89.049 Y91.398 E.0198
;WIDTH:0.419999
G1 X87.975 Y91.387 E.03368
G1 X86.147 Y89.378 E.08516
G1 X86.304 Y89.447 E.00538
G1 X86.806 Y89.398 E.01581
G1 X86.962 Y89.338 E.00524
G1 X87.28 Y89.133 E.01186
G1 X87.518 Y88.751 E.01411
G1 X87.564 Y88.459 E.00927
G1 X87.564 Y62.379 E.81772
G1 X87.527 Y62.116 E.00833
G1 X87.384 Y61.825 E.01017
G1 X87.156 Y61.602 E.01
G1 X86.928 Y61.487 E.00801
G1 X86.621 Y61.436 E.00976
G1 X76.496 Y61.436 E.31746
G1 X76.08 Y61.532 E.01339
G1 X75.831 Y61.711 E.00962
G1 X75.631 Y62.003 E.0111
G1 X75.553 Y62.379 E.01204
G1 X75.553 Y77.558 E.47593
G1 X75.67 Y77.861 E.01018
G1 X74.064 Y76.095 E.07484
G1 X74.064 Y58.517 E.55114
G1 X75.433 Y57.442 E.05458
G1 X75.436 Y58.125 E.02142
G1 X75.461 Y58.229 E.00335
G1 X75.832 Y58.205 F9000
G1 F1200
G1 X75.873 Y58.376 E.00551
G1 X76.003 Y58.545 E.00669
G1 X76.158 Y58.642 E.00573
G1 X76.379 Y58.687 E.00707
G1 X86.621 Y58.687 E.32113
G1 X86.806 Y58.656 E.00588
G1 X86.942 Y58.587 E.00478
G1 X87.111 Y58.406 E.00776
G1 X87.187 Y58.121 E.00925
G1 X87.187 Y53.379 E.14868
G1 X86.996 Y53.187 E.00849
G1 X142.974 Y53.187 E1.75515
G1 X142.813 Y53.379 E.00786
G1 X142.813 Y58.121 E.14868
G1 X142.818 Y58.2 E.00248
G1 X142.912 Y58.441 E.00811
G1 X143.1 Y58.614 E.00801
G1 X143.379 Y58.687 E.00904
G1 X153.621 Y58.687 E.32113
G1 X153.811 Y58.654 E.00605
G1 X153.981 Y58.558 E.00612
G1 X154.127 Y58.376 E.00732
G1 X154.187 Y58.124 E.00812
G1 X154.193 Y56.668 E.04565
G1 X156.313 Y58.334 E.08454
G1 X156.313 Y58.895 E.01759
G1 X156.313 Y62.215 E.1041
G1 X147.052 Y71.471 E.41054
G1 X146.375 Y72.186 E.03087
G1 X146.313 Y72.443 E.00829
G1 X146.313 Y155.57 E2.60638
G1 X131.694 Y171.813 E.68518
G1 X98.306 Y171.813 E1.04686
G1 X83.687 Y155.57 E.68518
G1 X83.687 Y148.806 E.21208
G1 X87.312 Y145.187 E.16061
G1 X89.038 Y145.187 E.05412
;WIDTH:0.423065
G1 X89.856 Y145.189 E.02586
;WIDTH:0.460225
G1 X90.035 Y145.207 E.00624
;WIDTH:0.497385
G1 X90.215 Y145.226 E.00684
;WIDTH:0.534544
G1 X90.394 Y145.244 E.00735
;WIDTH:0.562472
G1 X90.952 Y145.258 E.02411
G1 X91.079 Y145.235 E.00558
;WIDTH:0.516665
G1 X91.206 Y145.213 E.00508
;WIDTH:0.470857
G1 X91.333 Y145.19 E.00459
;WIDTH:0.425049
G1 X91.81 Y145.187 E.01516
;WIDTH:0.419999
G1 X92.62 Y145.187 E.0254
G1 X92.904 Y145.111 E.00922
G1 X93.111 Y144.903 E.0092
G1 X93.186 Y144.627 E.00897
G1 X93.684 Y92.307 E1.64053
G1 X93.578 Y92.045 E.00886
G1 X93.35 Y91.862 E.00917
G1 X93.128 Y91.814 E.00712
G1 X91.223 Y91.796 E.05973
;WIDTH:0.453402
G1 X90.992 Y91.777 E.00791
;WIDTH:0.486805
G1 X90.761 Y91.758 E.00855
;WIDTH:0.520207
G1 X90.529 Y91.739 E.00924
;WIDTH:0.565276
G1 X89.913 Y91.711 E.02678
G1 X89.783 Y91.733 E.00573
;WIDTH:0.517328
G1 X89.653 Y91.756 E.00521
;WIDTH:0.46938
G1 X89.523 Y91.779 E.00468
;WIDTH:0.421431
G1 X89.045 Y91.775 E.01504
;WIDTH:0.419999
G1 X87.807 Y91.763 E.03882
G1 X85.99 Y89.766 E.08465
;WIDTH:0.461459
G1 X85.87 Y89.603 E.00704
;WIDTH:0.502919
G1 X85.751 Y89.441 E.00769
;WIDTH:0.544379
G1 X85.631 Y89.278 E.00844
G1 X75.661 Y78.318 E.61779
G1 X75.493 Y78.164 E.0095
;WIDTH:0.502919
G1 X75.325 Y78.011 E.00869
;WIDTH:0.461459
G1 X75.157 Y77.857 E.00793
;WIDTH:0.419999
G1 X73.687 Y76.241 E.0685
G1 X73.687 Y58.334 E.56146
G1 X75.807 Y56.668 E.08454
G1 X75.818 Y58.146 E.04634
G1 X76.19 Y58.122 F9000
;TYPE:External perimeter
G1 F1200
G1 X76.254 Y58.263 E.00486
G1 X76.379 Y58.31 E.00419
G1 X86.621 Y58.31 E.32113
G1 X86.757 Y58.253 E.00462
G1 X86.81 Y58.121 E.00446
G1 X86.81 Y53.379 E.14868
;WIDTH:0.421473
G1 X86.622 Y53.189 E.00841
G1 X80.193 Y53.184 E.20236
;WIDTH:0.417678
G1 X80.147 Y53.184 E.00143
G1 X80.003 Y53.078 E.00557
G1 X80.003 Y52.958 E.00374
G1 X80.118 Y52.809 E.00587
G1 X80.194 Y52.809 E.00237
;WIDTH:0.421473
G1 X87.379 Y52.81 E.22616
;WIDTH:0.419999
G1 X142.621 Y52.81 E1.73207
;WIDTH:0.421473
G1 X149.808 Y52.809 E.22622
;WIDTH:0.417676
G1 X149.939 Y52.851 E.00429
G1 X150.001 Y52.969 E.00415
G1 X149.953 Y53.132 E.00529
G1 X149.808 Y53.184 E.0048
;WIDTH:0.421473
G1 X143.378 Y53.189 E.2024
G1 X143.19 Y53.379 E.00841
;WIDTH:0.419999
G1 X143.19 Y58.121 E.14868
G1 X143.236 Y58.245 E.00415
G1 X143.379 Y58.31 E.00493
G1 X153.621 Y58.31 E.32113
G1 X153.741 Y58.267 E.004
G1 X153.81 Y58.122 E.00503
G1 X153.817 Y56.318 E.05656
G1 X153.839 Y56.188 E.00413
G1 X153.985 Y56.093 E.00546
G1 X154.136 Y56.144 E.005
G1 X156.69 Y58.151 E.10185
G1 X156.69 Y58.895 E.02333
G1 X156.69 Y62.372 E.10902
G1 X146.745 Y72.31 E.44082
G1 X146.69 Y72.443 E.00451
G1 X146.69 Y155.714 E2.6109
G1 X131.862 Y172.19 E.695
G1 X98.138 Y172.19 E1.05739
G1 X83.31 Y155.715 E.69497
G1 X83.31 Y148.65 E.22152
G1 X87.156 Y144.81 E.1704
G1 X92.62 Y144.81 E.17132
G1 X92.743 Y144.764 E.00412
G1 X92.809 Y144.623 E.00488
G1 X93.311 Y92.382 E1.63805
G1 X93.27 Y92.263 E.00395
G1 X93.124 Y92.191 E.0051
G1 X87.639 Y92.138 E.17199
G1 X73.31 Y76.387 E.66764
G1 X73.31 Y58.151 E.57178
G1 X75.849 Y56.156 E.10124
G1 X75.947 Y56.101 E.00352
G1 X76.117 Y56.136 E.00544
G1 X76.183 Y56.245 E.004
G1 X76.19 Y58.062 E.05697
G1 X76.085 Y58.235 F9000
G1 E-3.5 F3600
;WIPE_START
G1 F7200
G1 X76.254 Y58.263 E-.1002
G1 X76.379 Y58.31 E-.06343
G1 X79.192 Y58.31 E-1.33637
;WIPE_END
G1 X141.372 Y88.618 F9000
G1 E5 F2400
;TYPE:Perimeter
G1 F1200
G1 X141.47 Y88.839 E.00758
G1 X141.575 Y89.337 E.01596
G1 X141.569 Y89.696 E.01126
G1 X141.47 Y90.162 E.01494
G1 X141.347 Y90.466 E.01028
G1 X141.075 Y90.872 E.01532
G1 X140.582 Y91.274 E.01995
G1 X140.23 Y91.446 E.01228
G1 X139.655 Y91.582 E.01853
G1 X139.377 Y91.575 E.00872
G1 X138.836 Y91.477 E.01724
G1 X138.544 Y91.345 E.01005
G1 X138.117 Y91.056 E.01617
G1 X137.912 Y90.851 E.00909
G1 X137.628 Y90.426 E.01603
G1 X137.45 Y89.84 E.0192
G1 X137.419 Y89.48 E.01133
G1 X137.489 Y88.976 E.01595
G1 X137.578 Y88.689 E.00942
G1 X137.875 Y88.204 E.01783
G1 X138.12 Y87.942 E.01125
G1 X138.543 Y87.655 E.01603
G1 X138.851 Y87.52 E.01054
G1 X139.376 Y87.416 E.01678
G1 X139.957 Y87.472 E.0183
G1 X140.325 Y87.593 E.01215
G1 X140.891 Y87.941 E.02083
G1 X141.311 Y88.481 E.02145
G1 X141.348 Y88.563 E.00282
G1 X141.012 Y88.728 F9000
G1 F1200
G1 X141.064 Y88.802 E.00284
G1 X141.2 Y89.383 E.01871
G1 X141.2 Y89.617 E.00734
G1 X141.027 Y90.266 E.02106
G1 X140.727 Y90.683 E.01611
G1 X140.279 Y91.025 E.01767
G1 X139.676 Y91.195 E.01964
G1 X139.442 Y91.203 E.00734
G1 X138.93 Y91.111 E.01631
G1 X138.755 Y91.033 E.00601
G1 X138.34 Y90.753 E.0157
G1 X138.019 Y90.356 E.01601
G1 X137.812 Y89.736 E.02049
G1 X137.796 Y89.501 E.00739
G1 X137.868 Y88.995 E.01603
G1 X137.916 Y88.856 E.00461
G1 X138.195 Y88.404 E.01665
G1 X138.358 Y88.235 E.00736
G1 X138.776 Y87.953 E.01581
G1 X139.262 Y87.809 E.01589
G1 X139.456 Y87.797 E.00609
G1 X139.985 Y87.859 E.0167
G1 X140.55 Y88.158 E.02004
G1 X140.725 Y88.315 E.00737
G1 X140.978 Y88.679 E.0139
G1 X140.701 Y88.924 F9000
;TYPE:External perimeter
G1 F1200
G1 X140.831 Y89.461 E.01732
G1 X140.732 Y90.006 E.01737
G1 X140.495 Y90.386 E.01404
G1 X140.094 Y90.696 E.01589
G1 X139.585 Y90.829 E.0165
G1 X139.038 Y90.749 E.01733
G1 X138.57 Y90.453 E.01736
G1 X138.307 Y90.091 E.01403
G1 X138.169 Y89.605 E.01584
G1 X138.254 Y89.024 E.01841
G1 X138.518 Y88.598 E.01571
G1 X138.965 Y88.28 E.0172
G1 X139.415 Y88.171 E.01452
G1 X139.923 Y88.234 E.01605
G1 X140.362 Y88.484 E.01584
G1 X140.664 Y88.876 E.01552
G1 X141.099 Y88.957 F9000
G1 E-3.5 F3600
;WIPE_START
G1 F7200
G1 X140.831 Y89.461 E-.28898
G1 X140.732 Y90.006 E-.26311
G1 X140.495 Y90.386 E-.21273
G1 X140.094 Y90.696 E-.24076
G1 X139.585 Y90.829 E-.24989
G1 X139.076 Y90.755 E-.24453
;WIPE_END
G1 X92.205 Y89.467 F9000
G1 E5 F2400
;TYPE:Perimeter
G1 F1200
G1 X92.2 Y89.617 E.00471
G1 X92.088 Y90.133 E.01656
G1 X91.858 Y90.537 E.01458
G1 X91.35 Y90.977 E.02107
;WIDTH:0.464086
G1 X91.019 Y91.107 E.01245
;WIDTH:0.508172
G1 X90.687 Y91.238 E.01381
;WIDTH:0.52668
G1 X90.641 Y91.257 E.002
;WIDTH:0.565276
G1 X89.96 Y91.192 E.02971
G1 X89.76 Y91.05 E.01065
;WIDTH:0.516851
G1 X89.559 Y90.908 E.0097
;WIDTH:0.468425
G1 X89.359 Y90.766 E.00868
;WIDTH:0.419999
G1 X89.03 Y90.372 E.01609
G1 X88.944 Y90.195 E.00617
G1 X88.797 Y89.67 E.01709
G1 X88.862 Y89.029 E.0202
G1 X88.943 Y88.808 E.00738
G1 X89.195 Y88.404 E.01493
G1 X89.358 Y88.235 E.00736
G1 X89.754 Y87.968 E.01497
G1 X90.262 Y87.809 E.01669
G1 X90.456 Y87.797 E.00609
G1 X91.008 Y87.865 E.01744
G1 X91.55 Y88.158 E.01932
G1 X91.725 Y88.315 E.00737
G1 X92.028 Y88.735 E.01624
G1 X92.101 Y88.917 E.00615
G1 X92.204 Y89.407 E.0157
G1 X91.831 Y89.461 F9000
;TYPE:External perimeter
G1 F1200
G1 X91.732 Y90.006 E.01737
G1 X91.495 Y90.386 E.01404
G1 X91.048 Y90.714 E.01738
G1 X90.571 Y90.832 E.01541
G1 X90.038 Y90.749 E.01691
G1 X89.57 Y90.453 E.01736
G1 X89.307 Y90.091 E.01403
G1 X89.17 Y89.61 E.01568
G1 X89.236 Y89.081 E.01671
G1 X89.515 Y88.604 E.01733
G1 X89.965 Y88.28 E.01739
G1 X90.415 Y88.171 E.01452
G1 X90.93 Y88.237 E.01628
G1 X91.374 Y88.492 E.01605
G1 X91.701 Y88.924 E.01699
G1 X91.817 Y89.403 E.01545
G1 X92.183 Y89.651 F9000
G1 E-3.5 F3600
;WIPE_START
G1 F7200
G1 X91.732 Y90.006 E-.28926
G1 X91.495 Y90.386 E-.21273
G1 X91.048 Y90.714 E-.26335
G1 X90.571 Y90.832 E-.2334
G1 X90.038 Y90.749 E-.25623
G1 X89.602 Y90.473 E-.24503
;WIPE_END
G1 X86.588 Y89.054 F9000
G1 E5 F2400
;TYPE:Perimeter
G1 F1200
G1 X86.369 Y89.076 E.0069
;WIDTH:0.463679
G1 X86.273 Y89.056 E.00343
;WIDTH:0.507359
G1 X86.176 Y89.037 E.00382
;WIDTH:0.551038
G1 X86.08 Y89.018 E.00413
G1 X86.002 Y88.941 E.00463
;WIDTH:0.544379
G1 X76.032 Y77.981 E.61779
G1 X75.998 Y77.84 E.00605
;WIDTH:0.502919
G1 X75.964 Y77.699 E.00555
;WIDTH:0.461459
G1 X75.93 Y77.558 E.00505
;WIDTH:0.419999
G1 X75.93 Y62.379 E.47593
G1 X75.977 Y62.153 E.00724
G1 X76.097 Y61.978 E.00665
G1 X76.348 Y61.833 E.00909
G1 X76.496 Y61.813 E.00468
G1 X86.621 Y61.813 E.31746
G1 X86.806 Y61.844 E.00588
G1 X87.028 Y61.985 E.00825
G1 X87.165 Y62.221 E.00856
G1 X87.187 Y62.379 E.005
G1 X87.187 Y88.459 E.81772
G1 X87.159 Y88.634 E.00556
G1 X87.017 Y88.863 E.00845
G1 X86.826 Y88.986 E.00712
G1 X86.647 Y89.048 E.00594
G1 X86.534 Y88.694 F9000
;TYPE:External perimeter
G1 F1200
G1 X86.351 Y88.668 E.0058
G1 X86.327 Y88.645 E.00104
G1 X76.357 Y77.685 E.46455
G1 X76.308 Y77.558 E.00427
G1 X76.308 Y62.379 E.47593
G1 X76.363 Y62.245 E.00454
G1 X76.496 Y62.19 E.00451
G1 X86.621 Y62.19 E.31746
G1 X86.757 Y62.247 E.00462
G1 X86.81 Y62.379 E.00446
G1 X86.81 Y88.459 E.81772
G1 X86.753 Y88.593 E.00457
G1 X86.589 Y88.669 E.00567
G1 X86.465 Y88.866 F9000
G1 E-3.5 F3600
;WIPE_START
G1 F7200
G1 X86.351 Y88.668 E-.11305
G1 X86.327 Y88.645 E-.01579
G1 X84.385 Y86.51 E-1.37116
;WIPE_END
G1 X92.101 Y146.945 F9000
G1 E5 F2400
;TYPE:Perimeter
G1 F1200
G1 X92.2 Y147.383 E.01408
G1 X92.2 Y147.617 E.00734
G1 X92.094 Y148.114 E.01593
G1 X92.006 Y148.298 E.0064
G1 X91.704 Y148.712 E.01607
G1 X91.282 Y149.023 E.01644
G1 X90.678 Y149.195 E.01969
G1 X90.443 Y149.203 E.00737
G1 X89.906 Y149.105 E.01712
G1 X89.434 Y148.84 E.01697
G1 X89.055 Y148.403 E.01814
G1 X88.944 Y148.195 E.00739
G1 X88.812 Y147.736 E.01497
G1 X88.796 Y147.501 E.00739
G1 X88.906 Y146.877 E.01987
G1 X89.195 Y146.404 E.01738
G1 X89.358 Y146.235 E.00736
;WIDTH:0.423065
G1 X89.938 Y145.885 E.02141
;WIDTH:0.462419
G1 X90.054 Y145.837 E.00438
;WIDTH:0.501773
G1 X90.17 Y145.79 E.00478
;WIDTH:0.541126
G1 X90.286 Y145.742 E.0052
;WIDTH:0.562472
G1 X90.924 Y145.776 E.0276
G1 X91.133 Y145.903 E.01057
;WIDTH:0.514981
G1 X91.341 Y146.031 E.00959
;WIDTH:0.46749
G1 X91.55 Y146.158 E.00863
;WIDTH:0.419999
G1 X91.725 Y146.315 E.00737
G1 X91.913 Y146.574 E.01003
G1 X92.074 Y146.826 E.00938
G1 X92.088 Y146.886 E.00193
G1 X91.608 Y146.796 F9000
;TYPE:External perimeter
G1 F1200
G1 X91.732 Y146.995 E.00735
G1 X91.835 Y147.494 E.01598
G1 X91.732 Y148.005 E.01634
G1 X91.42 Y148.463 E.01738
G1 X91.049 Y148.713 E.01403
G1 X90.562 Y148.833 E.01573
G1 X90.038 Y148.749 E.01664
G1 X89.65 Y148.525 E.01405
G1 X89.307 Y148.091 E.01734
G1 X89.169 Y147.554 E.01738
G1 X89.25 Y147.031 E.01659
G1 X89.515 Y146.604 E.01576
G1 X89.965 Y146.28 E.01739
